<?xml version="1.0" encoding="UTF-8"?>
<map version="1.0" orientation="orthogonal" width="21" height="18" tilewidth="16" tileheight="16">
 <tileset firstgid="1" name="04000304" tilewidth="16" tileheight="16">
  <image source="04000304" trans="ffffff"/>
 </tileset>
 <layer name="Tile Layer 1" width="21" height="18">
  <properties>
   <property name="Main" value =""/>
  </properties>
  <data>
  <tile gid="20"/>
  <tile gid="18"/>
  <tile gid="21"/>
  <tile gid="21"/>
  <tile gid="18"/>
  <tile gid="22"/>
  <tile gid="20"/>
  <tile gid="21"/>
  <tile gid="21"/>
  <tile gid="18"/>
  <tile gid="21"/>
  <tile gid="21"/>
  <tile gid="22"/>
  <tile gid="20"/>
  <tile gid="18"/>
  <tile gid="21"/>
  <tile gid="21"/>
  <tile gid="18"/>
  <tile gid="22"/>
  <tile gid="20"/>
  <tile gid="21"/>
  <tile gid="52"/>
  <tile gid="50"/>
  <tile gid="53"/>
  <tile gid="53"/>
  <tile gid="50"/>
  <tile gid="54"/>
  <tile gid="52"/>
  <tile gid="53"/>
  <tile gid="53"/>
  <tile gid="50"/>
  <tile gid="53"/>
  <tile gid="53"/>
  <tile gid="54"/>
  <tile gid="52"/>
  <tile gid="50"/>
  <tile gid="53"/>
  <tile gid="53"/>
  <tile gid="50"/>
  <tile gid="54"/>
  <tile gid="52"/>
  <tile gid="53"/>
  <tile gid="422"/>
  <tile gid="419"/>
  <tile gid="422"/>
  <tile gid="419"/>
  <tile gid="422"/>
  <tile gid="419"/>
  <tile gid="422"/>
  <tile gid="419"/>
  <tile gid="422"/>
  <tile gid="419"/>
  <tile gid="422"/>
  <tile gid="419"/>
  <tile gid="422"/>
  <tile gid="419"/>
  <tile gid="422"/>
  <tile gid="419"/>
  <tile gid="422"/>
  <tile gid="419"/>
  <tile gid="422"/>
  <tile gid="419"/>
  <tile gid="422"/>
  <tile gid="418"/>
  <tile gid="421"/>
  <tile gid="13"/>
  <tile gid="420"/>
  <tile gid="418"/>
  <tile gid="421"/>
  <tile gid="13"/>
  <tile gid="420"/>
  <tile gid="418"/>
  <tile gid="421"/>
  <tile gid="418"/>
  <tile gid="421"/>
  <tile gid="13"/>
  <tile gid="420"/>
  <tile gid="418"/>
  <tile gid="421"/>
  <tile gid="418"/>
  <tile gid="421"/>
  <tile gid="13"/>
  <tile gid="420"/>
  <tile gid="418"/>
  <tile gid="421"/>
  <tile gid="418"/>
  <tile gid="45"/>
  <tile gid="451"/>
  <tile gid="421"/>
  <tile gid="418"/>
  <tile gid="45"/>
  <tile gid="451"/>
  <tile gid="421"/>
  <tile gid="418"/>
  <tile gid="421"/>
  <tile gid="418"/>
  <tile gid="45"/>
  <tile gid="451"/>
  <tile gid="421"/>
  <tile gid="418"/>
  <tile gid="421"/>
  <tile gid="418"/>
  <tile gid="45"/>
  <tile gid="451"/>
  <tile gid="421"/>
  <tile gid="418"/>
  <tile gid="421"/>
  <tile gid="418"/>
  <tile gid="421"/>
  <tile gid="418"/>
  <tile gid="421"/>
  <tile gid="418"/>
  <tile gid="421"/>
  <tile gid="418"/>
  <tile gid="421"/>
  <tile gid="418"/>
  <tile gid="421"/>
  <tile gid="418"/>
  <tile gid="421"/>
  <tile gid="418"/>
  <tile gid="421"/>
  <tile gid="418"/>
  <tile gid="421"/>
  <tile gid="418"/>
  <tile gid="421"/>
  <tile gid="418"/>
  <tile gid="421"/>
  <tile gid="418"/>
  <tile gid="421"/>
  <tile gid="418"/>
  <tile gid="353"/>
  <tile gid="279"/>
  <tile gid="279"/>
  <tile gid="296"/>
  <tile gid="420"/>
  <tile gid="418"/>
  <tile gid="421"/>
  <tile gid="296"/>
  <tile gid="279"/>
  <tile gid="279"/>
  <tile gid="279"/>
  <tile gid="326"/>
  <tile gid="420"/>
  <tile gid="418"/>
  <tile gid="421"/>
  <tile gid="418"/>
  <tile gid="421"/>
  <tile gid="418"/>
  <tile gid="421"/>
  <tile gid="418"/>
  <tile gid="421"/>
  <tile gid="292"/>
  <tile gid="311"/>
  <tile gid="80"/>
  <tile gid="566"/>
  <tile gid="417"/>
  <tile gid="421"/>
  <tile gid="418"/>
  <tile gid="566"/>
  <tile gid="80"/>
  <tile gid="311"/>
  <tile gid="311"/>
  <tile gid="292"/>
  <tile gid="417"/>
  <tile gid="421"/>
  <tile gid="13"/>
  <tile gid="420"/>
  <tile gid="418"/>
  <tile gid="421"/>
  <tile gid="13"/>
  <tile gid="420"/>
  <tile gid="418"/>
  <tile gid="292"/>
  <tile gid="450"/>
  <tile gid="112"/>
  <tile gid="450"/>
  <tile gid="421"/>
  <tile gid="418"/>
  <tile gid="421"/>
  <tile gid="419"/>
  <tile gid="112"/>
  <tile gid="450"/>
  <tile gid="422"/>
  <tile gid="292"/>
  <tile gid="420"/>
  <tile gid="418"/>
  <tile gid="45"/>
  <tile gid="451"/>
  <tile gid="421"/>
  <tile gid="418"/>
  <tile gid="45"/>
  <tile gid="451"/>
  <tile gid="421"/>
  <tile gid="292"/>
  <tile gid="420"/>
  <tile gid="418"/>
  <tile gid="421"/>
  <tile gid="418"/>
  <tile gid="421"/>
  <tile gid="418"/>
  <tile gid="421"/>
  <tile gid="418"/>
  <tile gid="421"/>
  <tile gid="418"/>
  <tile gid="278"/>
  <tile gid="279"/>
  <tile gid="279"/>
  <tile gid="279"/>
  <tile gid="279"/>
  <tile gid="279"/>
  <tile gid="421"/>
  <tile gid="418"/>
  <tile gid="421"/>
  <tile gid="418"/>
  <tile gid="292"/>
  <tile gid="417"/>
  <tile gid="421"/>
  <tile gid="418"/>
  <tile gid="421"/>
  <tile gid="418"/>
  <tile gid="421"/>
  <tile gid="418"/>
  <tile gid="421"/>
  <tile gid="418"/>
  <tile gid="421"/>
  <tile gid="597"/>
  <tile gid="311"/>
  <tile gid="311"/>
  <tile gid="311"/>
  <tile gid="311"/>
  <tile gid="311"/>
  <tile gid="418"/>
  <tile gid="421"/>
  <tile gid="418"/>
  <tile gid="353"/>
  <tile gid="386"/>
  <tile gid="420"/>
  <tile gid="418"/>
  <tile gid="30"/>
  <tile gid="31"/>
  <tile gid="420"/>
  <tile gid="418"/>
  <tile gid="421"/>
  <tile gid="418"/>
  <tile gid="421"/>
  <tile gid="418"/>
  <tile gid="629"/>
  <tile gid="597"/>
  <tile gid="311"/>
  <tile gid="311"/>
  <tile gid="311"/>
  <tile gid="311"/>
  <tile gid="421"/>
  <tile gid="418"/>
  <tile gid="421"/>
  <tile gid="292"/>
  <tile gid="141"/>
  <tile gid="417"/>
  <tile gid="421"/>
  <tile gid="62"/>
  <tile gid="63"/>
  <tile gid="417"/>
  <tile gid="421"/>
  <tile gid="418"/>
  <tile gid="421"/>
  <tile gid="418"/>
  <tile gid="421"/>
  <tile gid="629"/>
  <tile gid="629"/>
  <tile gid="597"/>
  <tile gid="311"/>
  <tile gid="311"/>
  <tile gid="311"/>
  <tile gid="418"/>
  <tile gid="421"/>
  <tile gid="418"/>
  <tile gid="292"/>
  <tile gid="450"/>
  <tile gid="421"/>
  <tile gid="418"/>
  <tile gid="94"/>
  <tile gid="95"/>
  <tile gid="420"/>
  <tile gid="418"/>
  <tile gid="421"/>
  <tile gid="418"/>
  <tile gid="421"/>
  <tile gid="418"/>
  <tile gid="629"/>
  <tile gid="629"/>
  <tile gid="629"/>
  <tile gid="597"/>
  <tile gid="311"/>
  <tile gid="311"/>
  <tile gid="421"/>
  <tile gid="13"/>
  <tile gid="420"/>
  <tile gid="292"/>
  <tile gid="420"/>
  <tile gid="418"/>
  <tile gid="421"/>
  <tile gid="419"/>
  <tile gid="235"/>
  <tile gid="418"/>
  <tile gid="421"/>
  <tile gid="418"/>
  <tile gid="421"/>
  <tile gid="418"/>
  <tile gid="421"/>
  <tile gid="629"/>
  <tile gid="629"/>
  <tile gid="629"/>
  <tile gid="629"/>
  <tile gid="597"/>
  <tile gid="311"/>
  <tile gid="418"/>
  <tile gid="45"/>
  <tile gid="451"/>
  <tile gid="292"/>
  <tile gid="417"/>
  <tile gid="421"/>
  <tile gid="418"/>
  <tile gid="421"/>
  <tile gid="418"/>
  <tile gid="421"/>
  <tile gid="418"/>
  <tile gid="421"/>
  <tile gid="418"/>
  <tile gid="421"/>
  <tile gid="418"/>
  <tile gid="629"/>
  <tile gid="629"/>
  <tile gid="629"/>
  <tile gid="629"/>
  <tile gid="629"/>
  <tile gid="597"/>
  <tile gid="421"/>
  <tile gid="418"/>
  <tile gid="421"/>
  <tile gid="292"/>
  <tile gid="420"/>
  <tile gid="418"/>
  <tile gid="421"/>
  <tile gid="418"/>
  <tile gid="421"/>
  <tile gid="418"/>
  <tile gid="421"/>
  <tile gid="418"/>
  <tile gid="421"/>
  <tile gid="418"/>
  <tile gid="421"/>
  <tile gid="629"/>
  <tile gid="629"/>
  <tile gid="629"/>
  <tile gid="629"/>
  <tile gid="629"/>
  <tile gid="629"/>
  <tile gid="418"/>
  <tile gid="421"/>
  <tile gid="418"/>
  <tile gid="292"/>
  <tile gid="417"/>
  <tile gid="421"/>
  <tile gid="418"/>
  <tile gid="421"/>
  <tile gid="418"/>
  <tile gid="421"/>
  <tile gid="418"/>
  <tile gid="421"/>
  <tile gid="418"/>
  <tile gid="421"/>
  <tile gid="418"/>
  <tile gid="629"/>
  <tile gid="629"/>
  <tile gid="629"/>
  <tile gid="629"/>
  <tile gid="629"/>
  <tile gid="629"/>
  </data>
 </layer>
</map>