<?xml version="1.0" encoding="UTF-8"?>
<map version="1.0" orientation="orthogonal" width="15" height="19" tilewidth="16" tileheight="16">
 <tileset firstgid="1" name="04000304" tilewidth="16" tileheight="16">
  <image source="04000304.png" trans="ffffff"/>
 </tileset>
 <layer name="Tile Layer 1" width="15" height="19">
  <properties>
   <property name="Main" value =""/>
  </properties>
  <data>
  <tile gid="240"/>
  <tile gid="7"/>
  <tile gid="279"/>
  <tile gid="279"/>
  <tile gid="279"/>
  <tile gid="279"/>
  <tile gid="7"/>
  <tile gid="279"/>
  <tile gid="7"/>
  <tile gid="279"/>
  <tile gid="279"/>
  <tile gid="279"/>
  <tile gid="279"/>
  <tile gid="7"/>
  <tile gid="239"/>
  <tile gid="240"/>
  <tile gid="39"/>
  <tile gid="145"/>
  <tile gid="146"/>
  <tile gid="147"/>
  <tile gid="148"/>
  <tile gid="73"/>
  <tile gid="185"/>
  <tile gid="73"/>
  <tile gid="145"/>
  <tile gid="146"/>
  <tile gid="147"/>
  <tile gid="148"/>
  <tile gid="39"/>
  <tile gid="239"/>
  <tile gid="240"/>
  <tile gid="73"/>
  <tile gid="177"/>
  <tile gid="178"/>
  <tile gid="179"/>
  <tile gid="180"/>
  <tile gid="73"/>
  <tile gid="185"/>
  <tile gid="73"/>
  <tile gid="177"/>
  <tile gid="178"/>
  <tile gid="179"/>
  <tile gid="180"/>
  <tile gid="73"/>
  <tile gid="239"/>
  <tile gid="240"/>
  <tile gid="71"/>
  <tile gid="209"/>
  <tile gid="210"/>
  <tile gid="211"/>
  <tile gid="212"/>
  <tile gid="71"/>
  <tile gid="272"/>
  <tile gid="71"/>
  <tile gid="209"/>
  <tile gid="210"/>
  <tile gid="211"/>
  <tile gid="212"/>
  <tile gid="71"/>
  <tile gid="239"/>
  <tile gid="637"/>
  <tile gid="698"/>
  <tile gid="606"/>
  <tile gid="697"/>
  <tile gid="366"/>
  <tile gid="851"/>
  <tile gid="752"/>
  <tile gid="752"/>
  <tile gid="790"/>
  <tile gid="366"/>
  <tile gid="698"/>
  <tile gid="606"/>
  <tile gid="697"/>
  <tile gid="637"/>
  <tile gid="430"/>
  <tile gid="731"/>
  <tile gid="731"/>
  <tile gid="728"/>
  <tile gid="667"/>
  <tile gid="374"/>
  <tile gid="783"/>
  <tile gid="784"/>
  <tile gid="784"/>
  <tile gid="785"/>
  <tile gid="430"/>
  <tile gid="668"/>
  <tile gid="727"/>
  <tile gid="731"/>
  <tile gid="728"/>
  <tile gid="697"/>
  <tile gid="536"/>
  <tile gid="536"/>
  <tile gid="760"/>
  <tile gid="671"/>
  <tile gid="374"/>
  <tile gid="783"/>
  <tile gid="784"/>
  <tile gid="784"/>
  <tile gid="884"/>
  <tile gid="366"/>
  <tile gid="672"/>
  <tile gid="759"/>
  <tile gid="536"/>
  <tile gid="536"/>
  <tile gid="728"/>
  <tile gid="536"/>
  <tile gid="536"/>
  <tile gid="667"/>
  <tile gid="430"/>
  <tile gid="488"/>
  <tile gid="821"/>
  <tile gid="758"/>
  <tile gid="757"/>
  <tile gid="374"/>
  <tile gid="471"/>
  <tile gid="472"/>
  <tile gid="668"/>
  <tile gid="536"/>
  <tile gid="536"/>
  <tile gid="536"/>
  <tile gid="536"/>
  <tile gid="536"/>
  <tile gid="697"/>
  <tile gid="366"/>
  <tile gid="366"/>
  <tile gid="374"/>
  <tile gid="374"/>
  <tile gid="374"/>
  <tile gid="375"/>
  <tile gid="374"/>
  <tile gid="374"/>
  <tile gid="672"/>
  <tile gid="732"/>
  <tile gid="536"/>
  <tile gid="536"/>
  <tile gid="536"/>
  <tile gid="536"/>
  <tile gid="728"/>
  <tile gid="671"/>
  <tile gid="375"/>
  <tile gid="374"/>
  <tile gid="372"/>
  <tile gid="373"/>
  <tile gid="375"/>
  <tile gid="374"/>
  <tile gid="374"/>
  <tile gid="698"/>
  <tile gid="732"/>
  <tile gid="536"/>
  <tile gid="536"/>
  <tile gid="536"/>
  <tile gid="760"/>
  <tile gid="667"/>
  <tile gid="488"/>
  <tile gid="374"/>
  <tile gid="374"/>
  <tile gid="705"/>
  <tile gid="706"/>
  <tile gid="374"/>
  <tile gid="488"/>
  <tile gid="672"/>
  <tile gid="727"/>
  <tile gid="536"/>
  <tile gid="536"/>
  <tile gid="762"/>
  <tile gid="764"/>
  <tile gid="631"/>
  <tile gid="671"/>
  <tile gid="366"/>
  <tile gid="374"/>
  <tile gid="368"/>
  <tile gid="769"/>
  <tile gid="401"/>
  <tile gid="374"/>
  <tile gid="366"/>
  <tile gid="698"/>
  <tile gid="729"/>
  <tile gid="536"/>
  <tile gid="762"/>
  <tile gid="663"/>
  <tile gid="536"/>
  <tile gid="728"/>
  <tile gid="699"/>
  <tile gid="374"/>
  <tile gid="374"/>
  <tile gid="737"/>
  <tile gid="401"/>
  <tile gid="488"/>
  <tile gid="374"/>
  <tile gid="696"/>
  <tile gid="727"/>
  <tile gid="536"/>
  <tile gid="762"/>
  <tile gid="665"/>
  <tile gid="924"/>
  <tile gid="536"/>
  <tile gid="536"/>
  <tile gid="764"/>
  <tile gid="671"/>
  <tile gid="375"/>
  <tile gid="705"/>
  <tile gid="706"/>
  <tile gid="366"/>
  <tile gid="672"/>
  <tile gid="732"/>
  <tile gid="536"/>
  <tile gid="536"/>
  <tile gid="764"/>
  <tile gid="671"/>
  <tile gid="956"/>
  <tile gid="536"/>
  <tile gid="760"/>
  <tile gid="667"/>
  <tile gid="374"/>
  <tile gid="374"/>
  <tile gid="400"/>
  <tile gid="401"/>
  <tile gid="375"/>
  <tile gid="374"/>
  <tile gid="666"/>
  <tile gid="732"/>
  <tile gid="536"/>
  <tile gid="764"/>
  <tile gid="695"/>
  <tile gid="374"/>
  <tile gid="536"/>
  <tile gid="667"/>
  <tile gid="488"/>
  <tile gid="374"/>
  <tile gid="375"/>
  <tile gid="374"/>
  <tile gid="374"/>
  <tile gid="374"/>
  <tile gid="374"/>
  <tile gid="672"/>
  <tile gid="759"/>
  <tile gid="536"/>
  <tile gid="536"/>
  <tile gid="728"/>
  <tile gid="695"/>
  <tile gid="764"/>
  <tile gid="671"/>
  <tile gid="430"/>
  <tile gid="374"/>
  <tile gid="374"/>
  <tile gid="724"/>
  <tile gid="726"/>
  <tile gid="725"/>
  <tile gid="488"/>
  <tile gid="374"/>
  <tile gid="668"/>
  <tile gid="759"/>
  <tile gid="536"/>
  <tile gid="536"/>
  <tile gid="728"/>
  <tile gid="764"/>
  <tile gid="697"/>
  <tile gid="366"/>
  <tile gid="374"/>
  <tile gid="962"/>
  <tile gid="806"/>
  <tile gid="784"/>
  <tile gid="806"/>
  <tile gid="963"/>
  <tile gid="374"/>
  <tile gid="374"/>
  <tile gid="703"/>
  <tile gid="536"/>
  <tile gid="536"/>
  <tile gid="536"/>
  <tile gid="536"/>
  <tile gid="760"/>
  <tile gid="671"/>
  <tile gid="430"/>
  <tile gid="870"/>
  <tile gid="784"/>
  <tile gid="784"/>
  <tile gid="784"/>
  <tile gid="870"/>
  <tile gid="488"/>
  <tile gid="700"/>
  <tile gid="727"/>
  <tile gid="536"/>
  <tile gid="536"/>
  <tile gid="536"/>
  </data>
 </layer>
 <layer name="Map Change 0" width="15" height="19">
  <properties>
   <property name="ID" value ="0"/>
   <property name="Height" value ="1"/>
   <property name="Width" value ="1"/>
   <property name="X" value ="7"/>
   <property name="Y" value ="3"/>
  </properties>
  <data>
  <tile gid="0"/>
  <tile gid="0"/>
  <tile gid="0"/>
  <tile gid="0"/>
  <tile gid="0"/>
  <tile gid="0"/>
  <tile gid="0"/>
  <tile gid="0"/>
  <tile gid="0"/>
  <tile gid="0"/>
  <tile gid="0"/>
  <tile gid="0"/>
  <tile gid="0"/>
  <tile gid="0"/>
  <tile gid="0"/>
  <tile gid="0"/>
  <tile gid="0"/>
  <tile gid="0"/>
  <tile gid="0"/>
  <tile gid="0"/>
  <tile gid="0"/>
  <tile gid="0"/>
  <tile gid="0"/>
  <tile gid="0"/>
  <tile gid="0"/>
  <tile gid="0"/>
  <tile gid="0"/>
  <tile gid="0"/>
  <tile gid="0"/>
  <tile gid="0"/>
  <tile gid="0"/>
  <tile gid="0"/>
  <tile gid="0"/>
  <tile gid="0"/>
  <tile gid="0"/>
  <tile gid="0"/>
  <tile gid="0"/>
  <tile gid="0"/>
  <tile gid="0"/>
  <tile gid="0"/>
  <tile gid="0"/>
  <tile gid="0"/>
  <tile gid="0"/>
  <tile gid="0"/>
  <tile gid="0"/>
  <tile gid="0"/>
  <tile gid="0"/>
  <tile gid="0"/>
  <tile gid="0"/>
  <tile gid="0"/>
  <tile gid="0"/>
  <tile gid="0"/>
  <tile gid="167"/>
  <tile gid="0"/>
  <tile gid="0"/>
  <tile gid="0"/>
  <tile gid="0"/>
  <tile gid="0"/>
  <tile gid="0"/>
  <tile gid="0"/>
  <tile gid="0"/>
  <tile gid="0"/>
  <tile gid="0"/>
  <tile gid="0"/>
  <tile gid="0"/>
  <tile gid="0"/>
  <tile gid="0"/>
  <tile gid="0"/>
  <tile gid="0"/>
  <tile gid="0"/>
  <tile gid="0"/>
  <tile gid="0"/>
  <tile gid="0"/>
  <tile gid="0"/>
  <tile gid="0"/>
  <tile gid="0"/>
  <tile gid="0"/>
  <tile gid="0"/>
  <tile gid="0"/>
  <tile gid="0"/>
  <tile gid="0"/>
  <tile gid="0"/>
  <tile gid="0"/>
  <tile gid="0"/>
  <tile gid="0"/>
  <tile gid="0"/>
  <tile gid="0"/>
  <tile gid="0"/>
  <tile gid="0"/>
  <tile gid="0"/>
  <tile gid="0"/>
  <tile gid="0"/>
  <tile gid="0"/>
  <tile gid="0"/>
  <tile gid="0"/>
  <tile gid="0"/>
  <tile gid="0"/>
  <tile gid="0"/>
  <tile gid="0"/>
  <tile gid="0"/>
  <tile gid="0"/>
  <tile gid="0"/>
  <tile gid="0"/>
  <tile gid="0"/>
  <tile gid="0"/>
  <tile gid="0"/>
  <tile gid="0"/>
  <tile gid="0"/>
  <tile gid="0"/>
  <tile gid="0"/>
  <tile gid="0"/>
  <tile gid="0"/>
  <tile gid="0"/>
  <tile gid="0"/>
  <tile gid="0"/>
  <tile gid="0"/>
  <tile gid="0"/>
  <tile gid="0"/>
  <tile gid="0"/>
  <tile gid="0"/>
  <tile gid="0"/>
  <tile gid="0"/>
  <tile gid="0"/>
  <tile gid="0"/>
  <tile gid="0"/>
  <tile gid="0"/>
  <tile gid="0"/>
  <tile gid="0"/>
  <tile gid="0"/>
  <tile gid="0"/>
  <tile gid="0"/>
  <tile gid="0"/>
  <tile gid="0"/>
  <tile gid="0"/>
  <tile gid="0"/>
  <tile gid="0"/>
  <tile gid="0"/>
  <tile gid="0"/>
  <tile gid="0"/>
  <tile gid="0"/>
  <tile gid="0"/>
  <tile gid="0"/>
  <tile gid="0"/>
  <tile gid="0"/>
  <tile gid="0"/>
  <tile gid="0"/>
  <tile gid="0"/>
  <tile gid="0"/>
  <tile gid="0"/>
  <tile gid="0"/>
  <tile gid="0"/>
  <tile gid="0"/>
  <tile gid="0"/>
  <tile gid="0"/>
  <tile gid="0"/>
  <tile gid="0"/>
  <tile gid="0"/>
  <tile gid="0"/>
  <tile gid="0"/>
  <tile gid="0"/>
  <tile gid="0"/>
  <tile gid="0"/>
  <tile gid="0"/>
  <tile gid="0"/>
  <tile gid="0"/>
  <tile gid="0"/>
  <tile gid="0"/>
  <tile gid="0"/>
  <tile gid="0"/>
  <tile gid="0"/>
  <tile gid="0"/>
  <tile gid="0"/>
  <tile gid="0"/>
  <tile gid="0"/>
  <tile gid="0"/>
  <tile gid="0"/>
  <tile gid="0"/>
  <tile gid="0"/>
  <tile gid="0"/>
  <tile gid="0"/>
  <tile gid="0"/>
  <tile gid="0"/>
  <tile gid="0"/>
  <tile gid="0"/>
  <tile gid="0"/>
  <tile gid="0"/>
  <tile gid="0"/>
  <tile gid="0"/>
  <tile gid="0"/>
  <tile gid="0"/>
  <tile gid="0"/>
  <tile gid="0"/>
  <tile gid="0"/>
  <tile gid="0"/>
  <tile gid="0"/>
  <tile gid="0"/>
  <tile gid="0"/>
  <tile gid="0"/>
  <tile gid="0"/>
  <tile gid="0"/>
  <tile gid="0"/>
  <tile gid="0"/>
  <tile gid="0"/>
  <tile gid="0"/>
  <tile gid="0"/>
  <tile gid="0"/>
  <tile gid="0"/>
  <tile gid="0"/>
  <tile gid="0"/>
  <tile gid="0"/>
  <tile gid="0"/>
  <tile gid="0"/>
  <tile gid="0"/>
  <tile gid="0"/>
  <tile gid="0"/>
  <tile gid="0"/>
  <tile gid="0"/>
  <tile gid="0"/>
  <tile gid="0"/>
  <tile gid="0"/>
  <tile gid="0"/>
  <tile gid="0"/>
  <tile gid="0"/>
  <tile gid="0"/>
  <tile gid="0"/>
  <tile gid="0"/>
  <tile gid="0"/>
  <tile gid="0"/>
  <tile gid="0"/>
  <tile gid="0"/>
  <tile gid="0"/>
  <tile gid="0"/>
  <tile gid="0"/>
  <tile gid="0"/>
  <tile gid="0"/>
  <tile gid="0"/>
  <tile gid="0"/>
  <tile gid="0"/>
  <tile gid="0"/>
  <tile gid="0"/>
  <tile gid="0"/>
  <tile gid="0"/>
  <tile gid="0"/>
  <tile gid="0"/>
  <tile gid="0"/>
  <tile gid="0"/>
  <tile gid="0"/>
  <tile gid="0"/>
  <tile gid="0"/>
  <tile gid="0"/>
  <tile gid="0"/>
  <tile gid="0"/>
  <tile gid="0"/>
  <tile gid="0"/>
  <tile gid="0"/>
  <tile gid="0"/>
  <tile gid="0"/>
  <tile gid="0"/>
  <tile gid="0"/>
  <tile gid="0"/>
  <tile gid="0"/>
  <tile gid="0"/>
  <tile gid="0"/>
  <tile gid="0"/>
  <tile gid="0"/>
  <tile gid="0"/>
  <tile gid="0"/>
  <tile gid="0"/>
  <tile gid="0"/>
  <tile gid="0"/>
  <tile gid="0"/>
  <tile gid="0"/>
  <tile gid="0"/>
  <tile gid="0"/>
  <tile gid="0"/>
  <tile gid="0"/>
  <tile gid="0"/>
  <tile gid="0"/>
  <tile gid="0"/>
  <tile gid="0"/>
  <tile gid="0"/>
  <tile gid="0"/>
  <tile gid="0"/>
  <tile gid="0"/>
  <tile gid="0"/>
  </data>
 </layer>
</map>
