<?xml version="1.0" encoding="UTF-8"?>
<map version="1.0" orientation="orthogonal" width="23" height="17" tilewidth="16" tileheight="16">
 <tileset firstgid="1" name="[A] Preview" tilewidth="16" tileheight="16">
  <image source="[A] Preview" trans="ffffff"/>
 </tileset>
 <layer name="Tile Layer 1" width="23" height="17">
  <properties>
   <property name="Main" value =""/>
  </properties>
  <data>
  <tile gid="906"/>
  <tile gid="721"/>
  <tile gid="173"/>
  <tile gid="174"/>
  <tile gid="786"/>
  <tile gid="737"/>
  <tile gid="100"/>
  <tile gid="968"/>
  <tile gid="969"/>
  <tile gid="970"/>
  <tile gid="68"/>
  <tile gid="68"/>
  <tile gid="721"/>
  <tile gid="126"/>
  <tile gid="277"/>
  <tile gid="27"/>
  <tile gid="808"/>
  <tile gid="905"/>
  <tile gid="810"/>
  <tile gid="167"/>
  <tile gid="7"/>
  <tile gid="7"/>
  <tile gid="104"/>
  <tile gid="970"/>
  <tile gid="68"/>
  <tile gid="68"/>
  <tile gid="68"/>
  <tile gid="68"/>
  <tile gid="769"/>
  <tile gid="774"/>
  <tile gid="68"/>
  <tile gid="332"/>
  <tile gid="68"/>
  <tile gid="68"/>
  <tile gid="721"/>
  <tile gid="54"/>
  <tile gid="213"/>
  <tile gid="27"/>
  <tile gid="68"/>
  <tile gid="936"/>
  <tile gid="841"/>
  <tile gid="842"/>
  <tile gid="135"/>
  <tile gid="7"/>
  <tile gid="104"/>
  <tile gid="58"/>
  <tile gid="67"/>
  <tile gid="68"/>
  <tile gid="68"/>
  <tile gid="68"/>
  <tile gid="68"/>
  <tile gid="721"/>
  <tile gid="805"/>
  <tile gid="675"/>
  <tile gid="68"/>
  <tile gid="68"/>
  <tile gid="117"/>
  <tile gid="54"/>
  <tile gid="213"/>
  <tile gid="125"/>
  <tile gid="68"/>
  <tile gid="818"/>
  <tile gid="968"/>
  <tile gid="969"/>
  <tile gid="970"/>
  <tile gid="143"/>
  <tile gid="144"/>
  <tile gid="58"/>
  <tile gid="277"/>
  <tile gid="68"/>
  <tile gid="199"/>
  <tile gid="304"/>
  <tile gid="68"/>
  <tile gid="71"/>
  <tile gid="80"/>
  <tile gid="72"/>
  <tile gid="68"/>
  <tile gid="68"/>
  <tile gid="721"/>
  <tile gid="126"/>
  <tile gid="245"/>
  <tile gid="277"/>
  <tile gid="277"/>
  <tile gid="53"/>
  <tile gid="119"/>
  <tile gid="721"/>
  <tile gid="332"/>
  <tile gid="68"/>
  <tile gid="103"/>
  <tile gid="144"/>
  <tile gid="24"/>
  <tile gid="277"/>
  <tile gid="199"/>
  <tile gid="232"/>
  <tile gid="67"/>
  <tile gid="685"/>
  <tile gid="103"/>
  <tile gid="112"/>
  <tile gid="7"/>
  <tile gid="80"/>
  <tile gid="933"/>
  <tile gid="58"/>
  <tile gid="214"/>
  <tile gid="214"/>
  <tile gid="23"/>
  <tile gid="22"/>
  <tile gid="277"/>
  <tile gid="277"/>
  <tile gid="55"/>
  <tile gid="897"/>
  <tile gid="898"/>
  <tile gid="899"/>
  <tile gid="55"/>
  <tile gid="56"/>
  <tile gid="214"/>
  <tile gid="402"/>
  <tile gid="206"/>
  <tile gid="67"/>
  <tile gid="785"/>
  <tile gid="785"/>
  <tile gid="685"/>
  <tile gid="103"/>
  <tile gid="193"/>
  <tile gid="194"/>
  <tile gid="194"/>
  <tile gid="194"/>
  <tile gid="194"/>
  <tile gid="195"/>
  <tile gid="72"/>
  <tile gid="126"/>
  <tile gid="214"/>
  <tile gid="214"/>
  <tile gid="929"/>
  <tile gid="930"/>
  <tile gid="931"/>
  <tile gid="277"/>
  <tile gid="277"/>
  <tile gid="214"/>
  <tile gid="402"/>
  <tile gid="238"/>
  <tile gid="721"/>
  <tile gid="783"/>
  <tile gid="817"/>
  <tile gid="724"/>
  <tile gid="785"/>
  <tile gid="257"/>
  <tile gid="258"/>
  <tile gid="258"/>
  <tile gid="258"/>
  <tile gid="258"/>
  <tile gid="259"/>
  <tile gid="144"/>
  <tile gid="24"/>
  <tile gid="277"/>
  <tile gid="214"/>
  <tile gid="929"/>
  <tile gid="930"/>
  <tile gid="931"/>
  <tile gid="818"/>
  <tile gid="24"/>
  <tile gid="277"/>
  <tile gid="402"/>
  <tile gid="200"/>
  <tile gid="783"/>
  <tile gid="783"/>
  <tile gid="816"/>
  <tile gid="756"/>
  <tile gid="915"/>
  <tile gid="817"/>
  <tile gid="95"/>
  <tile gid="214"/>
  <tile gid="214"/>
  <tile gid="53"/>
  <tile gid="721"/>
  <tile gid="103"/>
  <tile gid="78"/>
  <tile gid="24"/>
  <tile gid="21"/>
  <tile gid="961"/>
  <tile gid="962"/>
  <tile gid="963"/>
  <tile gid="72"/>
  <tile gid="932"/>
  <tile gid="22"/>
  <tile gid="402"/>
  <tile gid="272"/>
  <tile gid="721"/>
  <tile gid="721"/>
  <tile gid="817"/>
  <tile gid="805"/>
  <tile gid="817"/>
  <tile gid="117"/>
  <tile gid="54"/>
  <tile gid="23"/>
  <tile gid="22"/>
  <tile gid="277"/>
  <tile gid="57"/>
  <tile gid="721"/>
  <tile gid="850"/>
  <tile gid="851"/>
  <tile gid="721"/>
  <tile gid="143"/>
  <tile gid="7"/>
  <tile gid="7"/>
  <tile gid="104"/>
  <tile gid="239"/>
  <tile gid="721"/>
  <tile gid="402"/>
  <tile gid="402"/>
  <tile gid="200"/>
  <tile gid="68"/>
  <tile gid="721"/>
  <tile gid="332"/>
  <tile gid="95"/>
  <tile gid="245"/>
  <tile gid="125"/>
  <tile gid="806"/>
  <tile gid="818"/>
  <tile gid="24"/>
  <tile gid="125"/>
  <tile gid="913"/>
  <tile gid="914"/>
  <tile gid="915"/>
  <tile gid="818"/>
  <tile gid="103"/>
  <tile gid="7"/>
  <tile gid="7"/>
  <tile gid="72"/>
  <tile gid="68"/>
  <tile gid="68"/>
  <tile gid="306"/>
  <tile gid="402"/>
  <tile gid="272"/>
  <tile gid="68"/>
  <tile gid="68"/>
  <tile gid="68"/>
  <tile gid="54"/>
  <tile gid="277"/>
  <tile gid="21"/>
  <tile gid="332"/>
  <tile gid="68"/>
  <tile gid="54"/>
  <tile gid="21"/>
  <tile gid="945"/>
  <tile gid="946"/>
  <tile gid="947"/>
  <tile gid="818"/>
  <tile gid="721"/>
  <tile gid="103"/>
  <tile gid="645"/>
  <tile gid="644"/>
  <tile gid="818"/>
  <tile gid="68"/>
  <tile gid="68"/>
  <tile gid="231"/>
  <tile gid="232"/>
  <tile gid="68"/>
  <tile gid="68"/>
  <tile gid="721"/>
  <tile gid="92"/>
  <tile gid="221"/>
  <tile gid="721"/>
  <tile gid="68"/>
  <tile gid="721"/>
  <tile gid="124"/>
  <tile gid="53"/>
  <tile gid="58"/>
  <tile gid="57"/>
  <tile gid="817"/>
  <tile gid="755"/>
  <tile gid="817"/>
  <tile gid="645"/>
  <tile gid="721"/>
  <tile gid="68"/>
  <tile gid="642"/>
  <tile gid="721"/>
  <tile gid="721"/>
  <tile gid="68"/>
  <tile gid="68"/>
  <tile gid="68"/>
  <tile gid="193"/>
  <tile gid="194"/>
  <tile gid="194"/>
  <tile gid="194"/>
  <tile gid="195"/>
  <tile gid="80"/>
  <tile gid="72"/>
  <tile gid="22"/>
  <tile gid="277"/>
  <tile gid="214"/>
  <tile gid="21"/>
  <tile gid="817"/>
  <tile gid="817"/>
  <tile gid="818"/>
  <tile gid="737"/>
  <tile gid="808"/>
  <tile gid="809"/>
  <tile gid="810"/>
  <tile gid="721"/>
  <tile gid="68"/>
  <tile gid="71"/>
  <tile gid="138"/>
  <tile gid="68"/>
  <tile gid="257"/>
  <tile gid="258"/>
  <tile gid="258"/>
  <tile gid="258"/>
  <tile gid="259"/>
  <tile gid="103"/>
  <tile gid="144"/>
  <tile gid="68"/>
  <tile gid="24"/>
  <tile gid="214"/>
  <tile gid="53"/>
  <tile gid="56"/>
  <tile gid="96"/>
  <tile gid="641"/>
  <tile gid="721"/>
  <tile gid="840"/>
  <tile gid="841"/>
  <tile gid="842"/>
  <tile gid="68"/>
  <tile gid="68"/>
  <tile gid="143"/>
  <tile gid="144"/>
  <tile gid="68"/>
  <tile gid="721"/>
  <tile gid="54"/>
  <tile gid="214"/>
  <tile gid="21"/>
  <tile gid="68"/>
  <tile gid="68"/>
  <tile gid="174"/>
  <tile gid="68"/>
  <tile gid="721"/>
  <tile gid="28"/>
  <tile gid="246"/>
  <tile gid="21"/>
  <tile gid="932"/>
  <tile gid="673"/>
  <tile gid="773"/>
  <tile gid="872"/>
  <tile gid="873"/>
  <tile gid="874"/>
  <tile gid="721"/>
  <tile gid="71"/>
  <tile gid="7"/>
  <tile gid="144"/>
  <tile gid="68"/>
  <tile gid="54"/>
  <tile gid="277"/>
  <tile gid="23"/>
  <tile gid="721"/>
  <tile gid="68"/>
  <tile gid="68"/>
  <tile gid="68"/>
  <tile gid="68"/>
  <tile gid="5"/>
  <tile gid="54"/>
  <tile gid="123"/>
  <tile gid="68"/>
  <tile gid="239"/>
  <tile gid="68"/>
  <tile gid="68"/>
  <tile gid="68"/>
  <tile gid="363"/>
  <tile gid="68"/>
  <tile gid="68"/>
  <tile gid="143"/>
  <tile gid="7"/>
  <tile gid="104"/>
  <tile gid="721"/>
  <tile gid="92"/>
  <tile gid="21"/>
  <tile gid="818"/>
  <tile gid="68"/>
  <tile gid="68"/>
  <tile gid="71"/>
  <tile gid="72"/>
  <tile gid="68"/>
  <tile gid="68"/>
  <tile gid="22"/>
  <tile gid="246"/>
  <tile gid="57"/>
  <tile gid="721"/>
  <tile gid="68"/>
  <tile gid="721"/>
  <tile gid="68"/>
  <tile gid="71"/>
  <tile gid="80"/>
  <tile gid="78"/>
  </data>
 </layer>
</map>