<?xml version="1.0" encoding="UTF-8"?>
<map version="1.0" orientation="orthogonal" width="30" height="30" tilewidth="16" tileheight="16">
 <tileset firstgid="1" name="00424344" tilewidth="16" tileheight="16">
  <image source="00424344" trans="ffffff"/>
 </tileset>
 <layer name="Tile Layer 1" width="30" height="30">
  <properties>
   <property name="Main" value =""/>
  </properties>
  <data>
  <tile gid="402"/>
  <tile gid="524"/>
  <tile gid="902"/>
  <tile gid="402"/>
  <tile gid="338"/>
  <tile gid="338"/>
  <tile gid="193"/>
  <tile gid="402"/>
  <tile gid="626"/>
  <tile gid="528"/>
  <tile gid="659"/>
  <tile gid="846"/>
  <tile gid="847"/>
  <tile gid="659"/>
  <tile gid="847"/>
  <tile gid="659"/>
  <tile gid="659"/>
  <tile gid="847"/>
  <tile gid="659"/>
  <tile gid="659"/>
  <tile gid="659"/>
  <tile gid="846"/>
  <tile gid="529"/>
  <tile gid="193"/>
  <tile gid="370"/>
  <tile gid="132"/>
  <tile gid="132"/>
  <tile gid="54"/>
  <tile gid="245"/>
  <tile gid="214"/>
  <tile gid="554"/>
  <tile gid="1004"/>
  <tile gid="934"/>
  <tile gid="589"/>
  <tile gid="402"/>
  <tile gid="338"/>
  <tile gid="402"/>
  <tile gid="338"/>
  <tile gid="624"/>
  <tile gid="659"/>
  <tile gid="847"/>
  <tile gid="659"/>
  <tile gid="847"/>
  <tile gid="846"/>
  <tile gid="659"/>
  <tile gid="659"/>
  <tile gid="659"/>
  <tile gid="846"/>
  <tile gid="659"/>
  <tile gid="491"/>
  <tile gid="659"/>
  <tile gid="659"/>
  <tile gid="815"/>
  <tile gid="625"/>
  <tile gid="338"/>
  <tile gid="200"/>
  <tile gid="132"/>
  <tile gid="97"/>
  <tile gid="388"/>
  <tile gid="98"/>
  <tile gid="338"/>
  <tile gid="556"/>
  <tile gid="967"/>
  <tile gid="1004"/>
  <tile gid="553"/>
  <tile gid="338"/>
  <tile gid="422"/>
  <tile gid="626"/>
  <tile gid="528"/>
  <tile gid="659"/>
  <tile gid="425"/>
  <tile gid="424"/>
  <tile gid="425"/>
  <tile gid="426"/>
  <tile gid="659"/>
  <tile gid="425"/>
  <tile gid="426"/>
  <tile gid="492"/>
  <tile gid="423"/>
  <tile gid="338"/>
  <tile gid="424"/>
  <tile gid="659"/>
  <tile gid="847"/>
  <tile gid="529"/>
  <tile gid="338"/>
  <tile gid="370"/>
  <tile gid="132"/>
  <tile gid="129"/>
  <tile gid="420"/>
  <tile gid="130"/>
  <tile gid="193"/>
  <tile gid="402"/>
  <tile gid="556"/>
  <tile gid="557"/>
  <tile gid="253"/>
  <tile gid="489"/>
  <tile gid="454"/>
  <tile gid="624"/>
  <tile gid="659"/>
  <tile gid="421"/>
  <tile gid="402"/>
  <tile gid="253"/>
  <tile gid="487"/>
  <tile gid="458"/>
  <tile gid="659"/>
  <tile gid="455"/>
  <tile gid="354"/>
  <tile gid="338"/>
  <tile gid="338"/>
  <tile gid="338"/>
  <tile gid="193"/>
  <tile gid="426"/>
  <tile gid="815"/>
  <tile gid="561"/>
  <tile gid="338"/>
  <tile gid="338"/>
  <tile gid="200"/>
  <tile gid="161"/>
  <tile gid="452"/>
  <tile gid="162"/>
  <tile gid="402"/>
  <tile gid="338"/>
  <tile gid="253"/>
  <tile gid="485"/>
  <tile gid="456"/>
  <tile gid="402"/>
  <tile gid="338"/>
  <tile gid="624"/>
  <tile gid="659"/>
  <tile gid="453"/>
  <tile gid="193"/>
  <tile gid="456"/>
  <tile gid="944"/>
  <tile gid="944"/>
  <tile gid="944"/>
  <tile gid="421"/>
  <tile gid="253"/>
  <tile gid="489"/>
  <tile gid="454"/>
  <tile gid="455"/>
  <tile gid="487"/>
  <tile gid="458"/>
  <tile gid="561"/>
  <tile gid="338"/>
  <tile gid="193"/>
  <tile gid="338"/>
  <tile gid="308"/>
  <tile gid="92"/>
  <tile gid="214"/>
  <tile gid="214"/>
  <tile gid="253"/>
  <tile gid="487"/>
  <tile gid="456"/>
  <tile gid="402"/>
  <tile gid="338"/>
  <tile gid="338"/>
  <tile gid="338"/>
  <tile gid="402"/>
  <tile gid="560"/>
  <tile gid="519"/>
  <tile gid="402"/>
  <tile gid="422"/>
  <tile gid="561"/>
  <tile gid="689"/>
  <tile gid="689"/>
  <tile gid="453"/>
  <tile gid="454"/>
  <tile gid="943"/>
  <tile gid="944"/>
  <tile gid="943"/>
  <tile gid="944"/>
  <tile gid="561"/>
  <tile gid="338"/>
  <tile gid="338"/>
  <tile gid="338"/>
  <tile gid="370"/>
  <tile gid="132"/>
  <tile gid="26"/>
  <tile gid="277"/>
  <tile gid="214"/>
  <tile gid="456"/>
  <tile gid="402"/>
  <tile gid="338"/>
  <tile gid="338"/>
  <tile gid="234"/>
  <tile gid="233"/>
  <tile gid="338"/>
  <tile gid="338"/>
  <tile gid="354"/>
  <tile gid="285"/>
  <tile gid="453"/>
  <tile gid="454"/>
  <tile gid="692"/>
  <tile gid="338"/>
  <tile gid="402"/>
  <tile gid="338"/>
  <tile gid="338"/>
  <tile gid="688"/>
  <tile gid="688"/>
  <tile gid="338"/>
  <tile gid="338"/>
  <tile gid="402"/>
  <tile gid="338"/>
  <tile gid="402"/>
  <tile gid="402"/>
  <tile gid="338"/>
  <tile gid="200"/>
  <tile gid="132"/>
  <tile gid="92"/>
  <tile gid="214"/>
  <tile gid="338"/>
  <tile gid="234"/>
  <tile gid="337"/>
  <tile gid="337"/>
  <tile gid="236"/>
  <tile gid="235"/>
  <tile gid="295"/>
  <tile gid="402"/>
  <tile gid="338"/>
  <tile gid="338"/>
  <tile gid="402"/>
  <tile gid="338"/>
  <tile gid="402"/>
  <tile gid="338"/>
  <tile gid="338"/>
  <tile gid="338"/>
  <tile gid="402"/>
  <tile gid="338"/>
  <tile gid="338"/>
  <tile gid="402"/>
  <tile gid="338"/>
  <tile gid="338"/>
  <tile gid="453"/>
  <tile gid="254"/>
  <tile gid="338"/>
  <tile gid="338"/>
  <tile gid="193"/>
  <tile gid="200"/>
  <tile gid="26"/>
  <tile gid="277"/>
  <tile gid="402"/>
  <tile gid="202"/>
  <tile gid="204"/>
  <tile gid="194"/>
  <tile gid="132"/>
  <tile gid="194"/>
  <tile gid="199"/>
  <tile gid="338"/>
  <tile gid="338"/>
  <tile gid="338"/>
  <tile gid="338"/>
  <tile gid="402"/>
  <tile gid="338"/>
  <tile gid="354"/>
  <tile gid="897"/>
  <tile gid="805"/>
  <tile gid="805"/>
  <tile gid="805"/>
  <tile gid="805"/>
  <tile gid="805"/>
  <tile gid="805"/>
  <tile gid="898"/>
  <tile gid="150"/>
  <tile gid="453"/>
  <tile gid="254"/>
  <tile gid="338"/>
  <tile gid="338"/>
  <tile gid="272"/>
  <tile gid="132"/>
  <tile gid="92"/>
  <tile gid="354"/>
  <tile gid="338"/>
  <tile gid="202"/>
  <tile gid="204"/>
  <tile gid="132"/>
  <tile gid="199"/>
  <tile gid="402"/>
  <tile gid="338"/>
  <tile gid="253"/>
  <tile gid="897"/>
  <tile gid="769"/>
  <tile gid="769"/>
  <tile gid="769"/>
  <tile gid="769"/>
  <tile gid="802"/>
  <tile gid="867"/>
  <tile gid="868"/>
  <tile gid="868"/>
  <tile gid="868"/>
  <tile gid="868"/>
  <tile gid="868"/>
  <tile gid="804"/>
  <tile gid="778"/>
  <tile gid="150"/>
  <tile gid="455"/>
  <tile gid="487"/>
  <tile gid="254"/>
  <tile gid="338"/>
  <tile gid="204"/>
  <tile gid="26"/>
  <tile gid="338"/>
  <tile gid="402"/>
  <tile gid="338"/>
  <tile gid="266"/>
  <tile gid="273"/>
  <tile gid="201"/>
  <tile gid="338"/>
  <tile gid="253"/>
  <tile gid="777"/>
  <tile gid="804"/>
  <tile gid="902"/>
  <tile gid="811"/>
  <tile gid="781"/>
  <tile gid="812"/>
  <tile gid="902"/>
  <tile gid="971"/>
  <tile gid="908"/>
  <tile gid="908"/>
  <tile gid="908"/>
  <tile gid="908"/>
  <tile gid="908"/>
  <tile gid="804"/>
  <tile gid="810"/>
  <tile gid="546"/>
  <tile gid="434"/>
  <tile gid="354"/>
  <tile gid="455"/>
  <tile gid="338"/>
  <tile gid="338"/>
  <tile gid="200"/>
  <tile gid="821"/>
  <tile gid="821"/>
  <tile gid="821"/>
  <tile gid="821"/>
  <tile gid="820"/>
  <tile gid="821"/>
  <tile gid="821"/>
  <tile gid="821"/>
  <tile gid="809"/>
  <tile gid="804"/>
  <tile gid="934"/>
  <tile gid="843"/>
  <tile gid="877"/>
  <tile gid="844"/>
  <tile gid="934"/>
  <tile gid="940"/>
  <tile gid="1004"/>
  <tile gid="936"/>
  <tile gid="940"/>
  <tile gid="936"/>
  <tile gid="940"/>
  <tile gid="804"/>
  <tile gid="906"/>
  <tile gid="609"/>
  <tile gid="338"/>
  <tile gid="193"/>
  <tile gid="421"/>
  <tile gid="193"/>
  <tile gid="338"/>
  <tile gid="338"/>
  <tile gid="402"/>
  <tile gid="338"/>
  <tile gid="528"/>
  <tile gid="946"/>
  <tile gid="816"/>
  <tile gid="625"/>
  <tile gid="193"/>
  <tile gid="122"/>
  <tile gid="905"/>
  <tile gid="804"/>
  <tile gid="971"/>
  <tile gid="1004"/>
  <tile gid="1004"/>
  <tile gid="1004"/>
  <tile gid="908"/>
  <tile gid="1004"/>
  <tile gid="1004"/>
  <tile gid="968"/>
  <tile gid="941"/>
  <tile gid="968"/>
  <tile gid="941"/>
  <tile gid="804"/>
  <tile gid="906"/>
  <tile gid="641"/>
  <tile gid="354"/>
  <tile gid="434"/>
  <tile gid="453"/>
  <tile gid="353"/>
  <tile gid="338"/>
  <tile gid="338"/>
  <tile gid="193"/>
  <tile gid="528"/>
  <tile gid="421"/>
  <tile gid="422"/>
  <tile gid="816"/>
  <tile gid="529"/>
  <tile gid="402"/>
  <tile gid="122"/>
  <tile gid="905"/>
  <tile gid="804"/>
  <tile gid="940"/>
  <tile gid="1007"/>
  <tile gid="1009"/>
  <tile gid="1007"/>
  <tile gid="1009"/>
  <tile gid="897"/>
  <tile gid="805"/>
  <tile gid="902"/>
  <tile gid="1004"/>
  <tile gid="902"/>
  <tile gid="805"/>
  <tile gid="930"/>
  <tile gid="906"/>
  <tile gid="641"/>
  <tile gid="434"/>
  <tile gid="338"/>
  <tile gid="434"/>
  <tile gid="338"/>
  <tile gid="338"/>
  <tile gid="193"/>
  <tile gid="528"/>
  <tile gid="943"/>
  <tile gid="455"/>
  <tile gid="34"/>
  <tile gid="424"/>
  <tile gid="816"/>
  <tile gid="625"/>
  <tile gid="122"/>
  <tile gid="905"/>
  <tile gid="804"/>
  <tile gid="940"/>
  <tile gid="829"/>
  <tile gid="936"/>
  <tile gid="829"/>
  <tile gid="940"/>
  <tile gid="804"/>
  <tile gid="842"/>
  <tile gid="934"/>
  <tile gid="931"/>
  <tile gid="934"/>
  <tile gid="933"/>
  <tile gid="932"/>
  <tile gid="970"/>
  <tile gid="641"/>
  <tile gid="626"/>
  <tile gid="656"/>
  <tile gid="628"/>
  <tile gid="338"/>
  <tile gid="338"/>
  <tile gid="402"/>
  <tile gid="943"/>
  <tile gid="943"/>
  <tile gid="518"/>
  <tile gid="487"/>
  <tile gid="458"/>
  <tile gid="946"/>
  <tile gid="625"/>
  <tile gid="122"/>
  <tile gid="937"/>
  <tile gid="929"/>
  <tile gid="902"/>
  <tile gid="971"/>
  <tile gid="968"/>
  <tile gid="909"/>
  <tile gid="902"/>
  <tile gid="930"/>
  <tile gid="874"/>
  <tile gid="966"/>
  <tile gid="863"/>
  <tile gid="966"/>
  <tile gid="965"/>
  <tile gid="964"/>
  <tile gid="1002"/>
  <tile gid="673"/>
  <tile gid="528"/>
  <tile gid="815"/>
  <tile gid="529"/>
  <tile gid="434"/>
  <tile gid="338"/>
  <tile gid="434"/>
  <tile gid="560"/>
  <tile gid="943"/>
  <tile gid="943"/>
  <tile gid="945"/>
  <tile gid="946"/>
  <tile gid="561"/>
  <tile gid="193"/>
  <tile gid="122"/>
  <tile gid="969"/>
  <tile gid="932"/>
  <tile gid="934"/>
  <tile gid="1004"/>
  <tile gid="1004"/>
  <tile gid="1004"/>
  <tile gid="934"/>
  <tile gid="933"/>
  <tile gid="970"/>
  <tile gid="547"/>
  <tile gid="830"/>
  <tile gid="998"/>
  <tile gid="815"/>
  <tile gid="815"/>
  <tile gid="815"/>
  <tile gid="354"/>
  <tile gid="423"/>
  <tile gid="424"/>
  <tile gid="815"/>
  <tile gid="625"/>
  <tile gid="338"/>
  <tile gid="338"/>
  <tile gid="402"/>
  <tile gid="560"/>
  <tile gid="943"/>
  <tile gid="943"/>
  <tile gid="561"/>
  <tile gid="338"/>
  <tile gid="338"/>
  <tile gid="122"/>
  <tile gid="1001"/>
  <tile gid="964"/>
  <tile gid="966"/>
  <tile gid="961"/>
  <tile gid="962"/>
  <tile gid="963"/>
  <tile gid="966"/>
  <tile gid="965"/>
  <tile gid="1002"/>
  <tile gid="673"/>
  <tile gid="402"/>
  <tile gid="338"/>
  <tile gid="560"/>
  <tile gid="815"/>
  <tile gid="815"/>
  <tile gid="421"/>
  <tile gid="402"/>
  <tile gid="456"/>
  <tile gid="815"/>
  <tile gid="660"/>
  <tile gid="434"/>
  <tile gid="417"/>
  <tile gid="354"/>
  <tile gid="528"/>
  <tile gid="490"/>
  <tile gid="459"/>
  <tile gid="593"/>
  <tile gid="402"/>
  <tile gid="338"/>
  <tile gid="560"/>
  <tile gid="816"/>
  <tile gid="561"/>
  <tile gid="998"/>
  <tile gid="924"/>
  <tile gid="925"/>
  <tile gid="954"/>
  <tile gid="998"/>
  <tile gid="675"/>
  <tile gid="193"/>
  <tile gid="338"/>
  <tile gid="528"/>
  <tile gid="529"/>
  <tile gid="338"/>
  <tile gid="560"/>
  <tile gid="815"/>
  <tile gid="453"/>
  <tile gid="193"/>
  <tile gid="422"/>
  <tile gid="561"/>
  <tile gid="338"/>
  <tile gid="528"/>
  <tile gid="449"/>
  <tile gid="528"/>
  <tile gid="425"/>
  <tile gid="402"/>
  <tile gid="424"/>
  <tile gid="593"/>
  <tile gid="338"/>
  <tile gid="338"/>
  <tile gid="402"/>
  <tile gid="688"/>
  <tile gid="338"/>
  <tile gid="656"/>
  <tile gid="656"/>
  <tile gid="656"/>
  <tile gid="656"/>
  <tile gid="656"/>
  <tile gid="656"/>
  <tile gid="657"/>
  <tile gid="528"/>
  <tile gid="814"/>
  <tile gid="815"/>
  <tile gid="593"/>
  <tile gid="338"/>
  <tile gid="560"/>
  <tile gid="518"/>
  <tile gid="489"/>
  <tile gid="454"/>
  <tile gid="660"/>
  <tile gid="658"/>
  <tile gid="815"/>
  <tile gid="814"/>
  <tile gid="421"/>
  <tile gid="434"/>
  <tile gid="354"/>
  <tile gid="338"/>
  <tile gid="402"/>
  <tile gid="338"/>
  <tile gid="338"/>
  <tile gid="656"/>
  <tile gid="626"/>
  <tile gid="528"/>
  <tile gid="815"/>
  <tile gid="816"/>
  <tile gid="815"/>
  <tile gid="815"/>
  <tile gid="815"/>
  <tile gid="815"/>
  <tile gid="816"/>
  <tile gid="815"/>
  <tile gid="815"/>
  <tile gid="815"/>
  <tile gid="529"/>
  <tile gid="402"/>
  <tile gid="690"/>
  <tile gid="691"/>
  <tile gid="691"/>
  <tile gid="691"/>
  <tile gid="692"/>
  <tile gid="528"/>
  <tile gid="814"/>
  <tile gid="814"/>
  <tile gid="402"/>
  <tile gid="338"/>
  <tile gid="402"/>
  <tile gid="232"/>
  <tile gid="337"/>
  <tile gid="235"/>
  <tile gid="338"/>
  <tile gid="424"/>
  <tile gid="816"/>
  <tile gid="816"/>
  <tile gid="878"/>
  <tile gid="814"/>
  <tile gid="815"/>
  <tile gid="816"/>
  <tile gid="815"/>
  <tile gid="816"/>
  <tile gid="815"/>
  <tile gid="816"/>
  <tile gid="815"/>
  <tile gid="815"/>
  <tile gid="815"/>
  <tile gid="529"/>
  <tile gid="656"/>
  <tile gid="193"/>
  <tile gid="434"/>
  <tile gid="338"/>
  <tile gid="528"/>
  <tile gid="423"/>
  <tile gid="422"/>
  <tile gid="490"/>
  <tile gid="296"/>
  <tile gid="233"/>
  <tile gid="304"/>
  <tile gid="269"/>
  <tile gid="270"/>
  <tile gid="199"/>
  <tile gid="338"/>
  <tile gid="402"/>
  <tile gid="424"/>
  <tile gid="815"/>
  <tile gid="816"/>
  <tile gid="815"/>
  <tile gid="421"/>
  <tile gid="424"/>
  <tile gid="878"/>
  <tile gid="878"/>
  <tile gid="814"/>
  <tile gid="814"/>
  <tile gid="492"/>
  <tile gid="815"/>
  <tile gid="815"/>
  <tile gid="815"/>
  <tile gid="815"/>
  <tile gid="529"/>
  <tile gid="656"/>
  <tile gid="338"/>
  <tile gid="193"/>
  <tile gid="455"/>
  <tile gid="354"/>
  <tile gid="234"/>
  <tile gid="194"/>
  <tile gid="235"/>
  <tile gid="233"/>
  <tile gid="402"/>
  <tile gid="306"/>
  <tile gid="402"/>
  <tile gid="338"/>
  <tile gid="338"/>
  <tile gid="434"/>
  <tile gid="422"/>
  <tile gid="945"/>
  <tile gid="518"/>
  <tile gid="487"/>
  <tile gid="458"/>
  <tile gid="814"/>
  <tile gid="816"/>
  <tile gid="814"/>
  <tile gid="519"/>
  <tile gid="193"/>
  <tile gid="422"/>
  <tile gid="815"/>
  <tile gid="815"/>
  <tile gid="815"/>
  <tile gid="423"/>
  <tile gid="422"/>
  <tile gid="338"/>
  <tile gid="338"/>
  <tile gid="434"/>
  <tile gid="234"/>
  <tile gid="236"/>
  <tile gid="204"/>
  <tile gid="203"/>
  <tile gid="201"/>
  <tile gid="232"/>
  <tile gid="194"/>
  <tile gid="231"/>
  <tile gid="338"/>
  <tile gid="338"/>
  <tile gid="338"/>
  <tile gid="454"/>
  <tile gid="978"/>
  <tile gid="815"/>
  <tile gid="814"/>
  <tile gid="561"/>
  <tile gid="691"/>
  <tile gid="691"/>
  <tile gid="691"/>
  <tile gid="285"/>
  <tile gid="453"/>
  <tile gid="489"/>
  <tile gid="517"/>
  <tile gid="814"/>
  <tile gid="421"/>
  <tile gid="434"/>
  <tile gid="193"/>
  <tile gid="234"/>
  <tile gid="337"/>
  <tile gid="233"/>
  <tile gid="202"/>
  <tile gid="273"/>
  <tile gid="266"/>
  <tile gid="201"/>
  <tile gid="272"/>
  <tile gid="597"/>
  <tile gid="598"/>
  <tile gid="133"/>
  <tile gid="369"/>
  <tile gid="434"/>
  <tile gid="193"/>
  <tile gid="560"/>
  <tile gid="560"/>
  <tile gid="561"/>
  <tile gid="691"/>
  <tile gid="338"/>
  <tile gid="338"/>
  <tile gid="434"/>
  <tile gid="402"/>
  <tile gid="338"/>
  <tile gid="338"/>
  <tile gid="402"/>
  <tile gid="560"/>
  <tile gid="814"/>
  <tile gid="453"/>
  <tile gid="354"/>
  <tile gid="422"/>
  <tile gid="202"/>
  <tile gid="204"/>
  <tile gid="235"/>
  <tile gid="233"/>
  <tile gid="234"/>
  <tile gid="231"/>
  <tile gid="402"/>
  <tile gid="232"/>
  <tile gid="629"/>
  <tile gid="630"/>
  <tile gid="199"/>
  <tile gid="338"/>
  <tile gid="338"/>
  <tile gid="338"/>
  <tile gid="338"/>
  <tile gid="338"/>
  <tile gid="338"/>
  <tile gid="402"/>
  <tile gid="421"/>
  <tile gid="424"/>
  <tile gid="818"/>
  <tile gid="529"/>
  <tile gid="193"/>
  <tile gid="338"/>
  <tile gid="338"/>
  <tile gid="434"/>
  <tile gid="338"/>
  <tile gid="402"/>
  <tile gid="453"/>
  <tile gid="454"/>
  <tile gid="338"/>
  <tile gid="202"/>
  <tile gid="273"/>
  <tile gid="201"/>
  <tile gid="236"/>
  <tile gid="194"/>
  <tile gid="272"/>
  <tile gid="194"/>
  <tile gid="199"/>
  <tile gid="274"/>
  <tile gid="434"/>
  <tile gid="338"/>
  <tile gid="434"/>
  <tile gid="422"/>
  <tile gid="402"/>
  <tile gid="338"/>
  <tile gid="402"/>
  <tile gid="528"/>
  <tile gid="457"/>
  <tile gid="818"/>
  <tile gid="426"/>
  <tile gid="818"/>
  <tile gid="529"/>
  <tile gid="402"/>
  <tile gid="354"/>
  <tile gid="338"/>
  <tile gid="338"/>
  <tile gid="338"/>
  <tile gid="338"/>
  <tile gid="434"/>
  <tile gid="338"/>
  <tile gid="402"/>
  <tile gid="338"/>
  <tile gid="232"/>
  <tile gid="133"/>
  <tile gid="203"/>
  <tile gid="402"/>
  <tile gid="274"/>
  <tile gid="338"/>
  <tile gid="338"/>
  <tile gid="338"/>
  <tile gid="354"/>
  <tile gid="253"/>
  <tile gid="454"/>
  <tile gid="657"/>
  <tile gid="657"/>
  <tile gid="528"/>
  <tile gid="817"/>
  <tile gid="423"/>
  <tile gid="193"/>
  <tile gid="402"/>
  <tile gid="521"/>
  <tile gid="815"/>
  <tile gid="529"/>
  <tile gid="528"/>
  <tile gid="423"/>
  <tile gid="424"/>
  <tile gid="529"/>
  <tile gid="402"/>
  <tile gid="338"/>
  <tile gid="528"/>
  <tile gid="421"/>
  <tile gid="193"/>
  <tile gid="200"/>
  <tile gid="194"/>
  <tile gid="265"/>
  <tile gid="338"/>
  <tile gid="338"/>
  <tile gid="402"/>
  <tile gid="402"/>
  <tile gid="434"/>
  <tile gid="253"/>
  <tile gid="454"/>
  <tile gid="849"/>
  <tile gid="850"/>
  <tile gid="817"/>
  <tile gid="817"/>
  <tile gid="353"/>
  <tile gid="455"/>
  <tile gid="402"/>
  <tile gid="914"/>
  <tile gid="520"/>
  <tile gid="814"/>
  <tile gid="814"/>
  <tile gid="518"/>
  <tile gid="487"/>
  <tile gid="456"/>
  <tile gid="818"/>
  <tile gid="529"/>
  <tile gid="528"/>
  <tile gid="519"/>
  <tile gid="354"/>
  <tile gid="434"/>
  <tile gid="338"/>
  <tile gid="274"/>
  </data>
 </layer>
</map>