<?xml version="1.0" encoding="UTF-8"?>
<map version="1.0" orientation="orthogonal" width="40" height="15" tilewidth="16" tileheight="16">
 <tileset firstgid="1" name="[A] Preview" tilewidth="16" tileheight="16">
  <image source="[A] Preview" trans="ffffff"/>
 </tileset>
 <layer name="Tile Layer 1" width="40" height="15">
  <properties>
   <property name="Main" value =""/>
  </properties>
  <data>
  <tile gid="947"/>
  <tile gid="948"/>
  <tile gid="949"/>
  <tile gid="197"/>
  <tile gid="614"/>
  <tile gid="271"/>
  <tile gid="460"/>
  <tile gid="454"/>
  <tile gid="234"/>
  <tile gid="950"/>
  <tile gid="951"/>
  <tile gid="952"/>
  <tile gid="133"/>
  <tile gid="199"/>
  <tile gid="402"/>
  <tile gid="721"/>
  <tile gid="306"/>
  <tile gid="306"/>
  <tile gid="560"/>
  <tile gid="816"/>
  <tile gid="816"/>
  <tile gid="421"/>
  <tile gid="353"/>
  <tile gid="402"/>
  <tile gid="787"/>
  <tile gid="788"/>
  <tile gid="402"/>
  <tile gid="338"/>
  <tile gid="918"/>
  <tile gid="456"/>
  <tile gid="816"/>
  <tile gid="816"/>
  <tile gid="455"/>
  <tile gid="353"/>
  <tile gid="816"/>
  <tile gid="723"/>
  <tile gid="816"/>
  <tile gid="816"/>
  <tile gid="816"/>
  <tile gid="816"/>
  <tile gid="1011"/>
  <tile gid="1012"/>
  <tile gid="1013"/>
  <tile gid="614"/>
  <tile gid="199"/>
  <tile gid="402"/>
  <tile gid="454"/>
  <tile gid="561"/>
  <tile gid="399"/>
  <tile gid="982"/>
  <tile gid="983"/>
  <tile gid="984"/>
  <tile gid="194"/>
  <tile gid="271"/>
  <tile gid="402"/>
  <tile gid="232"/>
  <tile gid="654"/>
  <tile gid="133"/>
  <tile gid="231"/>
  <tile gid="560"/>
  <tile gid="518"/>
  <tile gid="917"/>
  <tile gid="402"/>
  <tile gid="487"/>
  <tile gid="402"/>
  <tile gid="193"/>
  <tile gid="338"/>
  <tile gid="338"/>
  <tile gid="402"/>
  <tile gid="422"/>
  <tile gid="816"/>
  <tile gid="816"/>
  <tile gid="421"/>
  <tile gid="453"/>
  <tile gid="453"/>
  <tile gid="755"/>
  <tile gid="816"/>
  <tile gid="816"/>
  <tile gid="489"/>
  <tile gid="454"/>
  <tile gid="194"/>
  <tile gid="133"/>
  <tile gid="197"/>
  <tile gid="645"/>
  <tile gid="271"/>
  <tile gid="402"/>
  <tile gid="688"/>
  <tile gid="353"/>
  <tile gid="266"/>
  <tile gid="1014"/>
  <tile gid="1015"/>
  <tile gid="1016"/>
  <tile gid="199"/>
  <tile gid="296"/>
  <tile gid="305"/>
  <tile gid="583"/>
  <tile gid="194"/>
  <tile gid="584"/>
  <tile gid="654"/>
  <tile gid="231"/>
  <tile gid="306"/>
  <tile gid="453"/>
  <tile gid="454"/>
  <tile gid="815"/>
  <tile gid="457"/>
  <tile gid="458"/>
  <tile gid="338"/>
  <tile gid="402"/>
  <tile gid="457"/>
  <tile gid="454"/>
  <tile gid="816"/>
  <tile gid="561"/>
  <tile gid="453"/>
  <tile gid="459"/>
  <tile gid="519"/>
  <tile gid="721"/>
  <tile gid="460"/>
  <tile gid="456"/>
  <tile gid="353"/>
  <tile gid="489"/>
  <tile gid="133"/>
  <tile gid="133"/>
  <tile gid="614"/>
  <tile gid="199"/>
  <tile gid="402"/>
  <tile gid="402"/>
  <tile gid="753"/>
  <tile gid="402"/>
  <tile gid="272"/>
  <tile gid="194"/>
  <tile gid="199"/>
  <tile gid="274"/>
  <tile gid="370"/>
  <tile gid="133"/>
  <tile gid="583"/>
  <tile gid="194"/>
  <tile gid="950"/>
  <tile gid="951"/>
  <tile gid="952"/>
  <tile gid="582"/>
  <tile gid="72"/>
  <tile gid="231"/>
  <tile gid="560"/>
  <tile gid="815"/>
  <tile gid="561"/>
  <tile gid="402"/>
  <tile gid="338"/>
  <tile gid="338"/>
  <tile gid="338"/>
  <tile gid="689"/>
  <tile gid="689"/>
  <tile gid="528"/>
  <tile gid="529"/>
  <tile gid="453"/>
  <tile gid="353"/>
  <tile gid="453"/>
  <tile gid="456"/>
  <tile gid="489"/>
  <tile gid="456"/>
  <tile gid="917"/>
  <tile gid="133"/>
  <tile gid="133"/>
  <tile gid="194"/>
  <tile gid="231"/>
  <tile gid="402"/>
  <tile gid="458"/>
  <tile gid="529"/>
  <tile gid="627"/>
  <tile gid="627"/>
  <tile gid="423"/>
  <tile gid="422"/>
  <tile gid="722"/>
  <tile gid="402"/>
  <tile gid="200"/>
  <tile gid="615"/>
  <tile gid="143"/>
  <tile gid="982"/>
  <tile gid="983"/>
  <tile gid="984"/>
  <tile gid="104"/>
  <tile gid="584"/>
  <tile gid="133"/>
  <tile gid="271"/>
  <tile gid="193"/>
  <tile gid="145"/>
  <tile gid="231"/>
  <tile gid="402"/>
  <tile gid="423"/>
  <tile gid="422"/>
  <tile gid="402"/>
  <tile gid="338"/>
  <tile gid="425"/>
  <tile gid="426"/>
  <tile gid="625"/>
  <tile gid="453"/>
  <tile gid="489"/>
  <tile gid="454"/>
  <tile gid="193"/>
  <tile gid="528"/>
  <tile gid="423"/>
  <tile gid="133"/>
  <tile gid="133"/>
  <tile gid="133"/>
  <tile gid="133"/>
  <tile gid="271"/>
  <tile gid="426"/>
  <tile gid="490"/>
  <tile gid="491"/>
  <tile gid="423"/>
  <tile gid="918"/>
  <tile gid="456"/>
  <tile gid="529"/>
  <tile gid="917"/>
  <tile gid="370"/>
  <tile gid="229"/>
  <tile gid="613"/>
  <tile gid="1014"/>
  <tile gid="1015"/>
  <tile gid="1016"/>
  <tile gid="133"/>
  <tile gid="614"/>
  <tile gid="133"/>
  <tile gid="402"/>
  <tile gid="232"/>
  <tile gid="133"/>
  <tile gid="133"/>
  <tile gid="271"/>
  <tile gid="455"/>
  <tile gid="454"/>
  <tile gid="402"/>
  <tile gid="338"/>
  <tile gid="721"/>
  <tile gid="458"/>
  <tile gid="625"/>
  <tile gid="816"/>
  <tile gid="816"/>
  <tile gid="816"/>
  <tile gid="528"/>
  <tile gid="421"/>
  <tile gid="528"/>
  <tile gid="197"/>
  <tile gid="645"/>
  <tile gid="133"/>
  <tile gid="199"/>
  <tile gid="753"/>
  <tile gid="338"/>
  <tile gid="193"/>
  <tile gid="338"/>
  <tile gid="402"/>
  <tile gid="338"/>
  <tile gid="424"/>
  <tile gid="490"/>
  <tile gid="491"/>
  <tile gid="529"/>
  <tile gid="200"/>
  <tile gid="646"/>
  <tile gid="133"/>
  <tile gid="133"/>
  <tile gid="133"/>
  <tile gid="133"/>
  <tile gid="133"/>
  <tile gid="199"/>
  <tile gid="370"/>
  <tile gid="581"/>
  <tile gid="582"/>
  <tile gid="133"/>
  <tile gid="231"/>
  <tile gid="193"/>
  <tile gid="624"/>
  <tile gid="421"/>
  <tile gid="338"/>
  <tile gid="338"/>
  <tile gid="426"/>
  <tile gid="529"/>
  <tile gid="560"/>
  <tile gid="816"/>
  <tile gid="816"/>
  <tile gid="519"/>
  <tile gid="753"/>
  <tile gid="815"/>
  <tile gid="614"/>
  <tile gid="199"/>
  <tile gid="274"/>
  <tile gid="338"/>
  <tile gid="338"/>
  <tile gid="338"/>
  <tile gid="627"/>
  <tile gid="628"/>
  <tile gid="338"/>
  <tile gid="753"/>
  <tile gid="338"/>
  <tile gid="338"/>
  <tile gid="193"/>
  <tile gid="424"/>
  <tile gid="370"/>
  <tile gid="646"/>
  <tile gid="194"/>
  <tile gid="133"/>
  <tile gid="133"/>
  <tile gid="199"/>
  <tile gid="274"/>
  <tile gid="306"/>
  <tile gid="232"/>
  <tile gid="133"/>
  <tile gid="194"/>
  <tile gid="584"/>
  <tile gid="198"/>
  <tile gid="231"/>
  <tile gid="624"/>
  <tile gid="457"/>
  <tile gid="402"/>
  <tile gid="338"/>
  <tile gid="722"/>
  <tile gid="521"/>
  <tile gid="529"/>
  <tile gid="560"/>
  <tile gid="816"/>
  <tile gid="421"/>
  <tile gid="528"/>
  <tile gid="815"/>
  <tile gid="274"/>
  <tile gid="338"/>
  <tile gid="338"/>
  <tile gid="402"/>
  <tile gid="338"/>
  <tile gid="528"/>
  <tile gid="353"/>
  <tile gid="659"/>
  <tile gid="454"/>
  <tile gid="453"/>
  <tile gid="487"/>
  <tile gid="459"/>
  <tile gid="529"/>
  <tile gid="402"/>
  <tile gid="521"/>
  <tile gid="200"/>
  <tile gid="613"/>
  <tile gid="133"/>
  <tile gid="199"/>
  <tile gid="721"/>
  <tile gid="232"/>
  <tile gid="133"/>
  <tile gid="194"/>
  <tile gid="950"/>
  <tile gid="951"/>
  <tile gid="952"/>
  <tile gid="582"/>
  <tile gid="133"/>
  <tile gid="271"/>
  <tile gid="560"/>
  <tile gid="453"/>
  <tile gid="338"/>
  <tile gid="193"/>
  <tile gid="424"/>
  <tile gid="529"/>
  <tile gid="402"/>
  <tile gid="519"/>
  <tile gid="353"/>
  <tile gid="815"/>
  <tile gid="753"/>
  <tile gid="917"/>
  <tile gid="338"/>
  <tile gid="338"/>
  <tile gid="753"/>
  <tile gid="528"/>
  <tile gid="460"/>
  <tile gid="487"/>
  <tile gid="454"/>
  <tile gid="950"/>
  <tile gid="951"/>
  <tile gid="952"/>
  <tile gid="453"/>
  <tile gid="816"/>
  <tile gid="593"/>
  <tile gid="424"/>
  <tile gid="529"/>
  <tile gid="402"/>
  <tile gid="274"/>
  <tile gid="232"/>
  <tile gid="581"/>
  <tile gid="133"/>
  <tile gid="133"/>
  <tile gid="133"/>
  <tile gid="982"/>
  <tile gid="983"/>
  <tile gid="984"/>
  <tile gid="614"/>
  <tile gid="133"/>
  <tile gid="271"/>
  <tile gid="528"/>
  <tile gid="423"/>
  <tile gid="721"/>
  <tile gid="338"/>
  <tile gid="338"/>
  <tile gid="338"/>
  <tile gid="338"/>
  <tile gid="338"/>
  <tile gid="455"/>
  <tile gid="561"/>
  <tile gid="691"/>
  <tile gid="529"/>
  <tile gid="338"/>
  <tile gid="193"/>
  <tile gid="528"/>
  <tile gid="659"/>
  <tile gid="454"/>
  <tile gid="561"/>
  <tile gid="232"/>
  <tile gid="982"/>
  <tile gid="983"/>
  <tile gid="984"/>
  <tile gid="519"/>
  <tile gid="459"/>
  <tile gid="593"/>
  <tile gid="402"/>
  <tile gid="402"/>
  <tile gid="402"/>
  <tile gid="370"/>
  <tile gid="133"/>
  <tile gid="613"/>
  <tile gid="133"/>
  <tile gid="133"/>
  <tile gid="133"/>
  <tile gid="1014"/>
  <tile gid="1015"/>
  <tile gid="1016"/>
  <tile gid="645"/>
  <tile gid="199"/>
  <tile gid="528"/>
  <tile gid="816"/>
  <tile gid="453"/>
  <tile gid="402"/>
  <tile gid="454"/>
  <tile gid="457"/>
  <tile gid="753"/>
  <tile gid="338"/>
  <tile gid="402"/>
  <tile gid="338"/>
  <tile gid="338"/>
  <tile gid="338"/>
  <tile gid="785"/>
  <tile gid="529"/>
  <tile gid="753"/>
  <tile gid="489"/>
  <tile gid="459"/>
  <tile gid="422"/>
  <tile gid="272"/>
  <tile gid="194"/>
  <tile gid="1014"/>
  <tile gid="1015"/>
  <tile gid="1016"/>
  <tile gid="560"/>
  <tile gid="453"/>
  <tile gid="593"/>
  <tile gid="193"/>
  <tile gid="528"/>
  <tile gid="529"/>
  <tile gid="402"/>
  <tile gid="200"/>
  <tile gid="678"/>
  <tile gid="133"/>
  <tile gid="194"/>
  <tile gid="133"/>
  <tile gid="133"/>
  <tile gid="133"/>
  <tile gid="614"/>
  <tile gid="230"/>
  <tile gid="624"/>
  <tile gid="816"/>
  <tile gid="492"/>
  <tile gid="423"/>
  <tile gid="402"/>
  <tile gid="521"/>
  <tile gid="816"/>
  <tile gid="593"/>
  <tile gid="624"/>
  <tile gid="816"/>
  <tile gid="492"/>
  <tile gid="338"/>
  <tile gid="402"/>
  <tile gid="659"/>
  <tile gid="659"/>
  <tile gid="529"/>
  <tile gid="402"/>
  <tile gid="453"/>
  <tile gid="454"/>
  <tile gid="625"/>
  <tile gid="200"/>
  <tile gid="133"/>
  <tile gid="133"/>
  <tile gid="133"/>
  <tile gid="271"/>
  <tile gid="519"/>
  <tile gid="402"/>
  <tile gid="338"/>
  <tile gid="560"/>
  <tile gid="424"/>
  <tile gid="492"/>
  <tile gid="370"/>
  <tile gid="229"/>
  <tile gid="617"/>
  <tile gid="650"/>
  <tile gid="198"/>
  <tile gid="133"/>
  <tile gid="194"/>
  <tile gid="645"/>
  <tile gid="199"/>
  <tile gid="917"/>
  <tile gid="421"/>
  <tile gid="721"/>
  <tile gid="193"/>
  <tile gid="402"/>
  <tile gid="422"/>
  <tile gid="816"/>
  <tile gid="593"/>
  <tile gid="528"/>
  <tile gid="421"/>
  <tile gid="753"/>
  <tile gid="529"/>
  <tile gid="193"/>
  <tile gid="426"/>
  <tile gid="490"/>
  <tile gid="491"/>
  <tile gid="529"/>
  <tile gid="688"/>
  <tile gid="689"/>
  <tile gid="692"/>
  <tile gid="272"/>
  <tile gid="133"/>
  <tile gid="194"/>
  <tile gid="199"/>
  <tile gid="528"/>
  <tile gid="423"/>
  <tile gid="402"/>
  <tile gid="338"/>
  <tile gid="753"/>
  <tile gid="402"/>
  <tile gid="353"/>
  <tile gid="424"/>
  <tile gid="200"/>
  <tile gid="133"/>
  <tile gid="229"/>
  <tile gid="617"/>
  <tile gid="650"/>
  <tile gid="614"/>
  <tile gid="230"/>
  <tile gid="271"/>
  <tile gid="402"/>
  <tile gid="402"/>
  <tile gid="402"/>
  <tile gid="753"/>
  <tile gid="405"/>
  <tile gid="456"/>
  <tile gid="816"/>
  <tile gid="593"/>
  <tile gid="518"/>
  <tile gid="918"/>
  <tile gid="624"/>
  <tile gid="816"/>
  <tile gid="529"/>
  <tile gid="787"/>
  <tile gid="917"/>
  <tile gid="753"/>
  <tile gid="422"/>
  <tile gid="529"/>
  <tile gid="193"/>
  <tile gid="402"/>
  <tile gid="402"/>
  <tile gid="200"/>
  <tile gid="199"/>
  <tile gid="528"/>
  <tile gid="423"/>
  <tile gid="193"/>
  <tile gid="722"/>
  <tile gid="402"/>
  <tile gid="338"/>
  <tile gid="338"/>
  <tile gid="402"/>
  <tile gid="918"/>
  <tile gid="424"/>
  <tile gid="274"/>
  <tile gid="274"/>
  <tile gid="200"/>
  <tile gid="133"/>
  <tile gid="133"/>
  <tile gid="199"/>
  <tile gid="193"/>
  <tile gid="402"/>
  <tile gid="402"/>
  <tile gid="353"/>
  <tile gid="487"/>
  <tile gid="456"/>
  <tile gid="816"/>
  <tile gid="561"/>
  <tile gid="528"/>
  <tile gid="816"/>
  <tile gid="453"/>
  <tile gid="624"/>
  <tile gid="816"/>
  <tile gid="753"/>
  </data>
 </layer>
</map>