<?xml version="1.0" encoding="UTF-8"?>
<map version="1.0" orientation="orthogonal" width="24" height="22" tilewidth="16" tileheight="16">
 <tileset firstgid="1" name="[A] Preview" tilewidth="16" tileheight="16">
  <image source="[A] Preview" trans="ffffff"/>
 </tileset>
 <layer name="Tile Layer 1" width="24" height="22">
  <properties>
   <property name="Main" value =""/>
  </properties>
  <data>
  <tile gid="131"/>
  <tile gid="131"/>
  <tile gid="131"/>
  <tile gid="131"/>
  <tile gid="71"/>
  <tile gid="72"/>
  <tile gid="738"/>
  <tile gid="818"/>
  <tile gid="385"/>
  <tile gid="525"/>
  <tile gid="425"/>
  <tile gid="430"/>
  <tile gid="561"/>
  <tile gid="166"/>
  <tile gid="271"/>
  <tile gid="232"/>
  <tile gid="166"/>
  <tile gid="163"/>
  <tile gid="783"/>
  <tile gid="722"/>
  <tile gid="690"/>
  <tile gid="526"/>
  <tile gid="514"/>
  <tile gid="430"/>
  <tile gid="131"/>
  <tile gid="131"/>
  <tile gid="77"/>
  <tile gid="80"/>
  <tile gid="7"/>
  <tile gid="144"/>
  <tile gid="674"/>
  <tile gid="785"/>
  <tile gid="496"/>
  <tile gid="525"/>
  <tile gid="425"/>
  <tile gid="466"/>
  <tile gid="100"/>
  <tile gid="199"/>
  <tile gid="272"/>
  <tile gid="166"/>
  <tile gid="166"/>
  <tile gid="777"/>
  <tile gid="816"/>
  <tile gid="816"/>
  <tile gid="653"/>
  <tile gid="595"/>
  <tile gid="526"/>
  <tile gid="514"/>
  <tile gid="53"/>
  <tile gid="721"/>
  <tile gid="642"/>
  <tile gid="143"/>
  <tile gid="7"/>
  <tile gid="104"/>
  <tile gid="818"/>
  <tile gid="818"/>
  <tile gid="690"/>
  <tile gid="716"/>
  <tile gid="782"/>
  <tile gid="593"/>
  <tile gid="721"/>
  <tile gid="271"/>
  <tile gid="232"/>
  <tile gid="166"/>
  <tile gid="385"/>
  <tile gid="482"/>
  <tile gid="430"/>
  <tile gid="530"/>
  <tile gid="721"/>
  <tile gid="805"/>
  <tile gid="595"/>
  <tile gid="526"/>
  <tile gid="246"/>
  <tile gid="53"/>
  <tile gid="674"/>
  <tile gid="103"/>
  <tile gid="104"/>
  <tile gid="131"/>
  <tile gid="785"/>
  <tile gid="721"/>
  <tile gid="818"/>
  <tile gid="783"/>
  <tile gid="933"/>
  <tile gid="203"/>
  <tile gid="201"/>
  <tile gid="272"/>
  <tile gid="166"/>
  <tile gid="166"/>
  <tile gid="496"/>
  <tile gid="425"/>
  <tile gid="430"/>
  <tile gid="529"/>
  <tile gid="131"/>
  <tile gid="332"/>
  <tile gid="99"/>
  <tile gid="595"/>
  <tile gid="214"/>
  <tile gid="246"/>
  <tile gid="247"/>
  <tile gid="206"/>
  <tile gid="131"/>
  <tile gid="131"/>
  <tile gid="721"/>
  <tile gid="99"/>
  <tile gid="131"/>
  <tile gid="99"/>
  <tile gid="99"/>
  <tile gid="237"/>
  <tile gid="306"/>
  <tile gid="232"/>
  <tile gid="131"/>
  <tile gid="385"/>
  <tile gid="525"/>
  <tile gid="425"/>
  <tile gid="430"/>
  <tile gid="593"/>
  <tile gid="68"/>
  <tile gid="721"/>
  <tile gid="163"/>
  <tile gid="75"/>
  <tile gid="214"/>
  <tile gid="214"/>
  <tile gid="313"/>
  <tile gid="238"/>
  <tile gid="131"/>
  <tile gid="131"/>
  <tile gid="818"/>
  <tile gid="166"/>
  <tile gid="783"/>
  <tile gid="132"/>
  <tile gid="166"/>
  <tile gid="133"/>
  <tile gid="133"/>
  <tile gid="816"/>
  <tile gid="750"/>
  <tile gid="551"/>
  <tile gid="524"/>
  <tile gid="426"/>
  <tile gid="466"/>
  <tile gid="721"/>
  <tile gid="163"/>
  <tile gid="99"/>
  <tile gid="163"/>
  <tile gid="73"/>
  <tile gid="194"/>
  <tile gid="194"/>
  <tile gid="195"/>
  <tile gid="131"/>
  <tile gid="131"/>
  <tile gid="131"/>
  <tile gid="131"/>
  <tile gid="131"/>
  <tile gid="71"/>
  <tile gid="72"/>
  <tile gid="99"/>
  <tile gid="721"/>
  <tile gid="783"/>
  <tile gid="933"/>
  <tile gid="782"/>
  <tile gid="616"/>
  <tile gid="556"/>
  <tile gid="617"/>
  <tile gid="529"/>
  <tile gid="163"/>
  <tile gid="163"/>
  <tile gid="99"/>
  <tile gid="163"/>
  <tile gid="143"/>
  <tile gid="226"/>
  <tile gid="226"/>
  <tile gid="227"/>
  <tile gid="131"/>
  <tile gid="131"/>
  <tile gid="131"/>
  <tile gid="99"/>
  <tile gid="131"/>
  <tile gid="143"/>
  <tile gid="144"/>
  <tile gid="131"/>
  <tile gid="131"/>
  <tile gid="131"/>
  <tile gid="131"/>
  <tile gid="131"/>
  <tile gid="595"/>
  <tile gid="588"/>
  <tile gid="514"/>
  <tile gid="430"/>
  <tile gid="498"/>
  <tile gid="163"/>
  <tile gid="721"/>
  <tile gid="163"/>
  <tile gid="143"/>
  <tile gid="258"/>
  <tile gid="258"/>
  <tile gid="259"/>
  <tile gid="131"/>
  <tile gid="131"/>
  <tile gid="131"/>
  <tile gid="131"/>
  <tile gid="131"/>
  <tile gid="143"/>
  <tile gid="7"/>
  <tile gid="80"/>
  <tile gid="72"/>
  <tile gid="721"/>
  <tile gid="131"/>
  <tile gid="131"/>
  <tile gid="494"/>
  <tile gid="525"/>
  <tile gid="588"/>
  <tile gid="545"/>
  <tile gid="466"/>
  <tile gid="721"/>
  <tile gid="163"/>
  <tile gid="641"/>
  <tile gid="933"/>
  <tile gid="214"/>
  <tile gid="214"/>
  <tile gid="215"/>
  <tile gid="206"/>
  <tile gid="641"/>
  <tile gid="646"/>
  <tile gid="131"/>
  <tile gid="131"/>
  <tile gid="103"/>
  <tile gid="7"/>
  <tile gid="7"/>
  <tile gid="7"/>
  <tile gid="80"/>
  <tile gid="72"/>
  <tile gid="131"/>
  <tile gid="721"/>
  <tile gid="595"/>
  <tile gid="525"/>
  <tile gid="425"/>
  <tile gid="529"/>
  <tile gid="964"/>
  <tile gid="163"/>
  <tile gid="673"/>
  <tile gid="674"/>
  <tile gid="22"/>
  <tile gid="215"/>
  <tile gid="232"/>
  <tile gid="131"/>
  <tile gid="673"/>
  <tile gid="721"/>
  <tile gid="131"/>
  <tile gid="644"/>
  <tile gid="131"/>
  <tile gid="143"/>
  <tile gid="7"/>
  <tile gid="7"/>
  <tile gid="7"/>
  <tile gid="144"/>
  <tile gid="100"/>
  <tile gid="132"/>
  <tile gid="132"/>
  <tile gid="690"/>
  <tile gid="748"/>
  <tile gid="593"/>
  <tile gid="163"/>
  <tile gid="163"/>
  <tile gid="163"/>
  <tile gid="932"/>
  <tile gid="721"/>
  <tile gid="642"/>
  <tile gid="131"/>
  <tile gid="131"/>
  <tile gid="131"/>
  <tile gid="131"/>
  <tile gid="721"/>
  <tile gid="738"/>
  <tile gid="131"/>
  <tile gid="103"/>
  <tile gid="112"/>
  <tile gid="7"/>
  <tile gid="7"/>
  <tile gid="144"/>
  <tile gid="131"/>
  <tile gid="816"/>
  <tile gid="816"/>
  <tile gid="783"/>
  <tile gid="783"/>
  <tile gid="163"/>
  <tile gid="163"/>
  <tile gid="163"/>
  <tile gid="163"/>
  <tile gid="332"/>
  <tile gid="805"/>
  <tile gid="676"/>
  <tile gid="721"/>
  <tile gid="131"/>
  <tile gid="641"/>
  <tile gid="721"/>
  <tile gid="773"/>
  <tile gid="674"/>
  <tile gid="131"/>
  <tile gid="721"/>
  <tile gid="131"/>
  <tile gid="103"/>
  <tile gid="112"/>
  <tile gid="104"/>
  <tile gid="131"/>
  <tile gid="816"/>
  <tile gid="816"/>
  <tile gid="783"/>
  <tile gid="783"/>
  <tile gid="743"/>
  <tile gid="743"/>
  <tile gid="721"/>
  <tile gid="163"/>
  <tile gid="163"/>
  <tile gid="239"/>
  <tile gid="131"/>
  <tile gid="131"/>
  <tile gid="142"/>
  <tile gid="673"/>
  <tile gid="674"/>
  <tile gid="166"/>
  <tile gid="131"/>
  <tile gid="131"/>
  <tile gid="131"/>
  <tile gid="131"/>
  <tile gid="131"/>
  <tile gid="131"/>
  <tile gid="100"/>
  <tile gid="721"/>
  <tile gid="722"/>
  <tile gid="723"/>
  <tile gid="783"/>
  <tile gid="656"/>
  <tile gid="588"/>
  <tile gid="545"/>
  <tile gid="498"/>
  <tile gid="978"/>
  <tile gid="207"/>
  <tile gid="131"/>
  <tile gid="131"/>
  <tile gid="71"/>
  <tile gid="144"/>
  <tile gid="131"/>
  <tile gid="131"/>
  <tile gid="721"/>
  <tile gid="100"/>
  <tile gid="131"/>
  <tile gid="131"/>
  <tile gid="131"/>
  <tile gid="131"/>
  <tile gid="131"/>
  <tile gid="100"/>
  <tile gid="721"/>
  <tile gid="754"/>
  <tile gid="755"/>
  <tile gid="385"/>
  <tile gid="550"/>
  <tile gid="419"/>
  <tile gid="619"/>
  <tile gid="561"/>
  <tile gid="1010"/>
  <tile gid="907"/>
  <tile gid="774"/>
  <tile gid="109"/>
  <tile gid="112"/>
  <tile gid="104"/>
  <tile gid="131"/>
  <tile gid="642"/>
  <tile gid="100"/>
  <tile gid="100"/>
  <tile gid="100"/>
  <tile gid="131"/>
  <tile gid="721"/>
  <tile gid="164"/>
  <tile gid="721"/>
  <tile gid="163"/>
  <tile gid="100"/>
  <tile gid="721"/>
  <tile gid="753"/>
  <tile gid="425"/>
  <tile gid="583"/>
  <tile gid="747"/>
  <tile gid="561"/>
  <tile gid="721"/>
  <tile gid="203"/>
  <tile gid="270"/>
  <tile gid="229"/>
  <tile gid="673"/>
  <tile gid="741"/>
  <tile gid="979"/>
  <tile gid="980"/>
  <tile gid="981"/>
  <tile gid="642"/>
  <tile gid="100"/>
  <tile gid="141"/>
  <tile gid="131"/>
  <tile gid="643"/>
  <tile gid="685"/>
  <tile gid="743"/>
  <tile gid="721"/>
  <tile gid="100"/>
  <tile gid="68"/>
  <tile gid="496"/>
  <tile gid="617"/>
  <tile gid="561"/>
  <tile gid="653"/>
  <tile gid="900"/>
  <tile gid="163"/>
  <tile gid="265"/>
  <tile gid="272"/>
  <tile gid="264"/>
  <tile gid="835"/>
  <tile gid="229"/>
  <tile gid="673"/>
  <tile gid="774"/>
  <tile gid="721"/>
  <tile gid="738"/>
  <tile gid="163"/>
  <tile gid="143"/>
  <tile gid="72"/>
  <tile gid="675"/>
  <tile gid="753"/>
  <tile gid="427"/>
  <tile gid="530"/>
  <tile gid="131"/>
  <tile gid="68"/>
  <tile gid="560"/>
  <tile gid="781"/>
  <tile gid="653"/>
  <tile gid="100"/>
  <tile gid="239"/>
  <tile gid="100"/>
  <tile gid="271"/>
  <tile gid="402"/>
  <tile gid="314"/>
  <tile gid="247"/>
  <tile gid="264"/>
  <tile gid="270"/>
  <tile gid="229"/>
  <tile gid="673"/>
  <tile gid="770"/>
  <tile gid="163"/>
  <tile gid="143"/>
  <tile gid="144"/>
  <tile gid="131"/>
  <tile gid="496"/>
  <tile gid="460"/>
  <tile gid="497"/>
  <tile gid="784"/>
  <tile gid="783"/>
  <tile gid="784"/>
  <tile gid="784"/>
  <tile gid="68"/>
  <tile gid="100"/>
  <tile gid="68"/>
  <tile gid="100"/>
  <tile gid="231"/>
  <tile gid="402"/>
  <tile gid="213"/>
  <tile gid="213"/>
  <tile gid="314"/>
  <tile gid="247"/>
  <tile gid="264"/>
  <tile gid="270"/>
  <tile gid="131"/>
  <tile gid="71"/>
  <tile gid="7"/>
  <tile gid="104"/>
  <tile gid="592"/>
  <tile gid="526"/>
  <tile gid="460"/>
  <tile gid="466"/>
  <tile gid="721"/>
  <tile gid="784"/>
  <tile gid="783"/>
  <tile gid="784"/>
  <tile gid="784"/>
  <tile gid="68"/>
  <tile gid="721"/>
  <tile gid="100"/>
  <tile gid="68"/>
  <tile gid="271"/>
  <tile gid="245"/>
  <tile gid="214"/>
  <tile gid="246"/>
  <tile gid="213"/>
  <tile gid="314"/>
  <tile gid="247"/>
  <tile gid="200"/>
  <tile gid="143"/>
  <tile gid="144"/>
  <tile gid="783"/>
  <tile gid="496"/>
  <tile gid="526"/>
  <tile gid="492"/>
  <tile gid="430"/>
  <tile gid="498"/>
  <tile gid="784"/>
  <tile gid="783"/>
  <tile gid="784"/>
  <tile gid="784"/>
  <tile gid="784"/>
  <tile gid="100"/>
  <tile gid="100"/>
  <tile gid="68"/>
  <tile gid="231"/>
  <tile gid="214"/>
  <tile gid="214"/>
  <tile gid="214"/>
  <tile gid="214"/>
  <tile gid="246"/>
  <tile gid="313"/>
  <tile gid="272"/>
  <tile gid="143"/>
  <tile gid="144"/>
  <tile gid="166"/>
  <tile gid="496"/>
  <tile gid="525"/>
  <tile gid="526"/>
  <tile gid="482"/>
  <tile gid="466"/>
  <tile gid="784"/>
  <tile gid="784"/>
  <tile gid="784"/>
  <tile gid="784"/>
  <tile gid="784"/>
  <tile gid="721"/>
  <tile gid="721"/>
  <tile gid="68"/>
  <tile gid="721"/>
  </data>
 </layer>
</map>