<?xml version="1.0" encoding="UTF-8"?>
<map version="1.0" orientation="orthogonal" width="31" height="30" tilewidth="16" tileheight="16">
 <tileset firstgid="1" name="1800481A" tilewidth="16" tileheight="16">
  <image source="1800481A" trans="ffffff"/>
 </tileset>
 <layer name="Tile Layer 1" width="31" height="30">
  <properties>
   <property name="Main" value =""/>
  </properties>
  <data>
  <tile gid="399"/>
  <tile gid="399"/>
  <tile gid="399"/>
  <tile gid="330"/>
  <tile gid="750"/>
  <tile gid="815"/>
  <tile gid="751"/>
  <tile gid="817"/>
  <tile gid="752"/>
  <tile gid="815"/>
  <tile gid="751"/>
  <tile gid="815"/>
  <tile gid="751"/>
  <tile gid="817"/>
  <tile gid="752"/>
  <tile gid="557"/>
  <tile gid="751"/>
  <tile gid="817"/>
  <tile gid="752"/>
  <tile gid="815"/>
  <tile gid="751"/>
  <tile gid="815"/>
  <tile gid="751"/>
  <tile gid="815"/>
  <tile gid="751"/>
  <tile gid="815"/>
  <tile gid="363"/>
  <tile gid="51"/>
  <tile gid="573"/>
  <tile gid="574"/>
  <tile gid="197"/>
  <tile gid="782"/>
  <tile gid="557"/>
  <tile gid="782"/>
  <tile gid="395"/>
  <tile gid="814"/>
  <tile gid="751"/>
  <tile gid="815"/>
  <tile gid="494"/>
  <tile gid="814"/>
  <tile gid="751"/>
  <tile gid="815"/>
  <tile gid="751"/>
  <tile gid="815"/>
  <tile gid="494"/>
  <tile gid="814"/>
  <tile gid="751"/>
  <tile gid="815"/>
  <tile gid="494"/>
  <tile gid="814"/>
  <tile gid="751"/>
  <tile gid="817"/>
  <tile gid="752"/>
  <tile gid="815"/>
  <tile gid="751"/>
  <tile gid="817"/>
  <tile gid="752"/>
  <tile gid="363"/>
  <tile gid="509"/>
  <tile gid="510"/>
  <tile gid="193"/>
  <tile gid="176"/>
  <tile gid="557"/>
  <tile gid="782"/>
  <tile gid="751"/>
  <tile gid="337"/>
  <tile gid="750"/>
  <tile gid="815"/>
  <tile gid="751"/>
  <tile gid="815"/>
  <tile gid="751"/>
  <tile gid="817"/>
  <tile gid="752"/>
  <tile gid="815"/>
  <tile gid="751"/>
  <tile gid="815"/>
  <tile gid="751"/>
  <tile gid="815"/>
  <tile gid="751"/>
  <tile gid="815"/>
  <tile gid="751"/>
  <tile gid="815"/>
  <tile gid="494"/>
  <tile gid="814"/>
  <tile gid="751"/>
  <tile gid="815"/>
  <tile gid="494"/>
  <tile gid="814"/>
  <tile gid="363"/>
  <tile gid="541"/>
  <tile gid="542"/>
  <tile gid="271"/>
  <tile gid="176"/>
  <tile gid="782"/>
  <tile gid="751"/>
  <tile gid="815"/>
  <tile gid="369"/>
  <tile gid="814"/>
  <tile gid="751"/>
  <tile gid="815"/>
  <tile gid="751"/>
  <tile gid="815"/>
  <tile gid="494"/>
  <tile gid="814"/>
  <tile gid="324"/>
  <tile gid="399"/>
  <tile gid="399"/>
  <tile gid="399"/>
  <tile gid="399"/>
  <tile gid="399"/>
  <tile gid="399"/>
  <tile gid="399"/>
  <tile gid="330"/>
  <tile gid="814"/>
  <tile gid="751"/>
  <tile gid="815"/>
  <tile gid="751"/>
  <tile gid="815"/>
  <tile gid="751"/>
  <tile gid="363"/>
  <tile gid="51"/>
  <tile gid="193"/>
  <tile gid="176"/>
  <tile gid="176"/>
  <tile gid="399"/>
  <tile gid="399"/>
  <tile gid="399"/>
  <tile gid="394"/>
  <tile gid="750"/>
  <tile gid="817"/>
  <tile gid="752"/>
  <tile gid="815"/>
  <tile gid="751"/>
  <tile gid="815"/>
  <tile gid="751"/>
  <tile gid="395"/>
  <tile gid="951"/>
  <tile gid="823"/>
  <tile gid="822"/>
  <tile gid="824"/>
  <tile gid="825"/>
  <tile gid="823"/>
  <tile gid="953"/>
  <tile gid="395"/>
  <tile gid="750"/>
  <tile gid="815"/>
  <tile gid="751"/>
  <tile gid="817"/>
  <tile gid="752"/>
  <tile gid="815"/>
  <tile gid="363"/>
  <tile gid="51"/>
  <tile gid="271"/>
  <tile gid="176"/>
  <tile gid="176"/>
  <tile gid="425"/>
  <tile gid="718"/>
  <tile gid="783"/>
  <tile gid="719"/>
  <tile gid="815"/>
  <tile gid="494"/>
  <tile gid="814"/>
  <tile gid="751"/>
  <tile gid="815"/>
  <tile gid="751"/>
  <tile gid="815"/>
  <tile gid="424"/>
  <tile gid="983"/>
  <tile gid="983"/>
  <tile gid="854"/>
  <tile gid="856"/>
  <tile gid="857"/>
  <tile gid="985"/>
  <tile gid="985"/>
  <tile gid="425"/>
  <tile gid="814"/>
  <tile gid="751"/>
  <tile gid="815"/>
  <tile gid="494"/>
  <tile gid="814"/>
  <tile gid="751"/>
  <tile gid="395"/>
  <tile gid="193"/>
  <tile gid="176"/>
  <tile gid="176"/>
  <tile gid="176"/>
  <tile gid="457"/>
  <tile gid="814"/>
  <tile gid="751"/>
  <tile gid="815"/>
  <tile gid="751"/>
  <tile gid="815"/>
  <tile gid="751"/>
  <tile gid="815"/>
  <tile gid="751"/>
  <tile gid="815"/>
  <tile gid="751"/>
  <tile gid="456"/>
  <tile gid="983"/>
  <tile gid="983"/>
  <tile gid="984"/>
  <tile gid="984"/>
  <tile gid="984"/>
  <tile gid="985"/>
  <tile gid="985"/>
  <tile gid="457"/>
  <tile gid="750"/>
  <tile gid="817"/>
  <tile gid="752"/>
  <tile gid="815"/>
  <tile gid="751"/>
  <tile gid="815"/>
  <tile gid="425"/>
  <tile gid="176"/>
  <tile gid="176"/>
  <tile gid="176"/>
  <tile gid="176"/>
  <tile gid="399"/>
  <tile gid="399"/>
  <tile gid="399"/>
  <tile gid="330"/>
  <tile gid="814"/>
  <tile gid="751"/>
  <tile gid="815"/>
  <tile gid="751"/>
  <tile gid="817"/>
  <tile gid="752"/>
  <tile gid="815"/>
  <tile gid="488"/>
  <tile gid="983"/>
  <tile gid="1015"/>
  <tile gid="951"/>
  <tile gid="952"/>
  <tile gid="953"/>
  <tile gid="1017"/>
  <tile gid="985"/>
  <tile gid="489"/>
  <tile gid="814"/>
  <tile gid="494"/>
  <tile gid="814"/>
  <tile gid="751"/>
  <tile gid="815"/>
  <tile gid="751"/>
  <tile gid="457"/>
  <tile gid="176"/>
  <tile gid="176"/>
  <tile gid="176"/>
  <tile gid="176"/>
  <tile gid="718"/>
  <tile gid="557"/>
  <tile gid="718"/>
  <tile gid="395"/>
  <tile gid="750"/>
  <tile gid="815"/>
  <tile gid="751"/>
  <tile gid="815"/>
  <tile gid="494"/>
  <tile gid="814"/>
  <tile gid="751"/>
  <tile gid="331"/>
  <tile gid="1015"/>
  <tile gid="1016"/>
  <tile gid="918"/>
  <tile gid="984"/>
  <tile gid="919"/>
  <tile gid="1016"/>
  <tile gid="1017"/>
  <tile gid="331"/>
  <tile gid="750"/>
  <tile gid="815"/>
  <tile gid="751"/>
  <tile gid="815"/>
  <tile gid="751"/>
  <tile gid="815"/>
  <tile gid="457"/>
  <tile gid="176"/>
  <tile gid="176"/>
  <tile gid="298"/>
  <tile gid="226"/>
  <tile gid="557"/>
  <tile gid="718"/>
  <tile gid="815"/>
  <tile gid="337"/>
  <tile gid="814"/>
  <tile gid="751"/>
  <tile gid="815"/>
  <tile gid="751"/>
  <tile gid="815"/>
  <tile gid="751"/>
  <tile gid="815"/>
  <tile gid="385"/>
  <tile gid="399"/>
  <tile gid="400"/>
  <tile gid="1015"/>
  <tile gid="1016"/>
  <tile gid="1017"/>
  <tile gid="397"/>
  <tile gid="399"/>
  <tile gid="387"/>
  <tile gid="814"/>
  <tile gid="751"/>
  <tile gid="815"/>
  <tile gid="751"/>
  <tile gid="817"/>
  <tile gid="752"/>
  <tile gid="489"/>
  <tile gid="306"/>
  <tile gid="226"/>
  <tile gid="509"/>
  <tile gid="510"/>
  <tile gid="718"/>
  <tile gid="815"/>
  <tile gid="751"/>
  <tile gid="369"/>
  <tile gid="750"/>
  <tile gid="815"/>
  <tile gid="751"/>
  <tile gid="815"/>
  <tile gid="751"/>
  <tile gid="815"/>
  <tile gid="751"/>
  <tile gid="677"/>
  <tile gid="737"/>
  <tile gid="738"/>
  <tile gid="458"/>
  <tile gid="459"/>
  <tile gid="460"/>
  <tile gid="737"/>
  <tile gid="738"/>
  <tile gid="677"/>
  <tile gid="750"/>
  <tile gid="815"/>
  <tile gid="751"/>
  <tile gid="815"/>
  <tile gid="494"/>
  <tile gid="814"/>
  <tile gid="331"/>
  <tile gid="573"/>
  <tile gid="574"/>
  <tile gid="541"/>
  <tile gid="542"/>
  <tile gid="399"/>
  <tile gid="399"/>
  <tile gid="399"/>
  <tile gid="389"/>
  <tile gid="399"/>
  <tile gid="330"/>
  <tile gid="814"/>
  <tile gid="751"/>
  <tile gid="817"/>
  <tile gid="752"/>
  <tile gid="815"/>
  <tile gid="719"/>
  <tile gid="783"/>
  <tile gid="719"/>
  <tile gid="783"/>
  <tile gid="719"/>
  <tile gid="783"/>
  <tile gid="719"/>
  <tile gid="783"/>
  <tile gid="719"/>
  <tile gid="815"/>
  <tile gid="751"/>
  <tile gid="815"/>
  <tile gid="751"/>
  <tile gid="815"/>
  <tile gid="751"/>
  <tile gid="363"/>
  <tile gid="36"/>
  <tile gid="36"/>
  <tile gid="36"/>
  <tile gid="36"/>
  <tile gid="847"/>
  <tile gid="847"/>
  <tile gid="847"/>
  <tile gid="847"/>
  <tile gid="847"/>
  <tile gid="363"/>
  <tile gid="750"/>
  <tile gid="815"/>
  <tile gid="494"/>
  <tile gid="814"/>
  <tile gid="751"/>
  <tile gid="815"/>
  <tile gid="751"/>
  <tile gid="815"/>
  <tile gid="751"/>
  <tile gid="815"/>
  <tile gid="751"/>
  <tile gid="815"/>
  <tile gid="751"/>
  <tile gid="815"/>
  <tile gid="751"/>
  <tile gid="815"/>
  <tile gid="751"/>
  <tile gid="815"/>
  <tile gid="751"/>
  <tile gid="815"/>
  <tile gid="385"/>
  <tile gid="399"/>
  <tile gid="399"/>
  <tile gid="399"/>
  <tile gid="399"/>
  <tile gid="879"/>
  <tile gid="879"/>
  <tile gid="879"/>
  <tile gid="879"/>
  <tile gid="879"/>
  <tile gid="363"/>
  <tile gid="814"/>
  <tile gid="751"/>
  <tile gid="815"/>
  <tile gid="751"/>
  <tile gid="324"/>
  <tile gid="399"/>
  <tile gid="399"/>
  <tile gid="399"/>
  <tile gid="399"/>
  <tile gid="399"/>
  <tile gid="399"/>
  <tile gid="399"/>
  <tile gid="399"/>
  <tile gid="399"/>
  <tile gid="330"/>
  <tile gid="750"/>
  <tile gid="817"/>
  <tile gid="752"/>
  <tile gid="815"/>
  <tile gid="751"/>
  <tile gid="783"/>
  <tile gid="719"/>
  <tile gid="783"/>
  <tile gid="719"/>
  <tile gid="783"/>
  <tile gid="879"/>
  <tile gid="879"/>
  <tile gid="879"/>
  <tile gid="879"/>
  <tile gid="879"/>
  <tile gid="363"/>
  <tile gid="750"/>
  <tile gid="815"/>
  <tile gid="751"/>
  <tile gid="815"/>
  <tile gid="395"/>
  <tile gid="517"/>
  <tile gid="517"/>
  <tile gid="517"/>
  <tile gid="517"/>
  <tile gid="517"/>
  <tile gid="517"/>
  <tile gid="517"/>
  <tile gid="517"/>
  <tile gid="517"/>
  <tile gid="395"/>
  <tile gid="814"/>
  <tile gid="494"/>
  <tile gid="814"/>
  <tile gid="751"/>
  <tile gid="815"/>
  <tile gid="751"/>
  <tile gid="815"/>
  <tile gid="751"/>
  <tile gid="817"/>
  <tile gid="752"/>
  <tile gid="879"/>
  <tile gid="879"/>
  <tile gid="879"/>
  <tile gid="879"/>
  <tile gid="879"/>
  <tile gid="395"/>
  <tile gid="814"/>
  <tile gid="751"/>
  <tile gid="815"/>
  <tile gid="751"/>
  <tile gid="425"/>
  <tile gid="462"/>
  <tile gid="974"/>
  <tile gid="975"/>
  <tile gid="975"/>
  <tile gid="975"/>
  <tile gid="975"/>
  <tile gid="975"/>
  <tile gid="975"/>
  <tile gid="462"/>
  <tile gid="424"/>
  <tile gid="750"/>
  <tile gid="815"/>
  <tile gid="751"/>
  <tile gid="815"/>
  <tile gid="751"/>
  <tile gid="815"/>
  <tile gid="751"/>
  <tile gid="815"/>
  <tile gid="494"/>
  <tile gid="814"/>
  <tile gid="879"/>
  <tile gid="879"/>
  <tile gid="879"/>
  <tile gid="879"/>
  <tile gid="879"/>
  <tile gid="613"/>
  <tile gid="750"/>
  <tile gid="815"/>
  <tile gid="751"/>
  <tile gid="815"/>
  <tile gid="457"/>
  <tile gid="974"/>
  <tile gid="1007"/>
  <tile gid="1007"/>
  <tile gid="557"/>
  <tile gid="1006"/>
  <tile gid="557"/>
  <tile gid="1006"/>
  <tile gid="1007"/>
  <tile gid="975"/>
  <tile gid="456"/>
  <tile gid="814"/>
  <tile gid="751"/>
  <tile gid="324"/>
  <tile gid="399"/>
  <tile gid="399"/>
  <tile gid="330"/>
  <tile gid="814"/>
  <tile gid="751"/>
  <tile gid="815"/>
  <tile gid="751"/>
  <tile gid="458"/>
  <tile gid="459"/>
  <tile gid="459"/>
  <tile gid="459"/>
  <tile gid="460"/>
  <tile gid="645"/>
  <tile gid="814"/>
  <tile gid="751"/>
  <tile gid="817"/>
  <tile gid="752"/>
  <tile gid="489"/>
  <tile gid="1006"/>
  <tile gid="1007"/>
  <tile gid="1007"/>
  <tile gid="975"/>
  <tile gid="557"/>
  <tile gid="974"/>
  <tile gid="1007"/>
  <tile gid="1007"/>
  <tile gid="1007"/>
  <tile gid="488"/>
  <tile gid="750"/>
  <tile gid="815"/>
  <tile gid="363"/>
  <tile gid="782"/>
  <tile gid="462"/>
  <tile gid="363"/>
  <tile gid="750"/>
  <tile gid="817"/>
  <tile gid="752"/>
  <tile gid="815"/>
  <tile gid="719"/>
  <tile gid="783"/>
  <tile gid="719"/>
  <tile gid="783"/>
  <tile gid="719"/>
  <tile gid="783"/>
  <tile gid="751"/>
  <tile gid="815"/>
  <tile gid="494"/>
  <tile gid="814"/>
  <tile gid="331"/>
  <tile gid="462"/>
  <tile gid="1006"/>
  <tile gid="1007"/>
  <tile gid="1007"/>
  <tile gid="1007"/>
  <tile gid="1007"/>
  <tile gid="1007"/>
  <tile gid="1007"/>
  <tile gid="462"/>
  <tile gid="331"/>
  <tile gid="814"/>
  <tile gid="751"/>
  <tile gid="363"/>
  <tile gid="750"/>
  <tile gid="815"/>
  <tile gid="363"/>
  <tile gid="814"/>
  <tile gid="494"/>
  <tile gid="814"/>
  <tile gid="751"/>
  <tile gid="815"/>
  <tile gid="751"/>
  <tile gid="815"/>
  <tile gid="751"/>
  <tile gid="815"/>
  <tile gid="751"/>
  <tile gid="815"/>
  <tile gid="751"/>
  <tile gid="815"/>
  <tile gid="751"/>
  <tile gid="388"/>
  <tile gid="399"/>
  <tile gid="399"/>
  <tile gid="399"/>
  <tile gid="399"/>
  <tile gid="399"/>
  <tile gid="399"/>
  <tile gid="399"/>
  <tile gid="399"/>
  <tile gid="399"/>
  <tile gid="387"/>
  <tile gid="750"/>
  <tile gid="815"/>
  <tile gid="363"/>
  <tile gid="814"/>
  <tile gid="751"/>
  <tile gid="363"/>
  <tile gid="750"/>
  <tile gid="815"/>
  <tile gid="751"/>
  <tile gid="815"/>
  <tile gid="751"/>
  <tile gid="817"/>
  <tile gid="752"/>
  <tile gid="815"/>
  <tile gid="751"/>
  <tile gid="815"/>
  <tile gid="751"/>
  <tile gid="815"/>
  <tile gid="751"/>
  <tile gid="815"/>
  <tile gid="719"/>
  <tile gid="783"/>
  <tile gid="719"/>
  <tile gid="783"/>
  <tile gid="719"/>
  <tile gid="783"/>
  <tile gid="719"/>
  <tile gid="783"/>
  <tile gid="719"/>
  <tile gid="783"/>
  <tile gid="719"/>
  <tile gid="815"/>
  <tile gid="751"/>
  <tile gid="363"/>
  <tile gid="462"/>
  <tile gid="814"/>
  <tile gid="363"/>
  <tile gid="814"/>
  <tile gid="751"/>
  <tile gid="815"/>
  <tile gid="751"/>
  <tile gid="815"/>
  <tile gid="494"/>
  <tile gid="814"/>
  <tile gid="751"/>
  <tile gid="815"/>
  <tile gid="751"/>
  <tile gid="817"/>
  <tile gid="752"/>
  <tile gid="815"/>
  <tile gid="751"/>
  <tile gid="815"/>
  <tile gid="751"/>
  <tile gid="817"/>
  <tile gid="752"/>
  <tile gid="815"/>
  <tile gid="751"/>
  <tile gid="815"/>
  <tile gid="751"/>
  <tile gid="817"/>
  <tile gid="752"/>
  <tile gid="815"/>
  <tile gid="751"/>
  <tile gid="815"/>
  <tile gid="363"/>
  <tile gid="782"/>
  <tile gid="751"/>
  <tile gid="363"/>
  <tile gid="458"/>
  <tile gid="459"/>
  <tile gid="459"/>
  <tile gid="460"/>
  <tile gid="751"/>
  <tile gid="815"/>
  <tile gid="751"/>
  <tile gid="815"/>
  <tile gid="331"/>
  <tile gid="815"/>
  <tile gid="494"/>
  <tile gid="814"/>
  <tile gid="751"/>
  <tile gid="815"/>
  <tile gid="751"/>
  <tile gid="815"/>
  <tile gid="494"/>
  <tile gid="814"/>
  <tile gid="751"/>
  <tile gid="817"/>
  <tile gid="752"/>
  <tile gid="815"/>
  <tile gid="494"/>
  <tile gid="814"/>
  <tile gid="751"/>
  <tile gid="815"/>
  <tile gid="751"/>
  <tile gid="363"/>
  <tile gid="750"/>
  <tile gid="815"/>
  <tile gid="363"/>
  <tile gid="974"/>
  <tile gid="975"/>
  <tile gid="975"/>
  <tile gid="975"/>
  <tile gid="815"/>
  <tile gid="751"/>
  <tile gid="815"/>
  <tile gid="751"/>
  <tile gid="363"/>
  <tile gid="751"/>
  <tile gid="815"/>
  <tile gid="751"/>
  <tile gid="815"/>
  <tile gid="751"/>
  <tile gid="815"/>
  <tile gid="331"/>
  <tile gid="814"/>
  <tile gid="751"/>
  <tile gid="815"/>
  <tile gid="494"/>
  <tile gid="814"/>
  <tile gid="751"/>
  <tile gid="815"/>
  <tile gid="331"/>
  <tile gid="814"/>
  <tile gid="751"/>
  <tile gid="815"/>
  <tile gid="363"/>
  <tile gid="814"/>
  <tile gid="751"/>
  <tile gid="363"/>
  <tile gid="1006"/>
  <tile gid="1007"/>
  <tile gid="1007"/>
  <tile gid="1007"/>
  <tile gid="399"/>
  <tile gid="399"/>
  <tile gid="399"/>
  <tile gid="399"/>
  <tile gid="336"/>
  <tile gid="815"/>
  <tile gid="751"/>
  <tile gid="815"/>
  <tile gid="751"/>
  <tile gid="817"/>
  <tile gid="752"/>
  <tile gid="363"/>
  <tile gid="750"/>
  <tile gid="815"/>
  <tile gid="751"/>
  <tile gid="815"/>
  <tile gid="751"/>
  <tile gid="815"/>
  <tile gid="751"/>
  <tile gid="363"/>
  <tile gid="750"/>
  <tile gid="817"/>
  <tile gid="752"/>
  <tile gid="363"/>
  <tile gid="750"/>
  <tile gid="462"/>
  <tile gid="363"/>
  <tile gid="1006"/>
  <tile gid="1007"/>
  <tile gid="1007"/>
  <tile gid="1007"/>
  <tile gid="673"/>
  <tile gid="674"/>
  <tile gid="673"/>
  <tile gid="674"/>
  <tile gid="363"/>
  <tile gid="751"/>
  <tile gid="815"/>
  <tile gid="751"/>
  <tile gid="815"/>
  <tile gid="494"/>
  <tile gid="814"/>
  <tile gid="363"/>
  <tile gid="458"/>
  <tile gid="459"/>
  <tile gid="459"/>
  <tile gid="459"/>
  <tile gid="459"/>
  <tile gid="459"/>
  <tile gid="460"/>
  <tile gid="363"/>
  <tile gid="814"/>
  <tile gid="494"/>
  <tile gid="814"/>
  <tile gid="388"/>
  <tile gid="399"/>
  <tile gid="399"/>
  <tile gid="357"/>
  <tile gid="399"/>
  <tile gid="398"/>
  <tile gid="399"/>
  <tile gid="399"/>
  <tile gid="737"/>
  <tile gid="738"/>
  <tile gid="737"/>
  <tile gid="738"/>
  <tile gid="395"/>
  <tile gid="815"/>
  <tile gid="751"/>
  <tile gid="815"/>
  <tile gid="751"/>
  <tile gid="815"/>
  <tile gid="751"/>
  <tile gid="363"/>
  <tile gid="458"/>
  <tile gid="459"/>
  <tile gid="459"/>
  <tile gid="459"/>
  <tile gid="459"/>
  <tile gid="459"/>
  <tile gid="460"/>
  <tile gid="363"/>
  <tile gid="750"/>
  <tile gid="815"/>
  <tile gid="751"/>
  <tile gid="783"/>
  <tile gid="719"/>
  <tile gid="425"/>
  <tile gid="363"/>
  <tile gid="974"/>
  <tile gid="975"/>
  <tile gid="975"/>
  <tile gid="975"/>
  <tile gid="670"/>
  <tile gid="36"/>
  <tile gid="193"/>
  <tile gid="198"/>
  <tile gid="424"/>
  <tile gid="751"/>
  <tile gid="817"/>
  <tile gid="752"/>
  <tile gid="815"/>
  <tile gid="751"/>
  <tile gid="815"/>
  <tile gid="363"/>
  <tile gid="665"/>
  <tile gid="505"/>
  <tile gid="505"/>
  <tile gid="505"/>
  <tile gid="505"/>
  <tile gid="505"/>
  <tile gid="506"/>
  <tile gid="363"/>
  <tile gid="814"/>
  <tile gid="751"/>
  <tile gid="817"/>
  <tile gid="752"/>
  <tile gid="815"/>
  <tile gid="457"/>
  <tile gid="363"/>
  <tile gid="1006"/>
  <tile gid="1007"/>
  <tile gid="1007"/>
  <tile gid="557"/>
  <tile gid="702"/>
  <tile gid="193"/>
  <tile gid="176"/>
  <tile gid="176"/>
  <tile gid="488"/>
  <tile gid="815"/>
  <tile gid="494"/>
  <tile gid="814"/>
  <tile gid="751"/>
  <tile gid="815"/>
  <tile gid="751"/>
  <tile gid="363"/>
  <tile gid="536"/>
  <tile gid="630"/>
  <tile gid="537"/>
  <tile gid="537"/>
  <tile gid="537"/>
  <tile gid="630"/>
  <tile gid="538"/>
  <tile gid="363"/>
  <tile gid="750"/>
  <tile gid="815"/>
  <tile gid="494"/>
  <tile gid="814"/>
  <tile gid="751"/>
  <tile gid="489"/>
  <tile gid="363"/>
  <tile gid="1006"/>
  <tile gid="1007"/>
  <tile gid="557"/>
  <tile gid="974"/>
  <tile gid="274"/>
  <tile gid="176"/>
  <tile gid="176"/>
  <tile gid="176"/>
  <tile gid="397"/>
  <tile gid="399"/>
  <tile gid="399"/>
  <tile gid="399"/>
  <tile gid="399"/>
  <tile gid="399"/>
  <tile gid="399"/>
  <tile gid="387"/>
  <tile gid="536"/>
  <tile gid="537"/>
  <tile gid="537"/>
  <tile gid="630"/>
  <tile gid="537"/>
  <tile gid="537"/>
  <tile gid="538"/>
  <tile gid="385"/>
  <tile gid="399"/>
  <tile gid="399"/>
  <tile gid="399"/>
  <tile gid="399"/>
  <tile gid="399"/>
  <tile gid="399"/>
  <tile gid="399"/>
  <tile gid="399"/>
  <tile gid="399"/>
  <tile gid="399"/>
  <tile gid="399"/>
  </data>
 </layer>
</map>