<?xml version="1.0" encoding="UTF-8"?>
<map version="1.0" orientation="orthogonal" width="26" height="19" tilewidth="16" tileheight="16">
 <tileset firstgid="1" name="[A] Preview" tilewidth="16" tileheight="16">
  <image source="[A] Preview" trans="ffffff"/>
 </tileset>
 <layer name="Tile Layer 1" width="26" height="19">
  <properties>
   <property name="Main" value =""/>
  </properties>
  <data>
  <tile gid="784"/>
  <tile gid="99"/>
  <tile gid="71"/>
  <tile gid="144"/>
  <tile gid="99"/>
  <tile gid="99"/>
  <tile gid="784"/>
  <tile gid="674"/>
  <tile gid="632"/>
  <tile gid="672"/>
  <tile gid="599"/>
  <tile gid="721"/>
  <tile gid="209"/>
  <tile gid="933"/>
  <tile gid="643"/>
  <tile gid="721"/>
  <tile gid="846"/>
  <tile gid="847"/>
  <tile gid="848"/>
  <tile gid="642"/>
  <tile gid="34"/>
  <tile gid="98"/>
  <tile gid="99"/>
  <tile gid="560"/>
  <tile gid="525"/>
  <tile gid="588"/>
  <tile gid="677"/>
  <tile gid="99"/>
  <tile gid="143"/>
  <tile gid="7"/>
  <tile gid="72"/>
  <tile gid="721"/>
  <tile gid="674"/>
  <tile gid="230"/>
  <tile gid="605"/>
  <tile gid="599"/>
  <tile gid="99"/>
  <tile gid="99"/>
  <tile gid="721"/>
  <tile gid="641"/>
  <tile gid="933"/>
  <tile gid="99"/>
  <tile gid="878"/>
  <tile gid="879"/>
  <tile gid="880"/>
  <tile gid="900"/>
  <tile gid="644"/>
  <tile gid="643"/>
  <tile gid="642"/>
  <tile gid="685"/>
  <tile gid="496"/>
  <tile gid="525"/>
  <tile gid="229"/>
  <tile gid="677"/>
  <tile gid="103"/>
  <tile gid="7"/>
  <tile gid="144"/>
  <tile gid="674"/>
  <tile gid="230"/>
  <tile gid="632"/>
  <tile gid="606"/>
  <tile gid="900"/>
  <tile gid="210"/>
  <tile gid="99"/>
  <tile gid="99"/>
  <tile gid="705"/>
  <tile gid="239"/>
  <tile gid="99"/>
  <tile gid="910"/>
  <tile gid="911"/>
  <tile gid="912"/>
  <tile gid="239"/>
  <tile gid="99"/>
  <tile gid="99"/>
  <tile gid="721"/>
  <tile gid="737"/>
  <tile gid="560"/>
  <tile gid="747"/>
  <tile gid="99"/>
  <tile gid="805"/>
  <tile gid="99"/>
  <tile gid="143"/>
  <tile gid="7"/>
  <tile gid="72"/>
  <tile gid="721"/>
  <tile gid="605"/>
  <tile gid="672"/>
  <tile gid="536"/>
  <tile gid="721"/>
  <tile gid="209"/>
  <tile gid="933"/>
  <tile gid="673"/>
  <tile gid="198"/>
  <tile gid="99"/>
  <tile gid="759"/>
  <tile gid="731"/>
  <tile gid="791"/>
  <tile gid="99"/>
  <tile gid="99"/>
  <tile gid="760"/>
  <tile gid="674"/>
  <tile gid="230"/>
  <tile gid="685"/>
  <tile gid="685"/>
  <tile gid="99"/>
  <tile gid="332"/>
  <tile gid="99"/>
  <tile gid="103"/>
  <tile gid="112"/>
  <tile gid="104"/>
  <tile gid="99"/>
  <tile gid="600"/>
  <tile gid="672"/>
  <tile gid="606"/>
  <tile gid="632"/>
  <tile gid="833"/>
  <tile gid="604"/>
  <tile gid="598"/>
  <tile gid="706"/>
  <tile gid="900"/>
  <tile gid="792"/>
  <tile gid="789"/>
  <tile gid="793"/>
  <tile gid="99"/>
  <tile gid="760"/>
  <tile gid="933"/>
  <tile gid="705"/>
  <tile gid="132"/>
  <tile gid="132"/>
  <tile gid="784"/>
  <tile gid="721"/>
  <tile gid="99"/>
  <tile gid="99"/>
  <tile gid="99"/>
  <tile gid="71"/>
  <tile gid="72"/>
  <tile gid="99"/>
  <tile gid="99"/>
  <tile gid="605"/>
  <tile gid="672"/>
  <tile gid="672"/>
  <tile gid="866"/>
  <tile gid="636"/>
  <tile gid="628"/>
  <tile gid="229"/>
  <tile gid="673"/>
  <tile gid="674"/>
  <tile gid="99"/>
  <tile gid="99"/>
  <tile gid="673"/>
  <tile gid="741"/>
  <tile gid="674"/>
  <tile gid="230"/>
  <tile gid="721"/>
  <tile gid="132"/>
  <tile gid="721"/>
  <tile gid="269"/>
  <tile gid="270"/>
  <tile gid="166"/>
  <tile gid="166"/>
  <tile gid="143"/>
  <tile gid="7"/>
  <tile gid="72"/>
  <tile gid="721"/>
  <tile gid="600"/>
  <tile gid="672"/>
  <tile gid="606"/>
  <tile gid="233"/>
  <tile gid="274"/>
  <tile gid="274"/>
  <tile gid="200"/>
  <tile gid="900"/>
  <tile gid="132"/>
  <tile gid="132"/>
  <tile gid="99"/>
  <tile gid="99"/>
  <tile gid="132"/>
  <tile gid="900"/>
  <tile gid="99"/>
  <tile gid="132"/>
  <tile gid="721"/>
  <tile gid="99"/>
  <tile gid="434"/>
  <tile gid="272"/>
  <tile gid="166"/>
  <tile gid="166"/>
  <tile gid="103"/>
  <tile gid="7"/>
  <tile gid="7"/>
  <tile gid="597"/>
  <tile gid="571"/>
  <tile gid="672"/>
  <tile gid="606"/>
  <tile gid="235"/>
  <tile gid="295"/>
  <tile gid="306"/>
  <tile gid="232"/>
  <tile gid="239"/>
  <tile gid="132"/>
  <tile gid="132"/>
  <tile gid="132"/>
  <tile gid="132"/>
  <tile gid="132"/>
  <tile gid="239"/>
  <tile gid="132"/>
  <tile gid="132"/>
  <tile gid="132"/>
  <tile gid="721"/>
  <tile gid="434"/>
  <tile gid="232"/>
  <tile gid="721"/>
  <tile gid="166"/>
  <tile gid="597"/>
  <tile gid="321"/>
  <tile gid="323"/>
  <tile gid="630"/>
  <tile gid="721"/>
  <tile gid="600"/>
  <tile gid="704"/>
  <tile gid="631"/>
  <tile gid="721"/>
  <tile gid="743"/>
  <tile gid="869"/>
  <tile gid="685"/>
  <tile gid="721"/>
  <tile gid="132"/>
  <tile gid="132"/>
  <tile gid="132"/>
  <tile gid="132"/>
  <tile gid="132"/>
  <tile gid="132"/>
  <tile gid="132"/>
  <tile gid="132"/>
  <tile gid="132"/>
  <tile gid="232"/>
  <tile gid="597"/>
  <tile gid="571"/>
  <tile gid="604"/>
  <tile gid="630"/>
  <tile gid="143"/>
  <tile gid="144"/>
  <tile gid="131"/>
  <tile gid="99"/>
  <tile gid="643"/>
  <tile gid="629"/>
  <tile gid="630"/>
  <tile gid="385"/>
  <tile gid="545"/>
  <tile gid="430"/>
  <tile gid="498"/>
  <tile gid="685"/>
  <tile gid="132"/>
  <tile gid="132"/>
  <tile gid="132"/>
  <tile gid="132"/>
  <tile gid="132"/>
  <tile gid="132"/>
  <tile gid="132"/>
  <tile gid="132"/>
  <tile gid="132"/>
  <tile gid="571"/>
  <tile gid="630"/>
  <tile gid="721"/>
  <tile gid="602"/>
  <tile gid="721"/>
  <tile gid="103"/>
  <tile gid="144"/>
  <tile gid="131"/>
  <tile gid="783"/>
  <tile gid="737"/>
  <tile gid="881"/>
  <tile gid="881"/>
  <tile gid="560"/>
  <tile gid="588"/>
  <tile gid="545"/>
  <tile gid="461"/>
  <tile gid="498"/>
  <tile gid="721"/>
  <tile gid="99"/>
  <tile gid="99"/>
  <tile gid="721"/>
  <tile gid="99"/>
  <tile gid="99"/>
  <tile gid="900"/>
  <tile gid="721"/>
  <tile gid="869"/>
  <tile gid="644"/>
  <tile gid="99"/>
  <tile gid="99"/>
  <tile gid="600"/>
  <tile gid="631"/>
  <tile gid="71"/>
  <tile gid="104"/>
  <tile gid="721"/>
  <tile gid="643"/>
  <tile gid="808"/>
  <tile gid="809"/>
  <tile gid="810"/>
  <tile gid="722"/>
  <tile gid="560"/>
  <tile gid="588"/>
  <tile gid="545"/>
  <tile gid="529"/>
  <tile gid="869"/>
  <tile gid="199"/>
  <tile gid="200"/>
  <tile gid="641"/>
  <tile gid="869"/>
  <tile gid="721"/>
  <tile gid="742"/>
  <tile gid="741"/>
  <tile gid="674"/>
  <tile gid="837"/>
  <tile gid="642"/>
  <tile gid="99"/>
  <tile gid="71"/>
  <tile gid="3"/>
  <tile gid="173"/>
  <tile gid="99"/>
  <tile gid="99"/>
  <tile gid="675"/>
  <tile gid="872"/>
  <tile gid="873"/>
  <tile gid="874"/>
  <tile gid="724"/>
  <tile gid="787"/>
  <tile gid="496"/>
  <tile gid="522"/>
  <tile gid="529"/>
  <tile gid="745"/>
  <tile gid="271"/>
  <tile gid="272"/>
  <tile gid="673"/>
  <tile gid="774"/>
  <tile gid="674"/>
  <tile gid="230"/>
  <tile gid="163"/>
  <tile gid="721"/>
  <tile gid="332"/>
  <tile gid="721"/>
  <tile gid="644"/>
  <tile gid="143"/>
  <tile gid="600"/>
  <tile gid="631"/>
  <tile gid="73"/>
  <tile gid="72"/>
  <tile gid="721"/>
  <tile gid="131"/>
  <tile gid="332"/>
  <tile gid="131"/>
  <tile gid="945"/>
  <tile gid="721"/>
  <tile gid="560"/>
  <tile gid="782"/>
  <tile gid="561"/>
  <tile gid="721"/>
  <tile gid="271"/>
  <tile gid="434"/>
  <tile gid="206"/>
  <tile gid="721"/>
  <tile gid="99"/>
  <tile gid="100"/>
  <tile gid="100"/>
  <tile gid="100"/>
  <tile gid="99"/>
  <tile gid="99"/>
  <tile gid="77"/>
  <tile gid="104"/>
  <tile gid="721"/>
  <tile gid="633"/>
  <tile gid="103"/>
  <tile gid="7"/>
  <tile gid="80"/>
  <tile gid="72"/>
  <tile gid="131"/>
  <tile gid="131"/>
  <tile gid="721"/>
  <tile gid="131"/>
  <tile gid="900"/>
  <tile gid="783"/>
  <tile gid="721"/>
  <tile gid="132"/>
  <tile gid="297"/>
  <tile gid="434"/>
  <tile gid="304"/>
  <tile gid="100"/>
  <tile gid="99"/>
  <tile gid="100"/>
  <tile gid="100"/>
  <tile gid="100"/>
  <tile gid="721"/>
  <tile gid="99"/>
  <tile gid="597"/>
  <tile gid="571"/>
  <tile gid="631"/>
  <tile gid="633"/>
  <tile gid="721"/>
  <tile gid="103"/>
  <tile gid="7"/>
  <tile gid="144"/>
  <tile gid="131"/>
  <tile gid="131"/>
  <tile gid="131"/>
  <tile gid="131"/>
  <tile gid="131"/>
  <tile gid="132"/>
  <tile gid="132"/>
  <tile gid="99"/>
  <tile gid="235"/>
  <tile gid="337"/>
  <tile gid="236"/>
  <tile gid="99"/>
  <tile gid="99"/>
  <tile gid="199"/>
  <tile gid="274"/>
  <tile gid="200"/>
  <tile gid="597"/>
  <tile gid="35"/>
  <tile gid="630"/>
  <tile gid="721"/>
  <tile gid="600"/>
  <tile gid="636"/>
  <tile gid="631"/>
  <tile gid="99"/>
  <tile gid="173"/>
  <tile gid="174"/>
  <tile gid="131"/>
  <tile gid="721"/>
  <tile gid="205"/>
  <tile gid="274"/>
  <tile gid="200"/>
  <tile gid="132"/>
  <tile gid="132"/>
  <tile gid="132"/>
  <tile gid="99"/>
  <tile gid="99"/>
  <tile gid="99"/>
  <tile gid="99"/>
  <tile gid="721"/>
  <tile gid="271"/>
  <tile gid="402"/>
  <tile gid="402"/>
  <tile gid="630"/>
  <tile gid="99"/>
  <tile gid="99"/>
  <tile gid="131"/>
  <tile gid="131"/>
  <tile gid="99"/>
  <tile gid="600"/>
  <tile gid="631"/>
  <tile gid="71"/>
  <tile gid="78"/>
  <tile gid="131"/>
  <tile gid="131"/>
  <tile gid="201"/>
  <tile gid="402"/>
  <tile gid="272"/>
  <tile gid="721"/>
  <tile gid="99"/>
  <tile gid="99"/>
  <tile gid="721"/>
  <tile gid="744"/>
  <tile gid="721"/>
  <tile gid="100"/>
  <tile gid="100"/>
  <tile gid="231"/>
  <tile gid="402"/>
  <tile gid="402"/>
  <tile gid="99"/>
  <tile gid="99"/>
  <tile gid="199"/>
  <tile gid="274"/>
  <tile gid="200"/>
  <tile gid="131"/>
  <tile gid="721"/>
  <tile gid="3"/>
  <tile gid="173"/>
  <tile gid="131"/>
  <tile gid="721"/>
  <tile gid="199"/>
  <tile gid="402"/>
  <tile gid="402"/>
  <tile gid="402"/>
  <tile gid="200"/>
  <tile gid="99"/>
  <tile gid="901"/>
  <tile gid="385"/>
  <tile gid="513"/>
  <tile gid="498"/>
  <tile gid="783"/>
  <tile gid="99"/>
  <tile gid="721"/>
  <tile gid="271"/>
  <tile gid="402"/>
  </data>
 </layer>
</map>