<?xml version="1.0" encoding="UTF-8"?>
<map version="1.10" tiledversion="1.11.2" orientation="orthogonal" renderorder="right-down" width="11" height="6" tilewidth="8" tileheight="8" infinite="0" nextlayerid="2" nextobjectid="1">
 <tileset firstgid="1" name="MenuTiles" tilewidth="8" tileheight="8" tilecount="128" columns="16">
  <image source="../../MenuTiles.png" width="128" height="64"/>
 </tileset>
 <layer id="1" name="Tile Layer 1" width="11" height="6">
  <data encoding="csv">
98,99,4,4,50,51,52,4,4,5,6,
7,10,10,10,10,10,10,10,10,53,54,
7,10,10,10,10,10,10,10,53,55,54,
7,55,55,55,55,55,55,55,55,55,56,
7,55,55,55,55,55,55,55,55,55,56,
27,28,29,29,29,29,29,29,29,33,34
</data>
 </layer>
</map>
