<?xml version="1.0" encoding="UTF-8"?>
<map version="1.10" tiledversion="1.11.2" orientation="orthogonal" renderorder="right-down" width="10" height="11" tilewidth="8" tileheight="8" infinite="0" nextlayerid="2" nextobjectid="1">
 <tileset firstgid="1" name="BobMenuTiles" tilewidth="8" tileheight="8" tilecount="0" columns="16">
  <image source="../../Image/Png/BobMenuTiles.png" width="128" height="64"/>
 </tileset>
 <tileset firstgid="1" name="BobMenuTiles" tilewidth="8" tileheight="8" tilecount="128" columns="16">
  <image source="../../MenuTiles.png" width="128" height="64"/>
 </tileset>
 <layer id="1" name="Tile Layer 1" width="10" height="11">
  <data encoding="csv">
2,3,4,4,4,4,4,4,5,6,
12,14,14,14,14,14,14,14,14,16,
12,14,14,14,14,14,14,14,14,16,
103,104,104,104,104,104,104,104,104,105,
12,9,9,9,9,9,9,9,9,11,
12,9,9,9,9,9,9,9,9,11,
12,9,9,9,9,9,9,9,9,11,
12,9,9,9,9,9,9,9,9,11,
12,9,9,9,9,9,9,9,9,11,
12,9,9,9,9,9,9,9,9,11,
27,28,29,29,29,28,29,30,31,32
</data>
 </layer>
</map>
