<?xml version="1.0" encoding="UTF-8"?>
<map version="1.10" tiledversion="1.11.2" orientation="orthogonal" renderorder="right-down" width="28" height="31" tilewidth="16" tileheight="16" infinite="0" nextlayerid="5" nextobjectid="1">
 <tileset firstgid="1" name="04000304" tilewidth="16" tileheight="16" tilecount="1024" columns="32">
  <image source="04000304.png" trans="ffffff" width="512" height="512"/>
 </tileset>
 <layer id="1" name="Tile Layer 1" width="28" height="31">
  <properties>
   <property name="Anims1" value="0x07"/>
   <property name="Anims2" value="0"/>
   <property name="ChapterID" value="0x7"/>
   <property name="Main" value=""/>
   <property name="MapChangesID" value="0"/>
   <property name="MapID" value="0xE1"/>
   <property name="ObjectType" value="3"/>
   <property name="PaletteID" value="0x5"/>
   <property name="TileConfig" value="3"/>
  </properties>
  <data>
   <tile gid="418"/>
   <tile gid="418"/>
   <tile gid="418"/>
   <tile gid="418"/>
   <tile gid="418"/>
   <tile gid="421"/>
   <tile gid="424"/>
   <tile gid="418"/>
   <tile gid="418"/>
   <tile gid="985"/>
   <tile gid="481"/>
   <tile gid="482"/>
   <tile gid="482"/>
   <tile gid="482"/>
   <tile gid="984"/>
   <tile gid="13"/>
   <tile gid="417"/>
   <tile gid="421"/>
   <tile gid="421"/>
   <tile gid="418"/>
   <tile gid="418"/>
   <tile gid="421"/>
   <tile gid="418"/>
   <tile gid="418"/>
   <tile gid="418"/>
   <tile gid="418"/>
   <tile gid="418"/>
   <tile gid="418"/>
   <tile gid="421"/>
   <tile gid="418"/>
   <tile gid="13"/>
   <tile gid="417"/>
   <tile gid="421"/>
   <tile gid="421"/>
   <tile gid="421"/>
   <tile gid="421"/>
   <tile gid="418"/>
   <tile gid="985"/>
   <tile gid="481"/>
   <tile gid="482"/>
   <tile gid="482"/>
   <tile gid="482"/>
   <tile gid="984"/>
   <tile gid="464"/>
   <tile gid="454"/>
   <tile gid="421"/>
   <tile gid="421"/>
   <tile gid="421"/>
   <tile gid="418"/>
   <tile gid="418"/>
   <tile gid="418"/>
   <tile gid="418"/>
   <tile gid="421"/>
   <tile gid="421"/>
   <tile gid="418"/>
   <tile gid="13"/>
   <tile gid="418"/>
   <tile gid="418"/>
   <tile gid="464"/>
   <tile gid="454"/>
   <tile gid="421"/>
   <tile gid="30"/>
   <tile gid="31"/>
   <tile gid="420"/>
   <tile gid="421"/>
   <tile gid="985"/>
   <tile gid="481"/>
   <tile gid="482"/>
   <tile gid="482"/>
   <tile gid="482"/>
   <tile gid="984"/>
   <tile gid="421"/>
   <tile gid="421"/>
   <tile gid="30"/>
   <tile gid="31"/>
   <tile gid="420"/>
   <tile gid="421"/>
   <tile gid="13"/>
   <tile gid="417"/>
   <tile gid="418"/>
   <tile gid="421"/>
   <tile gid="418"/>
   <tile gid="418"/>
   <tile gid="464"/>
   <tile gid="418"/>
   <tile gid="418"/>
   <tile gid="418"/>
   <tile gid="421"/>
   <tile gid="421"/>
   <tile gid="62"/>
   <tile gid="63"/>
   <tile gid="420"/>
   <tile gid="421"/>
   <tile gid="985"/>
   <tile gid="7"/>
   <tile gid="481"/>
   <tile gid="482"/>
   <tile gid="7"/>
   <tile gid="984"/>
   <tile gid="421"/>
   <tile gid="424"/>
   <tile gid="62"/>
   <tile gid="63"/>
   <tile gid="420"/>
   <tile gid="421"/>
   <tile gid="464"/>
   <tile gid="451"/>
   <tile gid="418"/>
   <tile gid="418"/>
   <tile gid="418"/>
   <tile gid="418"/>
   <tile gid="418"/>
   <tile gid="418"/>
   <tile gid="418"/>
   <tile gid="418"/>
   <tile gid="424"/>
   <tile gid="421"/>
   <tile gid="94"/>
   <tile gid="95"/>
   <tile gid="420"/>
   <tile gid="421"/>
   <tile gid="985"/>
   <tile gid="39"/>
   <tile gid="481"/>
   <tile gid="482"/>
   <tile gid="39"/>
   <tile gid="984"/>
   <tile gid="421"/>
   <tile gid="421"/>
   <tile gid="94"/>
   <tile gid="95"/>
   <tile gid="420"/>
   <tile gid="424"/>
   <tile gid="418"/>
   <tile gid="418"/>
   <tile gid="418"/>
   <tile gid="418"/>
   <tile gid="418"/>
   <tile gid="418"/>
   <tile gid="421"/>
   <tile gid="13"/>
   <tile gid="417"/>
   <tile gid="418"/>
   <tile gid="418"/>
   <tile gid="421"/>
   <tile gid="422"/>
   <tile gid="422"/>
   <tile gid="421"/>
   <tile gid="13"/>
   <tile gid="985"/>
   <tile gid="71"/>
   <tile gid="481"/>
   <tile gid="482"/>
   <tile gid="71"/>
   <tile gid="984"/>
   <tile gid="418"/>
   <tile gid="421"/>
   <tile gid="422"/>
   <tile gid="422"/>
   <tile gid="421"/>
   <tile gid="418"/>
   <tile gid="418"/>
   <tile gid="418"/>
   <tile gid="421"/>
   <tile gid="13"/>
   <tile gid="417"/>
   <tile gid="418"/>
   <tile gid="418"/>
   <tile gid="464"/>
   <tile gid="454"/>
   <tile gid="421"/>
   <tile gid="418"/>
   <tile gid="418"/>
   <tile gid="424"/>
   <tile gid="421"/>
   <tile gid="418"/>
   <tile gid="464"/>
   <tile gid="985"/>
   <tile gid="484"/>
   <tile gid="482"/>
   <tile gid="482"/>
   <tile gid="485"/>
   <tile gid="984"/>
   <tile gid="418"/>
   <tile gid="418"/>
   <tile gid="421"/>
   <tile gid="424"/>
   <tile gid="418"/>
   <tile gid="418"/>
   <tile gid="418"/>
   <tile gid="421"/>
   <tile gid="418"/>
   <tile gid="464"/>
   <tile gid="454"/>
   <tile gid="418"/>
   <tile gid="418"/>
   <tile gid="290"/>
   <tile gid="990"/>
   <tile gid="990"/>
   <tile gid="990"/>
   <tile gid="990"/>
   <tile gid="168"/>
   <tile gid="169"/>
   <tile gid="1021"/>
   <tile gid="1023"/>
   <tile gid="1017"/>
   <tile gid="481"/>
   <tile gid="482"/>
   <tile gid="482"/>
   <tile gid="482"/>
   <tile gid="1016"/>
   <tile gid="990"/>
   <tile gid="991"/>
   <tile gid="168"/>
   <tile gid="169"/>
   <tile gid="989"/>
   <tile gid="990"/>
   <tile gid="990"/>
   <tile gid="990"/>
   <tile gid="290"/>
   <tile gid="417"/>
   <tile gid="418"/>
   <tile gid="418"/>
   <tile gid="418"/>
   <tile gid="290"/>
   <tile gid="566"/>
   <tile gid="311"/>
   <tile gid="311"/>
   <tile gid="311"/>
   <tile gid="168"/>
   <tile gid="169"/>
   <tile gid="311"/>
   <tile gid="311"/>
   <tile gid="566"/>
   <tile gid="481"/>
   <tile gid="482"/>
   <tile gid="482"/>
   <tile gid="482"/>
   <tile gid="566"/>
   <tile gid="311"/>
   <tile gid="311"/>
   <tile gid="168"/>
   <tile gid="169"/>
   <tile gid="311"/>
   <tile gid="311"/>
   <tile gid="311"/>
   <tile gid="566"/>
   <tile gid="290"/>
   <tile gid="420"/>
   <tile gid="418"/>
   <tile gid="13"/>
   <tile gid="417"/>
   <tile gid="290"/>
   <tile gid="141"/>
   <tile gid="311"/>
   <tile gid="311"/>
   <tile gid="311"/>
   <tile gid="168"/>
   <tile gid="169"/>
   <tile gid="311"/>
   <tile gid="80"/>
   <tile gid="141"/>
   <tile gid="481"/>
   <tile gid="482"/>
   <tile gid="482"/>
   <tile gid="482"/>
   <tile gid="141"/>
   <tile gid="80"/>
   <tile gid="311"/>
   <tile gid="168"/>
   <tile gid="169"/>
   <tile gid="311"/>
   <tile gid="311"/>
   <tile gid="311"/>
   <tile gid="141"/>
   <tile gid="290"/>
   <tile gid="420"/>
   <tile gid="418"/>
   <tile gid="464"/>
   <tile gid="451"/>
   <tile gid="290"/>
   <tile gid="484"/>
   <tile gid="485"/>
   <tile gid="485"/>
   <tile gid="485"/>
   <tile gid="485"/>
   <tile gid="485"/>
   <tile gid="485"/>
   <tile gid="112"/>
   <tile gid="485"/>
   <tile gid="482"/>
   <tile gid="482"/>
   <tile gid="482"/>
   <tile gid="482"/>
   <tile gid="485"/>
   <tile gid="112"/>
   <tile gid="485"/>
   <tile gid="485"/>
   <tile gid="485"/>
   <tile gid="485"/>
   <tile gid="485"/>
   <tile gid="485"/>
   <tile gid="135"/>
   <tile gid="290"/>
   <tile gid="417"/>
   <tile gid="418"/>
   <tile gid="418"/>
   <tile gid="418"/>
   <tile gid="290"/>
   <tile gid="481"/>
   <tile gid="13"/>
   <tile gid="481"/>
   <tile gid="482"/>
   <tile gid="482"/>
   <tile gid="482"/>
   <tile gid="482"/>
   <tile gid="482"/>
   <tile gid="482"/>
   <tile gid="482"/>
   <tile gid="482"/>
   <tile gid="482"/>
   <tile gid="482"/>
   <tile gid="482"/>
   <tile gid="482"/>
   <tile gid="13"/>
   <tile gid="481"/>
   <tile gid="482"/>
   <tile gid="482"/>
   <tile gid="482"/>
   <tile gid="482"/>
   <tile gid="485"/>
   <tile gid="290"/>
   <tile gid="417"/>
   <tile gid="418"/>
   <tile gid="418"/>
   <tile gid="418"/>
   <tile gid="290"/>
   <tile gid="481"/>
   <tile gid="45"/>
   <tile gid="487"/>
   <tile gid="482"/>
   <tile gid="482"/>
   <tile gid="482"/>
   <tile gid="482"/>
   <tile gid="482"/>
   <tile gid="13"/>
   <tile gid="481"/>
   <tile gid="321"/>
   <tile gid="322"/>
   <tile gid="481"/>
   <tile gid="482"/>
   <tile gid="482"/>
   <tile gid="45"/>
   <tile gid="487"/>
   <tile gid="482"/>
   <tile gid="482"/>
   <tile gid="482"/>
   <tile gid="482"/>
   <tile gid="482"/>
   <tile gid="290"/>
   <tile gid="417"/>
   <tile gid="418"/>
   <tile gid="418"/>
   <tile gid="418"/>
   <tile gid="290"/>
   <tile gid="481"/>
   <tile gid="482"/>
   <tile gid="482"/>
   <tile gid="482"/>
   <tile gid="482"/>
   <tile gid="482"/>
   <tile gid="482"/>
   <tile gid="482"/>
   <tile gid="45"/>
   <tile gid="487"/>
   <tile gid="321"/>
   <tile gid="322"/>
   <tile gid="481"/>
   <tile gid="482"/>
   <tile gid="482"/>
   <tile gid="482"/>
   <tile gid="482"/>
   <tile gid="482"/>
   <tile gid="482"/>
   <tile gid="482"/>
   <tile gid="13"/>
   <tile gid="481"/>
   <tile gid="290"/>
   <tile gid="417"/>
   <tile gid="418"/>
   <tile gid="421"/>
   <tile gid="13"/>
   <tile gid="290"/>
   <tile gid="481"/>
   <tile gid="482"/>
   <tile gid="482"/>
   <tile gid="482"/>
   <tile gid="421"/>
   <tile gid="421"/>
   <tile gid="482"/>
   <tile gid="482"/>
   <tile gid="482"/>
   <tile gid="482"/>
   <tile gid="321"/>
   <tile gid="322"/>
   <tile gid="103"/>
   <tile gid="481"/>
   <tile gid="482"/>
   <tile gid="482"/>
   <tile gid="482"/>
   <tile gid="482"/>
   <tile gid="482"/>
   <tile gid="482"/>
   <tile gid="45"/>
   <tile gid="487"/>
   <tile gid="290"/>
   <tile gid="417"/>
   <tile gid="421"/>
   <tile gid="421"/>
   <tile gid="464"/>
   <tile gid="386"/>
   <tile gid="482"/>
   <tile gid="482"/>
   <tile gid="482"/>
   <tile gid="421"/>
   <tile gid="421"/>
   <tile gid="421"/>
   <tile gid="421"/>
   <tile gid="482"/>
   <tile gid="482"/>
   <tile gid="482"/>
   <tile gid="321"/>
   <tile gid="298"/>
   <tile gid="279"/>
   <tile gid="279"/>
   <tile gid="279"/>
   <tile gid="279"/>
   <tile gid="279"/>
   <tile gid="481"/>
   <tile gid="482"/>
   <tile gid="482"/>
   <tile gid="482"/>
   <tile gid="482"/>
   <tile gid="290"/>
   <tile gid="417"/>
   <tile gid="421"/>
   <tile gid="418"/>
   <tile gid="418"/>
   <tile gid="500"/>
   <tile gid="482"/>
   <tile gid="482"/>
   <tile gid="421"/>
   <tile gid="421"/>
   <tile gid="30"/>
   <tile gid="31"/>
   <tile gid="423"/>
   <tile gid="421"/>
   <tile gid="482"/>
   <tile gid="482"/>
   <tile gid="321"/>
   <tile gid="322"/>
   <tile gid="311"/>
   <tile gid="32"/>
   <tile gid="311"/>
   <tile gid="311"/>
   <tile gid="311"/>
   <tile gid="481"/>
   <tile gid="482"/>
   <tile gid="482"/>
   <tile gid="482"/>
   <tile gid="482"/>
   <tile gid="290"/>
   <tile gid="417"/>
   <tile gid="421"/>
   <tile gid="418"/>
   <tile gid="418"/>
   <tile gid="628"/>
   <tile gid="482"/>
   <tile gid="482"/>
   <tile gid="421"/>
   <tile gid="424"/>
   <tile gid="62"/>
   <tile gid="63"/>
   <tile gid="420"/>
   <tile gid="421"/>
   <tile gid="482"/>
   <tile gid="482"/>
   <tile gid="321"/>
   <tile gid="322"/>
   <tile gid="484"/>
   <tile gid="485"/>
   <tile gid="485"/>
   <tile gid="485"/>
   <tile gid="485"/>
   <tile gid="482"/>
   <tile gid="13"/>
   <tile gid="481"/>
   <tile gid="482"/>
   <tile gid="482"/>
   <tile gid="290"/>
   <tile gid="13"/>
   <tile gid="417"/>
   <tile gid="418"/>
   <tile gid="418"/>
   <tile gid="628"/>
   <tile gid="482"/>
   <tile gid="482"/>
   <tile gid="424"/>
   <tile gid="421"/>
   <tile gid="94"/>
   <tile gid="95"/>
   <tile gid="420"/>
   <tile gid="421"/>
   <tile gid="482"/>
   <tile gid="482"/>
   <tile gid="321"/>
   <tile gid="322"/>
   <tile gid="481"/>
   <tile gid="482"/>
   <tile gid="13"/>
   <tile gid="481"/>
   <tile gid="482"/>
   <tile gid="482"/>
   <tile gid="45"/>
   <tile gid="487"/>
   <tile gid="482"/>
   <tile gid="482"/>
   <tile gid="290"/>
   <tile gid="465"/>
   <tile gid="451"/>
   <tile gid="418"/>
   <tile gid="418"/>
   <tile gid="290"/>
   <tile gid="481"/>
   <tile gid="482"/>
   <tile gid="482"/>
   <tile gid="421"/>
   <tile gid="425"/>
   <tile gid="422"/>
   <tile gid="421"/>
   <tile gid="482"/>
   <tile gid="482"/>
   <tile gid="482"/>
   <tile gid="321"/>
   <tile gid="322"/>
   <tile gid="481"/>
   <tile gid="482"/>
   <tile gid="45"/>
   <tile gid="487"/>
   <tile gid="482"/>
   <tile gid="482"/>
   <tile gid="482"/>
   <tile gid="482"/>
   <tile gid="482"/>
   <tile gid="482"/>
   <tile gid="290"/>
   <tile gid="417"/>
   <tile gid="418"/>
   <tile gid="418"/>
   <tile gid="418"/>
   <tile gid="290"/>
   <tile gid="481"/>
   <tile gid="482"/>
   <tile gid="482"/>
   <tile gid="482"/>
   <tile gid="421"/>
   <tile gid="421"/>
   <tile gid="13"/>
   <tile gid="481"/>
   <tile gid="482"/>
   <tile gid="482"/>
   <tile gid="385"/>
   <tile gid="386"/>
   <tile gid="481"/>
   <tile gid="482"/>
   <tile gid="482"/>
   <tile gid="482"/>
   <tile gid="482"/>
   <tile gid="241"/>
   <tile gid="293"/>
   <tile gid="293"/>
   <tile gid="293"/>
   <tile gid="293"/>
   <tile gid="386"/>
   <tile gid="417"/>
   <tile gid="418"/>
   <tile gid="418"/>
   <tile gid="418"/>
   <tile gid="290"/>
   <tile gid="481"/>
   <tile gid="482"/>
   <tile gid="482"/>
   <tile gid="482"/>
   <tile gid="482"/>
   <tile gid="482"/>
   <tile gid="45"/>
   <tile gid="487"/>
   <tile gid="482"/>
   <tile gid="482"/>
   <tile gid="311"/>
   <tile gid="311"/>
   <tile gid="481"/>
   <tile gid="482"/>
   <tile gid="482"/>
   <tile gid="482"/>
   <tile gid="241"/>
   <tile gid="500"/>
   <tile gid="453"/>
   <tile gid="422"/>
   <tile gid="422"/>
   <tile gid="419"/>
   <tile gid="419"/>
   <tile gid="421"/>
   <tile gid="418"/>
   <tile gid="13"/>
   <tile gid="417"/>
   <tile gid="290"/>
   <tile gid="481"/>
   <tile gid="482"/>
   <tile gid="482"/>
   <tile gid="482"/>
   <tile gid="482"/>
   <tile gid="482"/>
   <tile gid="482"/>
   <tile gid="482"/>
   <tile gid="482"/>
   <tile gid="482"/>
   <tile gid="482"/>
   <tile gid="482"/>
   <tile gid="482"/>
   <tile gid="482"/>
   <tile gid="482"/>
   <tile gid="482"/>
   <tile gid="596"/>
   <tile gid="628"/>
   <tile gid="417"/>
   <tile gid="418"/>
   <tile gid="418"/>
   <tile gid="418"/>
   <tile gid="418"/>
   <tile gid="421"/>
   <tile gid="421"/>
   <tile gid="464"/>
   <tile gid="454"/>
   <tile gid="290"/>
   <tile gid="481"/>
   <tile gid="482"/>
   <tile gid="13"/>
   <tile gid="481"/>
   <tile gid="482"/>
   <tile gid="482"/>
   <tile gid="482"/>
   <tile gid="482"/>
   <tile gid="482"/>
   <tile gid="482"/>
   <tile gid="482"/>
   <tile gid="482"/>
   <tile gid="482"/>
   <tile gid="482"/>
   <tile gid="482"/>
   <tile gid="482"/>
   <tile gid="628"/>
   <tile gid="628"/>
   <tile gid="417"/>
   <tile gid="418"/>
   <tile gid="418"/>
   <tile gid="418"/>
   <tile gid="418"/>
   <tile gid="418"/>
   <tile gid="418"/>
   <tile gid="418"/>
   <tile gid="418"/>
   <tile gid="290"/>
   <tile gid="481"/>
   <tile gid="482"/>
   <tile gid="45"/>
   <tile gid="487"/>
   <tile gid="482"/>
   <tile gid="482"/>
   <tile gid="482"/>
   <tile gid="482"/>
   <tile gid="482"/>
   <tile gid="13"/>
   <tile gid="481"/>
   <tile gid="482"/>
   <tile gid="482"/>
   <tile gid="482"/>
   <tile gid="482"/>
   <tile gid="482"/>
   <tile gid="628"/>
   <tile gid="628"/>
   <tile gid="417"/>
   <tile gid="421"/>
   <tile gid="421"/>
   <tile gid="13"/>
   <tile gid="417"/>
   <tile gid="418"/>
   <tile gid="418"/>
   <tile gid="418"/>
   <tile gid="418"/>
   <tile gid="290"/>
   <tile gid="103"/>
   <tile gid="481"/>
   <tile gid="482"/>
   <tile gid="482"/>
   <tile gid="482"/>
   <tile gid="482"/>
   <tile gid="482"/>
   <tile gid="482"/>
   <tile gid="482"/>
   <tile gid="45"/>
   <tile gid="487"/>
   <tile gid="482"/>
   <tile gid="482"/>
   <tile gid="482"/>
   <tile gid="482"/>
   <tile gid="482"/>
   <tile gid="628"/>
   <tile gid="628"/>
   <tile gid="417"/>
   <tile gid="421"/>
   <tile gid="418"/>
   <tile gid="464"/>
   <tile gid="451"/>
   <tile gid="418"/>
   <tile gid="418"/>
   <tile gid="421"/>
   <tile gid="418"/>
   <tile gid="258"/>
   <tile gid="258"/>
   <tile gid="298"/>
   <tile gid="259"/>
   <tile gid="259"/>
   <tile gid="271"/>
   <tile gid="259"/>
   <tile gid="259"/>
   <tile gid="354"/>
   <tile gid="481"/>
   <tile gid="482"/>
   <tile gid="482"/>
   <tile gid="482"/>
   <tile gid="482"/>
   <tile gid="482"/>
   <tile gid="482"/>
   <tile gid="482"/>
   <tile gid="628"/>
   <tile gid="7"/>
   <tile gid="257"/>
   <tile gid="257"/>
   <tile gid="257"/>
   <tile gid="257"/>
   <tile gid="257"/>
   <tile gid="257"/>
   <tile gid="257"/>
   <tile gid="257"/>
   <tile gid="257"/>
   <tile gid="257"/>
   <tile gid="257"/>
   <tile gid="290"/>
   <tile gid="184"/>
   <tile gid="534"/>
   <tile gid="167"/>
   <tile gid="534"/>
   <tile gid="184"/>
   <tile gid="292"/>
   <tile gid="481"/>
   <tile gid="482"/>
   <tile gid="482"/>
   <tile gid="482"/>
   <tile gid="482"/>
   <tile gid="482"/>
   <tile gid="482"/>
   <tile gid="482"/>
   <tile gid="7"/>
   <tile gid="257"/>
   <tile gid="257"/>
   <tile gid="257"/>
   <tile gid="257"/>
   <tile gid="257"/>
   <tile gid="257"/>
   <tile gid="257"/>
   <tile gid="257"/>
   <tile gid="257"/>
   <tile gid="257"/>
   <tile gid="257"/>
   <tile gid="257"/>
   <tile gid="290"/>
   <tile gid="513"/>
   <tile gid="644"/>
   <tile gid="643"/>
   <tile gid="580"/>
   <tile gid="643"/>
   <tile gid="292"/>
   <tile gid="481"/>
   <tile gid="482"/>
   <tile gid="482"/>
   <tile gid="482"/>
   <tile gid="482"/>
   <tile gid="482"/>
   <tile gid="482"/>
   <tile gid="482"/>
   <tile gid="289"/>
   <tile gid="257"/>
   <tile gid="257"/>
   <tile gid="257"/>
   <tile gid="257"/>
   <tile gid="257"/>
   <tile gid="257"/>
   <tile gid="257"/>
   <tile gid="257"/>
   <tile gid="257"/>
   <tile gid="257"/>
   <tile gid="257"/>
   <tile gid="257"/>
   <tile gid="290"/>
   <tile gid="674"/>
   <tile gid="547"/>
   <tile gid="579"/>
   <tile gid="579"/>
   <tile gid="580"/>
   <tile gid="292"/>
   <tile gid="481"/>
   <tile gid="482"/>
   <tile gid="482"/>
   <tile gid="482"/>
   <tile gid="482"/>
   <tile gid="482"/>
   <tile gid="482"/>
   <tile gid="482"/>
   <tile gid="289"/>
   <tile gid="257"/>
   <tile gid="257"/>
   <tile gid="257"/>
   <tile gid="257"/>
   <tile gid="257"/>
   <tile gid="257"/>
   <tile gid="257"/>
   <tile gid="257"/>
   <tile gid="257"/>
   <tile gid="257"/>
   <tile gid="257"/>
   <tile gid="257"/>
   <tile gid="290"/>
   <tile gid="673"/>
   <tile gid="34"/>
   <tile gid="517"/>
   <tile gid="34"/>
   <tile gid="548"/>
   <tile gid="292"/>
   <tile gid="481"/>
   <tile gid="482"/>
   <tile gid="482"/>
   <tile gid="482"/>
   <tile gid="482"/>
   <tile gid="482"/>
   <tile gid="482"/>
   <tile gid="482"/>
   <tile gid="289"/>
   <tile gid="257"/>
   <tile gid="257"/>
   <tile gid="257"/>
   <tile gid="257"/>
   <tile gid="257"/>
   <tile gid="257"/>
   <tile gid="257"/>
   <tile gid="257"/>
   <tile gid="257"/>
   <tile gid="257"/>
  </data>
 </layer>
 <layer id="2" name="Map Change 0" width="28" height="31">
  <properties>
   <property name="Height" value="1"/>
   <property name="ID" value="0"/>
   <property name="Width" value="1"/>
   <property name="X" value="5"/>
   <property name="Y" value="26"/>
  </properties>
  <data>
   <tile/>
   <tile/>
   <tile/>
   <tile/>
   <tile/>
   <tile/>
   <tile/>
   <tile/>
   <tile/>
   <tile/>
   <tile/>
   <tile/>
   <tile/>
   <tile/>
   <tile/>
   <tile/>
   <tile/>
   <tile/>
   <tile/>
   <tile/>
   <tile/>
   <tile/>
   <tile/>
   <tile/>
   <tile/>
   <tile/>
   <tile/>
   <tile/>
   <tile/>
   <tile/>
   <tile/>
   <tile/>
   <tile/>
   <tile/>
   <tile/>
   <tile/>
   <tile/>
   <tile/>
   <tile/>
   <tile/>
   <tile/>
   <tile/>
   <tile/>
   <tile/>
   <tile/>
   <tile/>
   <tile/>
   <tile/>
   <tile/>
   <tile/>
   <tile/>
   <tile/>
   <tile/>
   <tile/>
   <tile/>
   <tile/>
   <tile/>
   <tile/>
   <tile/>
   <tile/>
   <tile/>
   <tile/>
   <tile/>
   <tile/>
   <tile/>
   <tile/>
   <tile/>
   <tile/>
   <tile/>
   <tile/>
   <tile/>
   <tile/>
   <tile/>
   <tile/>
   <tile/>
   <tile/>
   <tile/>
   <tile/>
   <tile/>
   <tile/>
   <tile/>
   <tile/>
   <tile/>
   <tile/>
   <tile/>
   <tile/>
   <tile/>
   <tile/>
   <tile/>
   <tile/>
   <tile/>
   <tile/>
   <tile/>
   <tile/>
   <tile/>
   <tile/>
   <tile/>
   <tile/>
   <tile/>
   <tile/>
   <tile/>
   <tile/>
   <tile/>
   <tile/>
   <tile/>
   <tile/>
   <tile/>
   <tile/>
   <tile/>
   <tile/>
   <tile/>
   <tile/>
   <tile/>
   <tile/>
   <tile/>
   <tile/>
   <tile/>
   <tile/>
   <tile/>
   <tile/>
   <tile/>
   <tile/>
   <tile/>
   <tile/>
   <tile/>
   <tile/>
   <tile/>
   <tile/>
   <tile/>
   <tile/>
   <tile/>
   <tile/>
   <tile/>
   <tile/>
   <tile/>
   <tile/>
   <tile/>
   <tile/>
   <tile/>
   <tile/>
   <tile/>
   <tile/>
   <tile/>
   <tile/>
   <tile/>
   <tile/>
   <tile/>
   <tile/>
   <tile/>
   <tile/>
   <tile/>
   <tile/>
   <tile/>
   <tile/>
   <tile/>
   <tile/>
   <tile/>
   <tile/>
   <tile/>
   <tile/>
   <tile/>
   <tile/>
   <tile/>
   <tile/>
   <tile/>
   <tile/>
   <tile/>
   <tile/>
   <tile/>
   <tile/>
   <tile/>
   <tile/>
   <tile/>
   <tile/>
   <tile/>
   <tile/>
   <tile/>
   <tile/>
   <tile/>
   <tile/>
   <tile/>
   <tile/>
   <tile/>
   <tile/>
   <tile/>
   <tile/>
   <tile/>
   <tile/>
   <tile/>
   <tile/>
   <tile/>
   <tile/>
   <tile/>
   <tile/>
   <tile/>
   <tile/>
   <tile/>
   <tile/>
   <tile/>
   <tile/>
   <tile/>
   <tile/>
   <tile/>
   <tile/>
   <tile/>
   <tile/>
   <tile/>
   <tile/>
   <tile/>
   <tile/>
   <tile/>
   <tile/>
   <tile/>
   <tile/>
   <tile/>
   <tile/>
   <tile/>
   <tile/>
   <tile/>
   <tile/>
   <tile/>
   <tile/>
   <tile/>
   <tile/>
   <tile/>
   <tile/>
   <tile/>
   <tile/>
   <tile/>
   <tile/>
   <tile/>
   <tile/>
   <tile/>
   <tile/>
   <tile/>
   <tile/>
   <tile/>
   <tile/>
   <tile/>
   <tile/>
   <tile/>
   <tile/>
   <tile/>
   <tile/>
   <tile/>
   <tile/>
   <tile/>
   <tile/>
   <tile/>
   <tile/>
   <tile/>
   <tile/>
   <tile/>
   <tile/>
   <tile/>
   <tile/>
   <tile/>
   <tile/>
   <tile/>
   <tile/>
   <tile/>
   <tile/>
   <tile/>
   <tile/>
   <tile/>
   <tile/>
   <tile/>
   <tile/>
   <tile/>
   <tile/>
   <tile/>
   <tile/>
   <tile/>
   <tile/>
   <tile/>
   <tile/>
   <tile/>
   <tile/>
   <tile/>
   <tile/>
   <tile/>
   <tile/>
   <tile/>
   <tile/>
   <tile/>
   <tile/>
   <tile/>
   <tile/>
   <tile/>
   <tile/>
   <tile/>
   <tile/>
   <tile/>
   <tile/>
   <tile/>
   <tile/>
   <tile/>
   <tile/>
   <tile/>
   <tile/>
   <tile/>
   <tile/>
   <tile/>
   <tile/>
   <tile/>
   <tile/>
   <tile/>
   <tile/>
   <tile/>
   <tile/>
   <tile/>
   <tile/>
   <tile/>
   <tile/>
   <tile/>
   <tile/>
   <tile/>
   <tile/>
   <tile/>
   <tile/>
   <tile/>
   <tile/>
   <tile/>
   <tile/>
   <tile/>
   <tile/>
   <tile/>
   <tile/>
   <tile/>
   <tile/>
   <tile/>
   <tile/>
   <tile/>
   <tile/>
   <tile/>
   <tile/>
   <tile/>
   <tile/>
   <tile/>
   <tile/>
   <tile/>
   <tile/>
   <tile/>
   <tile/>
   <tile/>
   <tile/>
   <tile/>
   <tile/>
   <tile/>
   <tile/>
   <tile/>
   <tile/>
   <tile/>
   <tile/>
   <tile/>
   <tile/>
   <tile/>
   <tile/>
   <tile/>
   <tile/>
   <tile/>
   <tile/>
   <tile/>
   <tile/>
   <tile/>
   <tile/>
   <tile/>
   <tile/>
   <tile/>
   <tile/>
   <tile/>
   <tile/>
   <tile/>
   <tile/>
   <tile/>
   <tile/>
   <tile/>
   <tile/>
   <tile/>
   <tile/>
   <tile/>
   <tile/>
   <tile/>
   <tile/>
   <tile/>
   <tile/>
   <tile/>
   <tile/>
   <tile/>
   <tile/>
   <tile/>
   <tile/>
   <tile/>
   <tile/>
   <tile/>
   <tile/>
   <tile/>
   <tile/>
   <tile/>
   <tile/>
   <tile/>
   <tile/>
   <tile/>
   <tile/>
   <tile/>
   <tile/>
   <tile/>
   <tile/>
   <tile/>
   <tile/>
   <tile/>
   <tile/>
   <tile/>
   <tile/>
   <tile/>
   <tile/>
   <tile/>
   <tile/>
   <tile/>
   <tile/>
   <tile/>
   <tile/>
   <tile/>
   <tile/>
   <tile/>
   <tile/>
   <tile/>
   <tile/>
   <tile/>
   <tile/>
   <tile/>
   <tile/>
   <tile/>
   <tile/>
   <tile/>
   <tile/>
   <tile/>
   <tile/>
   <tile/>
   <tile/>
   <tile/>
   <tile/>
   <tile/>
   <tile/>
   <tile/>
   <tile/>
   <tile/>
   <tile/>
   <tile/>
   <tile/>
   <tile/>
   <tile/>
   <tile/>
   <tile/>
   <tile/>
   <tile/>
   <tile/>
   <tile/>
   <tile/>
   <tile/>
   <tile/>
   <tile/>
   <tile/>
   <tile/>
   <tile/>
   <tile/>
   <tile/>
   <tile/>
   <tile/>
   <tile/>
   <tile/>
   <tile/>
   <tile/>
   <tile/>
   <tile/>
   <tile/>
   <tile/>
   <tile/>
   <tile/>
   <tile/>
   <tile/>
   <tile/>
   <tile/>
   <tile/>
   <tile/>
   <tile/>
   <tile/>
   <tile/>
   <tile/>
   <tile/>
   <tile/>
   <tile/>
   <tile/>
   <tile/>
   <tile/>
   <tile/>
   <tile/>
   <tile/>
   <tile/>
   <tile/>
   <tile/>
   <tile/>
   <tile/>
   <tile/>
   <tile/>
   <tile/>
   <tile/>
   <tile/>
   <tile/>
   <tile/>
   <tile/>
   <tile/>
   <tile/>
   <tile/>
   <tile/>
   <tile/>
   <tile/>
   <tile/>
   <tile/>
   <tile/>
   <tile/>
   <tile/>
   <tile/>
   <tile/>
   <tile/>
   <tile/>
   <tile/>
   <tile/>
   <tile/>
   <tile/>
   <tile/>
   <tile/>
   <tile/>
   <tile/>
   <tile/>
   <tile/>
   <tile/>
   <tile/>
   <tile/>
   <tile/>
   <tile/>
   <tile/>
   <tile/>
   <tile/>
   <tile/>
   <tile/>
   <tile/>
   <tile/>
   <tile/>
   <tile/>
   <tile/>
   <tile/>
   <tile/>
   <tile/>
   <tile/>
   <tile/>
   <tile/>
   <tile/>
   <tile/>
   <tile/>
   <tile/>
   <tile/>
   <tile/>
   <tile/>
   <tile/>
   <tile/>
   <tile/>
   <tile/>
   <tile/>
   <tile/>
   <tile/>
   <tile/>
   <tile/>
   <tile/>
   <tile/>
   <tile/>
   <tile/>
   <tile/>
   <tile/>
   <tile/>
   <tile/>
   <tile/>
   <tile/>
   <tile/>
   <tile/>
   <tile/>
   <tile/>
   <tile/>
   <tile/>
   <tile/>
   <tile/>
   <tile/>
   <tile/>
   <tile/>
   <tile/>
   <tile/>
   <tile/>
   <tile/>
   <tile/>
   <tile/>
   <tile/>
   <tile/>
   <tile/>
   <tile/>
   <tile/>
   <tile/>
   <tile/>
   <tile/>
   <tile/>
   <tile/>
   <tile/>
   <tile/>
   <tile/>
   <tile/>
   <tile/>
   <tile/>
   <tile/>
   <tile/>
   <tile/>
   <tile/>
   <tile/>
   <tile/>
   <tile/>
   <tile/>
   <tile/>
   <tile/>
   <tile/>
   <tile/>
   <tile/>
   <tile/>
   <tile/>
   <tile/>
   <tile/>
   <tile/>
   <tile/>
   <tile/>
   <tile/>
   <tile/>
   <tile/>
   <tile/>
   <tile/>
   <tile/>
   <tile/>
   <tile/>
   <tile/>
   <tile/>
   <tile/>
   <tile/>
   <tile/>
   <tile/>
   <tile/>
   <tile/>
   <tile/>
   <tile/>
   <tile/>
   <tile/>
   <tile/>
   <tile/>
   <tile/>
   <tile/>
   <tile/>
   <tile/>
   <tile/>
   <tile/>
   <tile/>
   <tile/>
   <tile/>
   <tile/>
   <tile/>
   <tile/>
   <tile/>
   <tile/>
   <tile/>
   <tile/>
   <tile/>
   <tile/>
   <tile/>
   <tile/>
   <tile/>
   <tile/>
   <tile/>
   <tile/>
   <tile/>
   <tile/>
   <tile/>
   <tile/>
   <tile/>
   <tile/>
   <tile/>
   <tile/>
   <tile/>
   <tile/>
   <tile/>
   <tile/>
   <tile/>
   <tile/>
   <tile/>
   <tile/>
   <tile/>
   <tile/>
   <tile/>
   <tile/>
   <tile/>
   <tile/>
   <tile/>
   <tile/>
   <tile/>
   <tile/>
   <tile/>
   <tile/>
   <tile/>
   <tile/>
   <tile/>
   <tile/>
   <tile/>
   <tile/>
   <tile/>
   <tile/>
   <tile/>
   <tile/>
   <tile/>
   <tile/>
   <tile/>
   <tile/>
   <tile/>
   <tile/>
   <tile/>
   <tile/>
   <tile/>
   <tile/>
   <tile/>
   <tile/>
   <tile/>
   <tile gid="481"/>
   <tile/>
   <tile/>
   <tile/>
   <tile/>
   <tile/>
   <tile/>
   <tile/>
   <tile/>
   <tile/>
   <tile/>
   <tile/>
   <tile/>
   <tile/>
   <tile/>
   <tile/>
   <tile/>
   <tile/>
   <tile/>
   <tile/>
   <tile/>
   <tile/>
   <tile/>
   <tile/>
   <tile/>
   <tile/>
   <tile/>
   <tile/>
   <tile/>
   <tile/>
   <tile/>
   <tile/>
   <tile/>
   <tile/>
   <tile/>
   <tile/>
   <tile/>
   <tile/>
   <tile/>
   <tile/>
   <tile/>
   <tile/>
   <tile/>
   <tile/>
   <tile/>
   <tile/>
   <tile/>
   <tile/>
   <tile/>
   <tile/>
   <tile/>
   <tile/>
   <tile/>
   <tile/>
   <tile/>
   <tile/>
   <tile/>
   <tile/>
   <tile/>
   <tile/>
   <tile/>
   <tile/>
   <tile/>
   <tile/>
   <tile/>
   <tile/>
   <tile/>
   <tile/>
   <tile/>
   <tile/>
   <tile/>
   <tile/>
   <tile/>
   <tile/>
   <tile/>
   <tile/>
   <tile/>
   <tile/>
   <tile/>
   <tile/>
   <tile/>
   <tile/>
   <tile/>
   <tile/>
   <tile/>
   <tile/>
   <tile/>
   <tile/>
   <tile/>
   <tile/>
   <tile/>
   <tile/>
   <tile/>
   <tile/>
   <tile/>
   <tile/>
   <tile/>
   <tile/>
   <tile/>
   <tile/>
   <tile/>
   <tile/>
   <tile/>
   <tile/>
   <tile/>
   <tile/>
   <tile/>
   <tile/>
   <tile/>
   <tile/>
   <tile/>
   <tile/>
   <tile/>
   <tile/>
   <tile/>
   <tile/>
   <tile/>
   <tile/>
   <tile/>
   <tile/>
   <tile/>
   <tile/>
   <tile/>
   <tile/>
   <tile/>
   <tile/>
   <tile/>
   <tile/>
   <tile/>
   <tile/>
   <tile/>
   <tile/>
   <tile/>
   <tile/>
   <tile/>
  </data>
 </layer>
 <layer id="3" name="Map Change 1" width="28" height="31">
  <properties>
   <property name="Height" value="1"/>
   <property name="ID" value="1"/>
   <property name="Width" value="1"/>
   <property name="X" value="4"/>
   <property name="Y" value="30"/>
  </properties>
  <data>
   <tile/>
   <tile/>
   <tile/>
   <tile/>
   <tile/>
   <tile/>
   <tile/>
   <tile/>
   <tile/>
   <tile/>
   <tile/>
   <tile/>
   <tile/>
   <tile/>
   <tile/>
   <tile/>
   <tile/>
   <tile/>
   <tile/>
   <tile/>
   <tile/>
   <tile/>
   <tile/>
   <tile/>
   <tile/>
   <tile/>
   <tile/>
   <tile/>
   <tile/>
   <tile/>
   <tile/>
   <tile/>
   <tile/>
   <tile/>
   <tile/>
   <tile/>
   <tile/>
   <tile/>
   <tile/>
   <tile/>
   <tile/>
   <tile/>
   <tile/>
   <tile/>
   <tile/>
   <tile/>
   <tile/>
   <tile/>
   <tile/>
   <tile/>
   <tile/>
   <tile/>
   <tile/>
   <tile/>
   <tile/>
   <tile/>
   <tile/>
   <tile/>
   <tile/>
   <tile/>
   <tile/>
   <tile/>
   <tile/>
   <tile/>
   <tile/>
   <tile/>
   <tile/>
   <tile/>
   <tile/>
   <tile/>
   <tile/>
   <tile/>
   <tile/>
   <tile/>
   <tile/>
   <tile/>
   <tile/>
   <tile/>
   <tile/>
   <tile/>
   <tile/>
   <tile/>
   <tile/>
   <tile/>
   <tile/>
   <tile/>
   <tile/>
   <tile/>
   <tile/>
   <tile/>
   <tile/>
   <tile/>
   <tile/>
   <tile/>
   <tile/>
   <tile/>
   <tile/>
   <tile/>
   <tile/>
   <tile/>
   <tile/>
   <tile/>
   <tile/>
   <tile/>
   <tile/>
   <tile/>
   <tile/>
   <tile/>
   <tile/>
   <tile/>
   <tile/>
   <tile/>
   <tile/>
   <tile/>
   <tile/>
   <tile/>
   <tile/>
   <tile/>
   <tile/>
   <tile/>
   <tile/>
   <tile/>
   <tile/>
   <tile/>
   <tile/>
   <tile/>
   <tile/>
   <tile/>
   <tile/>
   <tile/>
   <tile/>
   <tile/>
   <tile/>
   <tile/>
   <tile/>
   <tile/>
   <tile/>
   <tile/>
   <tile/>
   <tile/>
   <tile/>
   <tile/>
   <tile/>
   <tile/>
   <tile/>
   <tile/>
   <tile/>
   <tile/>
   <tile/>
   <tile/>
   <tile/>
   <tile/>
   <tile/>
   <tile/>
   <tile/>
   <tile/>
   <tile/>
   <tile/>
   <tile/>
   <tile/>
   <tile/>
   <tile/>
   <tile/>
   <tile/>
   <tile/>
   <tile/>
   <tile/>
   <tile/>
   <tile/>
   <tile/>
   <tile/>
   <tile/>
   <tile/>
   <tile/>
   <tile/>
   <tile/>
   <tile/>
   <tile/>
   <tile/>
   <tile/>
   <tile/>
   <tile/>
   <tile/>
   <tile/>
   <tile/>
   <tile/>
   <tile/>
   <tile/>
   <tile/>
   <tile/>
   <tile/>
   <tile/>
   <tile/>
   <tile/>
   <tile/>
   <tile/>
   <tile/>
   <tile/>
   <tile/>
   <tile/>
   <tile/>
   <tile/>
   <tile/>
   <tile/>
   <tile/>
   <tile/>
   <tile/>
   <tile/>
   <tile/>
   <tile/>
   <tile/>
   <tile/>
   <tile/>
   <tile/>
   <tile/>
   <tile/>
   <tile/>
   <tile/>
   <tile/>
   <tile/>
   <tile/>
   <tile/>
   <tile/>
   <tile/>
   <tile/>
   <tile/>
   <tile/>
   <tile/>
   <tile/>
   <tile/>
   <tile/>
   <tile/>
   <tile/>
   <tile/>
   <tile/>
   <tile/>
   <tile/>
   <tile/>
   <tile/>
   <tile/>
   <tile/>
   <tile/>
   <tile/>
   <tile/>
   <tile/>
   <tile/>
   <tile/>
   <tile/>
   <tile/>
   <tile/>
   <tile/>
   <tile/>
   <tile/>
   <tile/>
   <tile/>
   <tile/>
   <tile/>
   <tile/>
   <tile/>
   <tile/>
   <tile/>
   <tile/>
   <tile/>
   <tile/>
   <tile/>
   <tile/>
   <tile/>
   <tile/>
   <tile/>
   <tile/>
   <tile/>
   <tile/>
   <tile/>
   <tile/>
   <tile/>
   <tile/>
   <tile/>
   <tile/>
   <tile/>
   <tile/>
   <tile/>
   <tile/>
   <tile/>
   <tile/>
   <tile/>
   <tile/>
   <tile/>
   <tile/>
   <tile/>
   <tile/>
   <tile/>
   <tile/>
   <tile/>
   <tile/>
   <tile/>
   <tile/>
   <tile/>
   <tile/>
   <tile/>
   <tile/>
   <tile/>
   <tile/>
   <tile/>
   <tile/>
   <tile/>
   <tile/>
   <tile/>
   <tile/>
   <tile/>
   <tile/>
   <tile/>
   <tile/>
   <tile/>
   <tile/>
   <tile/>
   <tile/>
   <tile/>
   <tile/>
   <tile/>
   <tile/>
   <tile/>
   <tile/>
   <tile/>
   <tile/>
   <tile/>
   <tile/>
   <tile/>
   <tile/>
   <tile/>
   <tile/>
   <tile/>
   <tile/>
   <tile/>
   <tile/>
   <tile/>
   <tile/>
   <tile/>
   <tile/>
   <tile/>
   <tile/>
   <tile/>
   <tile/>
   <tile/>
   <tile/>
   <tile/>
   <tile/>
   <tile/>
   <tile/>
   <tile/>
   <tile/>
   <tile/>
   <tile/>
   <tile/>
   <tile/>
   <tile/>
   <tile/>
   <tile/>
   <tile/>
   <tile/>
   <tile/>
   <tile/>
   <tile/>
   <tile/>
   <tile/>
   <tile/>
   <tile/>
   <tile/>
   <tile/>
   <tile/>
   <tile/>
   <tile/>
   <tile/>
   <tile/>
   <tile/>
   <tile/>
   <tile/>
   <tile/>
   <tile/>
   <tile/>
   <tile/>
   <tile/>
   <tile/>
   <tile/>
   <tile/>
   <tile/>
   <tile/>
   <tile/>
   <tile/>
   <tile/>
   <tile/>
   <tile/>
   <tile/>
   <tile/>
   <tile/>
   <tile/>
   <tile/>
   <tile/>
   <tile/>
   <tile/>
   <tile/>
   <tile/>
   <tile/>
   <tile/>
   <tile/>
   <tile/>
   <tile/>
   <tile/>
   <tile/>
   <tile/>
   <tile/>
   <tile/>
   <tile/>
   <tile/>
   <tile/>
   <tile/>
   <tile/>
   <tile/>
   <tile/>
   <tile/>
   <tile/>
   <tile/>
   <tile/>
   <tile/>
   <tile/>
   <tile/>
   <tile/>
   <tile/>
   <tile/>
   <tile/>
   <tile/>
   <tile/>
   <tile/>
   <tile/>
   <tile/>
   <tile/>
   <tile/>
   <tile/>
   <tile/>
   <tile/>
   <tile/>
   <tile/>
   <tile/>
   <tile/>
   <tile/>
   <tile/>
   <tile/>
   <tile/>
   <tile/>
   <tile/>
   <tile/>
   <tile/>
   <tile/>
   <tile/>
   <tile/>
   <tile/>
   <tile/>
   <tile/>
   <tile/>
   <tile/>
   <tile/>
   <tile/>
   <tile/>
   <tile/>
   <tile/>
   <tile/>
   <tile/>
   <tile/>
   <tile/>
   <tile/>
   <tile/>
   <tile/>
   <tile/>
   <tile/>
   <tile/>
   <tile/>
   <tile/>
   <tile/>
   <tile/>
   <tile/>
   <tile/>
   <tile/>
   <tile/>
   <tile/>
   <tile/>
   <tile/>
   <tile/>
   <tile/>
   <tile/>
   <tile/>
   <tile/>
   <tile/>
   <tile/>
   <tile/>
   <tile/>
   <tile/>
   <tile/>
   <tile/>
   <tile/>
   <tile/>
   <tile/>
   <tile/>
   <tile/>
   <tile/>
   <tile/>
   <tile/>
   <tile/>
   <tile/>
   <tile/>
   <tile/>
   <tile/>
   <tile/>
   <tile/>
   <tile/>
   <tile/>
   <tile/>
   <tile/>
   <tile/>
   <tile/>
   <tile/>
   <tile/>
   <tile/>
   <tile/>
   <tile/>
   <tile/>
   <tile/>
   <tile/>
   <tile/>
   <tile/>
   <tile/>
   <tile/>
   <tile/>
   <tile/>
   <tile/>
   <tile/>
   <tile/>
   <tile/>
   <tile/>
   <tile/>
   <tile/>
   <tile/>
   <tile/>
   <tile/>
   <tile/>
   <tile/>
   <tile/>
   <tile/>
   <tile/>
   <tile/>
   <tile/>
   <tile/>
   <tile/>
   <tile/>
   <tile/>
   <tile/>
   <tile/>
   <tile/>
   <tile/>
   <tile/>
   <tile/>
   <tile/>
   <tile/>
   <tile/>
   <tile/>
   <tile/>
   <tile/>
   <tile/>
   <tile/>
   <tile/>
   <tile/>
   <tile/>
   <tile/>
   <tile/>
   <tile/>
   <tile/>
   <tile/>
   <tile/>
   <tile/>
   <tile/>
   <tile/>
   <tile/>
   <tile/>
   <tile/>
   <tile/>
   <tile/>
   <tile/>
   <tile/>
   <tile/>
   <tile/>
   <tile/>
   <tile/>
   <tile/>
   <tile/>
   <tile/>
   <tile/>
   <tile/>
   <tile/>
   <tile/>
   <tile/>
   <tile/>
   <tile/>
   <tile/>
   <tile/>
   <tile/>
   <tile/>
   <tile/>
   <tile/>
   <tile/>
   <tile/>
   <tile/>
   <tile/>
   <tile/>
   <tile/>
   <tile/>
   <tile/>
   <tile/>
   <tile/>
   <tile/>
   <tile/>
   <tile/>
   <tile/>
   <tile/>
   <tile/>
   <tile/>
   <tile/>
   <tile/>
   <tile/>
   <tile/>
   <tile/>
   <tile/>
   <tile/>
   <tile/>
   <tile/>
   <tile/>
   <tile/>
   <tile/>
   <tile/>
   <tile/>
   <tile/>
   <tile/>
   <tile/>
   <tile/>
   <tile/>
   <tile/>
   <tile/>
   <tile/>
   <tile/>
   <tile/>
   <tile/>
   <tile/>
   <tile/>
   <tile/>
   <tile/>
   <tile/>
   <tile/>
   <tile/>
   <tile/>
   <tile/>
   <tile/>
   <tile/>
   <tile/>
   <tile/>
   <tile/>
   <tile/>
   <tile/>
   <tile/>
   <tile/>
   <tile/>
   <tile/>
   <tile/>
   <tile/>
   <tile/>
   <tile/>
   <tile/>
   <tile/>
   <tile/>
   <tile/>
   <tile/>
   <tile/>
   <tile/>
   <tile/>
   <tile/>
   <tile/>
   <tile/>
   <tile/>
   <tile/>
   <tile/>
   <tile/>
   <tile/>
   <tile/>
   <tile/>
   <tile/>
   <tile/>
   <tile/>
   <tile/>
   <tile/>
   <tile/>
   <tile/>
   <tile/>
   <tile/>
   <tile/>
   <tile/>
   <tile/>
   <tile/>
   <tile/>
   <tile/>
   <tile/>
   <tile/>
   <tile/>
   <tile/>
   <tile/>
   <tile/>
   <tile/>
   <tile/>
   <tile/>
   <tile/>
   <tile/>
   <tile/>
   <tile/>
   <tile/>
   <tile/>
   <tile/>
   <tile/>
   <tile/>
   <tile/>
   <tile/>
   <tile/>
   <tile/>
   <tile/>
   <tile/>
   <tile/>
   <tile/>
   <tile/>
   <tile/>
   <tile/>
   <tile/>
   <tile/>
   <tile/>
   <tile/>
   <tile/>
   <tile/>
   <tile/>
   <tile/>
   <tile/>
   <tile/>
   <tile/>
   <tile/>
   <tile/>
   <tile/>
   <tile/>
   <tile/>
   <tile/>
   <tile/>
   <tile/>
   <tile/>
   <tile/>
   <tile/>
   <tile/>
   <tile/>
   <tile/>
   <tile/>
   <tile/>
   <tile/>
   <tile/>
   <tile/>
   <tile/>
   <tile/>
   <tile/>
   <tile/>
   <tile/>
   <tile/>
   <tile/>
   <tile/>
   <tile/>
   <tile/>
   <tile/>
   <tile/>
   <tile/>
   <tile/>
   <tile/>
   <tile/>
   <tile/>
   <tile/>
   <tile/>
   <tile/>
   <tile/>
   <tile/>
   <tile/>
   <tile/>
   <tile/>
   <tile/>
   <tile/>
   <tile/>
   <tile/>
   <tile/>
   <tile/>
   <tile/>
   <tile/>
   <tile/>
   <tile/>
   <tile/>
   <tile/>
   <tile/>
   <tile/>
   <tile/>
   <tile/>
   <tile/>
   <tile/>
   <tile/>
   <tile/>
   <tile/>
   <tile/>
   <tile/>
   <tile/>
   <tile/>
   <tile/>
   <tile/>
   <tile/>
   <tile/>
   <tile/>
   <tile/>
   <tile/>
   <tile/>
   <tile/>
   <tile/>
   <tile/>
   <tile/>
   <tile/>
   <tile/>
   <tile/>
   <tile/>
   <tile/>
   <tile/>
   <tile/>
   <tile/>
   <tile/>
   <tile/>
   <tile/>
   <tile/>
   <tile/>
   <tile/>
   <tile/>
   <tile/>
   <tile/>
   <tile/>
   <tile gid="2"/>
   <tile/>
   <tile/>
   <tile/>
   <tile/>
   <tile/>
   <tile/>
   <tile/>
   <tile/>
   <tile/>
   <tile/>
   <tile/>
   <tile/>
   <tile/>
   <tile/>
   <tile/>
   <tile/>
   <tile/>
   <tile/>
   <tile/>
   <tile/>
   <tile/>
   <tile/>
   <tile/>
  </data>
 </layer>
 <layer id="4" name="Map Change 2" width="28" height="31">
  <properties>
   <property name="Height" value="1"/>
   <property name="ID" value="2"/>
   <property name="Width" value="1"/>
   <property name="X" value="6"/>
   <property name="Y" value="30"/>
  </properties>
  <data>
   <tile/>
   <tile/>
   <tile/>
   <tile/>
   <tile/>
   <tile/>
   <tile/>
   <tile/>
   <tile/>
   <tile/>
   <tile/>
   <tile/>
   <tile/>
   <tile/>
   <tile/>
   <tile/>
   <tile/>
   <tile/>
   <tile/>
   <tile/>
   <tile/>
   <tile/>
   <tile/>
   <tile/>
   <tile/>
   <tile/>
   <tile/>
   <tile/>
   <tile/>
   <tile/>
   <tile/>
   <tile/>
   <tile/>
   <tile/>
   <tile/>
   <tile/>
   <tile/>
   <tile/>
   <tile/>
   <tile/>
   <tile/>
   <tile/>
   <tile/>
   <tile/>
   <tile/>
   <tile/>
   <tile/>
   <tile/>
   <tile/>
   <tile/>
   <tile/>
   <tile/>
   <tile/>
   <tile/>
   <tile/>
   <tile/>
   <tile/>
   <tile/>
   <tile/>
   <tile/>
   <tile/>
   <tile/>
   <tile/>
   <tile/>
   <tile/>
   <tile/>
   <tile/>
   <tile/>
   <tile/>
   <tile/>
   <tile/>
   <tile/>
   <tile/>
   <tile/>
   <tile/>
   <tile/>
   <tile/>
   <tile/>
   <tile/>
   <tile/>
   <tile/>
   <tile/>
   <tile/>
   <tile/>
   <tile/>
   <tile/>
   <tile/>
   <tile/>
   <tile/>
   <tile/>
   <tile/>
   <tile/>
   <tile/>
   <tile/>
   <tile/>
   <tile/>
   <tile/>
   <tile/>
   <tile/>
   <tile/>
   <tile/>
   <tile/>
   <tile/>
   <tile/>
   <tile/>
   <tile/>
   <tile/>
   <tile/>
   <tile/>
   <tile/>
   <tile/>
   <tile/>
   <tile/>
   <tile/>
   <tile/>
   <tile/>
   <tile/>
   <tile/>
   <tile/>
   <tile/>
   <tile/>
   <tile/>
   <tile/>
   <tile/>
   <tile/>
   <tile/>
   <tile/>
   <tile/>
   <tile/>
   <tile/>
   <tile/>
   <tile/>
   <tile/>
   <tile/>
   <tile/>
   <tile/>
   <tile/>
   <tile/>
   <tile/>
   <tile/>
   <tile/>
   <tile/>
   <tile/>
   <tile/>
   <tile/>
   <tile/>
   <tile/>
   <tile/>
   <tile/>
   <tile/>
   <tile/>
   <tile/>
   <tile/>
   <tile/>
   <tile/>
   <tile/>
   <tile/>
   <tile/>
   <tile/>
   <tile/>
   <tile/>
   <tile/>
   <tile/>
   <tile/>
   <tile/>
   <tile/>
   <tile/>
   <tile/>
   <tile/>
   <tile/>
   <tile/>
   <tile/>
   <tile/>
   <tile/>
   <tile/>
   <tile/>
   <tile/>
   <tile/>
   <tile/>
   <tile/>
   <tile/>
   <tile/>
   <tile/>
   <tile/>
   <tile/>
   <tile/>
   <tile/>
   <tile/>
   <tile/>
   <tile/>
   <tile/>
   <tile/>
   <tile/>
   <tile/>
   <tile/>
   <tile/>
   <tile/>
   <tile/>
   <tile/>
   <tile/>
   <tile/>
   <tile/>
   <tile/>
   <tile/>
   <tile/>
   <tile/>
   <tile/>
   <tile/>
   <tile/>
   <tile/>
   <tile/>
   <tile/>
   <tile/>
   <tile/>
   <tile/>
   <tile/>
   <tile/>
   <tile/>
   <tile/>
   <tile/>
   <tile/>
   <tile/>
   <tile/>
   <tile/>
   <tile/>
   <tile/>
   <tile/>
   <tile/>
   <tile/>
   <tile/>
   <tile/>
   <tile/>
   <tile/>
   <tile/>
   <tile/>
   <tile/>
   <tile/>
   <tile/>
   <tile/>
   <tile/>
   <tile/>
   <tile/>
   <tile/>
   <tile/>
   <tile/>
   <tile/>
   <tile/>
   <tile/>
   <tile/>
   <tile/>
   <tile/>
   <tile/>
   <tile/>
   <tile/>
   <tile/>
   <tile/>
   <tile/>
   <tile/>
   <tile/>
   <tile/>
   <tile/>
   <tile/>
   <tile/>
   <tile/>
   <tile/>
   <tile/>
   <tile/>
   <tile/>
   <tile/>
   <tile/>
   <tile/>
   <tile/>
   <tile/>
   <tile/>
   <tile/>
   <tile/>
   <tile/>
   <tile/>
   <tile/>
   <tile/>
   <tile/>
   <tile/>
   <tile/>
   <tile/>
   <tile/>
   <tile/>
   <tile/>
   <tile/>
   <tile/>
   <tile/>
   <tile/>
   <tile/>
   <tile/>
   <tile/>
   <tile/>
   <tile/>
   <tile/>
   <tile/>
   <tile/>
   <tile/>
   <tile/>
   <tile/>
   <tile/>
   <tile/>
   <tile/>
   <tile/>
   <tile/>
   <tile/>
   <tile/>
   <tile/>
   <tile/>
   <tile/>
   <tile/>
   <tile/>
   <tile/>
   <tile/>
   <tile/>
   <tile/>
   <tile/>
   <tile/>
   <tile/>
   <tile/>
   <tile/>
   <tile/>
   <tile/>
   <tile/>
   <tile/>
   <tile/>
   <tile/>
   <tile/>
   <tile/>
   <tile/>
   <tile/>
   <tile/>
   <tile/>
   <tile/>
   <tile/>
   <tile/>
   <tile/>
   <tile/>
   <tile/>
   <tile/>
   <tile/>
   <tile/>
   <tile/>
   <tile/>
   <tile/>
   <tile/>
   <tile/>
   <tile/>
   <tile/>
   <tile/>
   <tile/>
   <tile/>
   <tile/>
   <tile/>
   <tile/>
   <tile/>
   <tile/>
   <tile/>
   <tile/>
   <tile/>
   <tile/>
   <tile/>
   <tile/>
   <tile/>
   <tile/>
   <tile/>
   <tile/>
   <tile/>
   <tile/>
   <tile/>
   <tile/>
   <tile/>
   <tile/>
   <tile/>
   <tile/>
   <tile/>
   <tile/>
   <tile/>
   <tile/>
   <tile/>
   <tile/>
   <tile/>
   <tile/>
   <tile/>
   <tile/>
   <tile/>
   <tile/>
   <tile/>
   <tile/>
   <tile/>
   <tile/>
   <tile/>
   <tile/>
   <tile/>
   <tile/>
   <tile/>
   <tile/>
   <tile/>
   <tile/>
   <tile/>
   <tile/>
   <tile/>
   <tile/>
   <tile/>
   <tile/>
   <tile/>
   <tile/>
   <tile/>
   <tile/>
   <tile/>
   <tile/>
   <tile/>
   <tile/>
   <tile/>
   <tile/>
   <tile/>
   <tile/>
   <tile/>
   <tile/>
   <tile/>
   <tile/>
   <tile/>
   <tile/>
   <tile/>
   <tile/>
   <tile/>
   <tile/>
   <tile/>
   <tile/>
   <tile/>
   <tile/>
   <tile/>
   <tile/>
   <tile/>
   <tile/>
   <tile/>
   <tile/>
   <tile/>
   <tile/>
   <tile/>
   <tile/>
   <tile/>
   <tile/>
   <tile/>
   <tile/>
   <tile/>
   <tile/>
   <tile/>
   <tile/>
   <tile/>
   <tile/>
   <tile/>
   <tile/>
   <tile/>
   <tile/>
   <tile/>
   <tile/>
   <tile/>
   <tile/>
   <tile/>
   <tile/>
   <tile/>
   <tile/>
   <tile/>
   <tile/>
   <tile/>
   <tile/>
   <tile/>
   <tile/>
   <tile/>
   <tile/>
   <tile/>
   <tile/>
   <tile/>
   <tile/>
   <tile/>
   <tile/>
   <tile/>
   <tile/>
   <tile/>
   <tile/>
   <tile/>
   <tile/>
   <tile/>
   <tile/>
   <tile/>
   <tile/>
   <tile/>
   <tile/>
   <tile/>
   <tile/>
   <tile/>
   <tile/>
   <tile/>
   <tile/>
   <tile/>
   <tile/>
   <tile/>
   <tile/>
   <tile/>
   <tile/>
   <tile/>
   <tile/>
   <tile/>
   <tile/>
   <tile/>
   <tile/>
   <tile/>
   <tile/>
   <tile/>
   <tile/>
   <tile/>
   <tile/>
   <tile/>
   <tile/>
   <tile/>
   <tile/>
   <tile/>
   <tile/>
   <tile/>
   <tile/>
   <tile/>
   <tile/>
   <tile/>
   <tile/>
   <tile/>
   <tile/>
   <tile/>
   <tile/>
   <tile/>
   <tile/>
   <tile/>
   <tile/>
   <tile/>
   <tile/>
   <tile/>
   <tile/>
   <tile/>
   <tile/>
   <tile/>
   <tile/>
   <tile/>
   <tile/>
   <tile/>
   <tile/>
   <tile/>
   <tile/>
   <tile/>
   <tile/>
   <tile/>
   <tile/>
   <tile/>
   <tile/>
   <tile/>
   <tile/>
   <tile/>
   <tile/>
   <tile/>
   <tile/>
   <tile/>
   <tile/>
   <tile/>
   <tile/>
   <tile/>
   <tile/>
   <tile/>
   <tile/>
   <tile/>
   <tile/>
   <tile/>
   <tile/>
   <tile/>
   <tile/>
   <tile/>
   <tile/>
   <tile/>
   <tile/>
   <tile/>
   <tile/>
   <tile/>
   <tile/>
   <tile/>
   <tile/>
   <tile/>
   <tile/>
   <tile/>
   <tile/>
   <tile/>
   <tile/>
   <tile/>
   <tile/>
   <tile/>
   <tile/>
   <tile/>
   <tile/>
   <tile/>
   <tile/>
   <tile/>
   <tile/>
   <tile/>
   <tile/>
   <tile/>
   <tile/>
   <tile/>
   <tile/>
   <tile/>
   <tile/>
   <tile/>
   <tile/>
   <tile/>
   <tile/>
   <tile/>
   <tile/>
   <tile/>
   <tile/>
   <tile/>
   <tile/>
   <tile/>
   <tile/>
   <tile/>
   <tile/>
   <tile/>
   <tile/>
   <tile/>
   <tile/>
   <tile/>
   <tile/>
   <tile/>
   <tile/>
   <tile/>
   <tile/>
   <tile/>
   <tile/>
   <tile/>
   <tile/>
   <tile/>
   <tile/>
   <tile/>
   <tile/>
   <tile/>
   <tile/>
   <tile/>
   <tile/>
   <tile/>
   <tile/>
   <tile/>
   <tile/>
   <tile/>
   <tile/>
   <tile/>
   <tile/>
   <tile/>
   <tile/>
   <tile/>
   <tile/>
   <tile/>
   <tile/>
   <tile/>
   <tile/>
   <tile/>
   <tile/>
   <tile/>
   <tile/>
   <tile/>
   <tile/>
   <tile/>
   <tile/>
   <tile/>
   <tile/>
   <tile/>
   <tile/>
   <tile/>
   <tile/>
   <tile/>
   <tile/>
   <tile/>
   <tile/>
   <tile/>
   <tile/>
   <tile/>
   <tile/>
   <tile/>
   <tile/>
   <tile/>
   <tile/>
   <tile/>
   <tile/>
   <tile/>
   <tile/>
   <tile/>
   <tile/>
   <tile/>
   <tile/>
   <tile/>
   <tile/>
   <tile/>
   <tile/>
   <tile/>
   <tile/>
   <tile/>
   <tile/>
   <tile/>
   <tile/>
   <tile/>
   <tile/>
   <tile/>
   <tile/>
   <tile/>
   <tile/>
   <tile/>
   <tile/>
   <tile/>
   <tile/>
   <tile/>
   <tile/>
   <tile/>
   <tile/>
   <tile/>
   <tile/>
   <tile/>
   <tile/>
   <tile/>
   <tile/>
   <tile/>
   <tile/>
   <tile/>
   <tile/>
   <tile/>
   <tile/>
   <tile/>
   <tile/>
   <tile/>
   <tile/>
   <tile/>
   <tile/>
   <tile/>
   <tile/>
   <tile/>
   <tile/>
   <tile/>
   <tile/>
   <tile/>
   <tile/>
   <tile/>
   <tile/>
   <tile/>
   <tile/>
   <tile/>
   <tile/>
   <tile/>
   <tile/>
   <tile/>
   <tile/>
   <tile/>
   <tile/>
   <tile/>
   <tile/>
   <tile/>
   <tile/>
   <tile/>
   <tile/>
   <tile/>
   <tile/>
   <tile/>
   <tile/>
   <tile/>
   <tile/>
   <tile/>
   <tile/>
   <tile/>
   <tile/>
   <tile/>
   <tile/>
   <tile/>
   <tile/>
   <tile/>
   <tile/>
   <tile/>
   <tile/>
   <tile/>
   <tile/>
   <tile/>
   <tile/>
   <tile/>
   <tile/>
   <tile/>
   <tile/>
   <tile/>
   <tile/>
   <tile/>
   <tile/>
   <tile/>
   <tile/>
   <tile/>
   <tile/>
   <tile/>
   <tile/>
   <tile/>
   <tile/>
   <tile/>
   <tile/>
   <tile/>
   <tile/>
   <tile/>
   <tile/>
   <tile/>
   <tile/>
   <tile/>
   <tile/>
   <tile/>
   <tile/>
   <tile/>
   <tile/>
   <tile/>
   <tile/>
   <tile/>
   <tile/>
   <tile/>
   <tile/>
   <tile/>
   <tile/>
   <tile/>
   <tile/>
   <tile/>
   <tile/>
   <tile/>
   <tile/>
   <tile/>
   <tile/>
   <tile/>
   <tile/>
   <tile/>
   <tile/>
   <tile/>
   <tile/>
   <tile/>
   <tile/>
   <tile/>
   <tile/>
   <tile/>
   <tile/>
   <tile/>
   <tile/>
   <tile/>
   <tile gid="2"/>
   <tile/>
   <tile/>
   <tile/>
   <tile/>
   <tile/>
   <tile/>
   <tile/>
   <tile/>
   <tile/>
   <tile/>
   <tile/>
   <tile/>
   <tile/>
   <tile/>
   <tile/>
   <tile/>
   <tile/>
   <tile/>
   <tile/>
   <tile/>
   <tile/>
  </data>
 </layer>
</map>
