<?xml version="1.0" encoding="UTF-8"?>
<map version="1.10" tiledversion="1.11.2" orientation="orthogonal" renderorder="right-down" width="20" height="20" tilewidth="16" tileheight="16" infinite="0" nextlayerid="2" nextobjectid="1">
 <tileset firstgid="1" name="01005B03" tilewidth="16" tileheight="16" tilecount="1024" columns="32">
  <image source="01005B03.png" trans="ffffff" width="512" height="512"/>
 </tileset>
 <layer id="1" name="Tile Layer 1" width="20" height="20">
  <properties>
   <property name="Anims1" value="0x1"/>
   <property name="Anims2" value="0x0"/>
   <property name="ChapterID" value="9"/>
   <property name="Main" value=""/>
   <property name="MapChangesID" value="0"/>
   <property name="MapID" value="0x28"/>
   <property name="ObjectType" value="0x1"/>
   <property name="PaletteID" value="0x2"/>
   <property name="TileConfig" value="0x1"/>
  </properties>
  <data>
   <tile gid="914"/>
   <tile gid="914"/>
   <tile gid="914"/>
   <tile gid="914"/>
   <tile gid="914"/>
   <tile gid="914"/>
   <tile gid="914"/>
   <tile gid="914"/>
   <tile gid="914"/>
   <tile gid="914"/>
   <tile gid="914"/>
   <tile gid="914"/>
   <tile gid="914"/>
   <tile gid="947"/>
   <tile gid="653"/>
   <tile gid="99"/>
   <tile gid="99"/>
   <tile gid="99"/>
   <tile gid="99"/>
   <tile gid="71"/>
   <tile gid="914"/>
   <tile gid="914"/>
   <tile gid="914"/>
   <tile gid="914"/>
   <tile gid="914"/>
   <tile gid="914"/>
   <tile gid="914"/>
   <tile gid="914"/>
   <tile gid="914"/>
   <tile gid="914"/>
   <tile gid="914"/>
   <tile gid="947"/>
   <tile gid="653"/>
   <tile gid="932"/>
   <tile gid="99"/>
   <tile gid="721"/>
   <tile gid="99"/>
   <tile gid="71"/>
   <tile gid="80"/>
   <tile gid="7"/>
   <tile gid="914"/>
   <tile gid="914"/>
   <tile gid="914"/>
   <tile gid="914"/>
   <tile gid="914"/>
   <tile gid="914"/>
   <tile gid="914"/>
   <tile gid="914"/>
   <tile gid="946"/>
   <tile gid="947"/>
   <tile gid="653"/>
   <tile gid="99"/>
   <tile gid="99"/>
   <tile gid="67"/>
   <tile gid="99"/>
   <tile gid="71"/>
   <tile gid="80"/>
   <tile gid="7"/>
   <tile gid="112"/>
   <tile gid="104"/>
   <tile gid="914"/>
   <tile gid="914"/>
   <tile gid="914"/>
   <tile gid="914"/>
   <tile gid="914"/>
   <tile gid="914"/>
   <tile gid="946"/>
   <tile gid="947"/>
   <tile gid="904"/>
   <tile gid="905"/>
   <tile gid="906"/>
   <tile gid="67"/>
   <tile gid="67"/>
   <tile gid="67"/>
   <tile gid="77"/>
   <tile gid="7"/>
   <tile gid="7"/>
   <tile gid="104"/>
   <tile gid="881"/>
   <tile gid="850"/>
   <tile gid="914"/>
   <tile gid="914"/>
   <tile gid="914"/>
   <tile gid="914"/>
   <tile gid="914"/>
   <tile gid="947"/>
   <tile gid="932"/>
   <tile gid="99"/>
   <tile gid="968"/>
   <tile gid="969"/>
   <tile gid="970"/>
   <tile gid="99"/>
   <tile gid="99"/>
   <tile gid="99"/>
   <tile gid="109"/>
   <tile gid="112"/>
   <tile gid="104"/>
   <tile gid="99"/>
   <tile gid="913"/>
   <tile gid="914"/>
   <tile gid="914"/>
   <tile gid="914"/>
   <tile gid="914"/>
   <tile gid="914"/>
   <tile gid="947"/>
   <tile gid="99"/>
   <tile gid="133"/>
   <tile gid="99"/>
   <tile gid="99"/>
   <tile gid="239"/>
   <tile gid="99"/>
   <tile gid="721"/>
   <tile gid="99"/>
   <tile gid="99"/>
   <tile gid="99"/>
   <tile gid="99"/>
   <tile gid="99"/>
   <tile gid="721"/>
   <tile gid="132"/>
   <tile gid="945"/>
   <tile gid="914"/>
   <tile gid="914"/>
   <tile gid="914"/>
   <tile gid="947"/>
   <tile gid="99"/>
   <tile gid="99"/>
   <tile gid="133"/>
   <tile gid="99"/>
   <tile gid="133"/>
   <tile gid="99"/>
   <tile gid="99"/>
   <tile gid="99"/>
   <tile gid="99"/>
   <tile gid="99"/>
   <tile gid="131"/>
   <tile gid="99"/>
   <tile gid="67"/>
   <tile gid="131"/>
   <tile gid="132"/>
   <tile gid="132"/>
   <tile gid="914"/>
   <tile gid="914"/>
   <tile gid="915"/>
   <tile gid="99"/>
   <tile gid="99"/>
   <tile gid="99"/>
   <tile gid="99"/>
   <tile gid="99"/>
   <tile gid="99"/>
   <tile gid="131"/>
   <tile gid="131"/>
   <tile gid="99"/>
   <tile gid="101"/>
   <tile gid="99"/>
   <tile gid="131"/>
   <tile gid="99"/>
   <tile gid="67"/>
   <tile gid="67"/>
   <tile gid="99"/>
   <tile gid="99"/>
   <tile gid="914"/>
   <tile gid="914"/>
   <tile gid="914"/>
   <tile gid="883"/>
   <tile gid="99"/>
   <tile gid="721"/>
   <tile gid="133"/>
   <tile gid="99"/>
   <tile gid="99"/>
   <tile gid="131"/>
   <tile gid="131"/>
   <tile gid="99"/>
   <tile gid="99"/>
   <tile gid="99"/>
   <tile gid="99"/>
   <tile gid="721"/>
   <tile gid="99"/>
   <tile gid="99"/>
   <tile gid="99"/>
   <tile gid="932"/>
   <tile gid="914"/>
   <tile gid="914"/>
   <tile gid="946"/>
   <tile gid="947"/>
   <tile gid="99"/>
   <tile gid="99"/>
   <tile gid="99"/>
   <tile gid="131"/>
   <tile gid="131"/>
   <tile gid="67"/>
   <tile gid="67"/>
   <tile gid="131"/>
   <tile gid="131"/>
   <tile gid="131"/>
   <tile gid="131"/>
   <tile gid="99"/>
   <tile gid="99"/>
   <tile gid="881"/>
   <tile gid="882"/>
   <tile gid="883"/>
   <tile gid="946"/>
   <tile gid="947"/>
   <tile gid="99"/>
   <tile gid="71"/>
   <tile gid="80"/>
   <tile gid="78"/>
   <tile gid="99"/>
   <tile gid="131"/>
   <tile gid="131"/>
   <tile gid="67"/>
   <tile gid="99"/>
   <tile gid="67"/>
   <tile gid="67"/>
   <tile gid="99"/>
   <tile gid="99"/>
   <tile gid="99"/>
   <tile gid="881"/>
   <tile gid="914"/>
   <tile gid="914"/>
   <tile gid="914"/>
   <tile gid="932"/>
   <tile gid="71"/>
   <tile gid="80"/>
   <tile gid="7"/>
   <tile gid="7"/>
   <tile gid="110"/>
   <tile gid="99"/>
   <tile gid="99"/>
   <tile gid="67"/>
   <tile gid="99"/>
   <tile gid="99"/>
   <tile gid="99"/>
   <tile gid="99"/>
   <tile gid="164"/>
   <tile gid="164"/>
   <tile gid="99"/>
   <tile gid="913"/>
   <tile gid="914"/>
   <tile gid="915"/>
   <tile gid="947"/>
   <tile gid="71"/>
   <tile gid="7"/>
   <tile gid="7"/>
   <tile gid="7"/>
   <tile gid="104"/>
   <tile gid="99"/>
   <tile gid="99"/>
   <tile gid="99"/>
   <tile gid="99"/>
   <tile gid="99"/>
   <tile gid="721"/>
   <tile gid="164"/>
   <tile gid="99"/>
   <tile gid="164"/>
   <tile gid="164"/>
   <tile gid="99"/>
   <tile gid="982"/>
   <tile gid="945"/>
   <tile gid="947"/>
   <tile gid="506"/>
   <tile gid="7"/>
   <tile gid="7"/>
   <tile gid="112"/>
   <tile gid="104"/>
   <tile gid="849"/>
   <tile gid="850"/>
   <tile gid="932"/>
   <tile gid="99"/>
   <tile gid="67"/>
   <tile gid="99"/>
   <tile gid="99"/>
   <tile gid="99"/>
   <tile gid="99"/>
   <tile gid="164"/>
   <tile gid="99"/>
   <tile gid="982"/>
   <tile gid="932"/>
   <tile gid="506"/>
   <tile gid="505"/>
   <tile gid="402"/>
   <tile gid="7"/>
   <tile gid="104"/>
   <tile gid="99"/>
   <tile gid="849"/>
   <tile gid="914"/>
   <tile gid="882"/>
   <tile gid="67"/>
   <tile gid="99"/>
   <tile gid="99"/>
   <tile gid="99"/>
   <tile gid="99"/>
   <tile gid="99"/>
   <tile gid="99"/>
   <tile gid="99"/>
   <tile gid="199"/>
   <tile gid="472"/>
   <tile gid="506"/>
   <tile gid="438"/>
   <tile gid="248"/>
   <tile gid="314"/>
   <tile gid="144"/>
   <tile gid="99"/>
   <tile gid="849"/>
   <tile gid="914"/>
   <tile gid="914"/>
   <tile gid="914"/>
   <tile gid="883"/>
   <tile gid="99"/>
   <tile gid="721"/>
   <tile gid="99"/>
   <tile gid="131"/>
   <tile gid="131"/>
   <tile gid="99"/>
   <tile gid="99"/>
   <tile gid="271"/>
   <tile gid="443"/>
   <tile gid="444"/>
   <tile gid="402"/>
   <tile gid="283"/>
   <tile gid="245"/>
   <tile gid="104"/>
   <tile gid="67"/>
   <tile gid="849"/>
   <tile gid="914"/>
   <tile gid="914"/>
   <tile gid="914"/>
   <tile gid="914"/>
   <tile gid="883"/>
   <tile gid="163"/>
   <tile gid="99"/>
   <tile gid="131"/>
   <tile gid="131"/>
   <tile gid="99"/>
   <tile gid="469"/>
   <tile gid="402"/>
   <tile gid="402"/>
   <tile gid="402"/>
   <tile gid="402"/>
   <tile gid="315"/>
   <tile gid="214"/>
   <tile gid="67"/>
   <tile gid="849"/>
   <tile gid="914"/>
   <tile gid="914"/>
   <tile gid="914"/>
   <tile gid="914"/>
   <tile gid="914"/>
   <tile gid="914"/>
   <tile gid="883"/>
   <tile gid="67"/>
   <tile gid="163"/>
   <tile gid="163"/>
   <tile gid="508"/>
   <tile gid="438"/>
   <tile gid="402"/>
   <tile gid="402"/>
   <tile gid="402"/>
   <tile gid="248"/>
   <tile gid="245"/>
   <tile gid="214"/>
   <tile gid="67"/>
   <tile gid="849"/>
   <tile gid="914"/>
   <tile gid="914"/>
   <tile gid="914"/>
   <tile gid="914"/>
   <tile gid="914"/>
   <tile gid="914"/>
   <tile gid="882"/>
   <tile gid="883"/>
   <tile gid="163"/>
   <tile gid="99"/>
   <tile gid="503"/>
   <tile gid="402"/>
   <tile gid="402"/>
   <tile gid="248"/>
   <tile gid="348"/>
   <tile gid="245"/>
   <tile gid="214"/>
   <tile gid="214"/>
   <tile gid="849"/>
   <tile gid="914"/>
   <tile gid="914"/>
   <tile gid="914"/>
   <tile gid="914"/>
   <tile gid="914"/>
   <tile gid="914"/>
   <tile gid="914"/>
   <tile gid="914"/>
   <tile gid="915"/>
   <tile gid="67"/>
   <tile gid="99"/>
   <tile gid="932"/>
   <tile gid="473"/>
   <tile gid="248"/>
   <tile gid="245"/>
   <tile gid="214"/>
   <tile gid="214"/>
   <tile gid="214"/>
   <tile gid="214"/>
  </data>
 </layer>
</map>
