<?xml version="1.0" encoding="UTF-8"?>
<map version="1.10" tiledversion="1.11.2" orientation="orthogonal" renderorder="right-down" width="23" height="18" tilewidth="16" tileheight="16" infinite="0" nextlayerid="5" nextobjectid="1">
 <tileset firstgid="1" name="05001205" tilewidth="16" tileheight="16" tilecount="1024" columns="32">
  <image source="05001205.png" trans="ffffff" width="512" height="512"/>
 </tileset>
 <layer id="1" name="Tile Layer 1" width="23" height="18">
  <properties>
   <property name="Anims1" value="0xDB"/>
   <property name="Anims2" value="0x0"/>
   <property name="ChapterID" value="5"/>
   <property name="Main" value=""/>
   <property name="MapChangesID" value="0x1D"/>
   <property name="MapID" value="0x1B"/>
   <property name="ObjectType" value="9"/>
   <property name="PaletteID" value="0xF"/>
   <property name="TileConfig" value="9"/>
  </properties>
  <data>
   <tile gid="881"/>
   <tile gid="850"/>
   <tile gid="103"/>
   <tile gid="7"/>
   <tile gid="7"/>
   <tile gid="144"/>
   <tile gid="675"/>
   <tile gid="68"/>
   <tile gid="68"/>
   <tile gid="597"/>
   <tile gid="630"/>
   <tile gid="260"/>
   <tile gid="811"/>
   <tile gid="812"/>
   <tile gid="813"/>
   <tile gid="68"/>
   <tile gid="68"/>
   <tile gid="674"/>
   <tile gid="292"/>
   <tile gid="231"/>
   <tile gid="338"/>
   <tile gid="338"/>
   <tile gid="338"/>
   <tile gid="881"/>
   <tile gid="881"/>
   <tile gid="850"/>
   <tile gid="143"/>
   <tile gid="7"/>
   <tile gid="104"/>
   <tile gid="643"/>
   <tile gid="68"/>
   <tile gid="880"/>
   <tile gid="601"/>
   <tile gid="68"/>
   <tile gid="68"/>
   <tile gid="843"/>
   <tile gid="844"/>
   <tile gid="845"/>
   <tile gid="68"/>
   <tile gid="68"/>
   <tile gid="644"/>
   <tile gid="944"/>
   <tile gid="199"/>
   <tile gid="338"/>
   <tile gid="338"/>
   <tile gid="338"/>
   <tile gid="881"/>
   <tile gid="881"/>
   <tile gid="914"/>
   <tile gid="103"/>
   <tile gid="144"/>
   <tile gid="706"/>
   <tile gid="68"/>
   <tile gid="68"/>
   <tile gid="597"/>
   <tile gid="630"/>
   <tile gid="68"/>
   <tile gid="68"/>
   <tile gid="68"/>
   <tile gid="361"/>
   <tile gid="68"/>
   <tile gid="944"/>
   <tile gid="707"/>
   <tile gid="676"/>
   <tile gid="199"/>
   <tile gid="338"/>
   <tile gid="338"/>
   <tile gid="338"/>
   <tile gid="232"/>
   <tile gid="881"/>
   <tile gid="881"/>
   <tile gid="881"/>
   <tile gid="850"/>
   <tile gid="103"/>
   <tile gid="706"/>
   <tile gid="292"/>
   <tile gid="68"/>
   <tile gid="1013"/>
   <tile gid="68"/>
   <tile gid="68"/>
   <tile gid="68"/>
   <tile gid="68"/>
   <tile gid="68"/>
   <tile gid="675"/>
   <tile gid="674"/>
   <tile gid="68"/>
   <tile gid="68"/>
   <tile gid="271"/>
   <tile gid="338"/>
   <tile gid="338"/>
   <tile gid="232"/>
   <tile gid="944"/>
   <tile gid="881"/>
   <tile gid="881"/>
   <tile gid="881"/>
   <tile gid="881"/>
   <tile gid="228"/>
   <tile gid="229"/>
   <tile gid="673"/>
   <tile gid="198"/>
   <tile gid="633"/>
   <tile gid="68"/>
   <tile gid="944"/>
   <tile gid="68"/>
   <tile gid="644"/>
   <tile gid="68"/>
   <tile gid="68"/>
   <tile gid="68"/>
   <tile gid="944"/>
   <tile gid="199"/>
   <tile gid="338"/>
   <tile gid="338"/>
   <tile gid="232"/>
   <tile gid="225"/>
   <tile gid="161"/>
   <tile gid="912"/>
   <tile gid="881"/>
   <tile gid="881"/>
   <tile gid="881"/>
   <tile gid="850"/>
   <tile gid="68"/>
   <tile gid="229"/>
   <tile gid="673"/>
   <tile gid="660"/>
   <tile gid="674"/>
   <tile gid="739"/>
   <tile gid="673"/>
   <tile gid="676"/>
   <tile gid="68"/>
   <tile gid="68"/>
   <tile gid="199"/>
   <tile gid="274"/>
   <tile gid="338"/>
   <tile gid="338"/>
   <tile gid="272"/>
   <tile gid="225"/>
   <tile gid="161"/>
   <tile gid="322"/>
   <tile gid="68"/>
   <tile gid="881"/>
   <tile gid="881"/>
   <tile gid="881"/>
   <tile gid="881"/>
   <tile gid="850"/>
   <tile gid="68"/>
   <tile gid="597"/>
   <tile gid="672"/>
   <tile gid="598"/>
   <tile gid="196"/>
   <tile gid="944"/>
   <tile gid="837"/>
   <tile gid="901"/>
   <tile gid="68"/>
   <tile gid="271"/>
   <tile gid="338"/>
   <tile gid="338"/>
   <tile gid="338"/>
   <tile gid="232"/>
   <tile gid="161"/>
   <tile gid="353"/>
   <tile gid="354"/>
   <tile gid="146"/>
   <tile gid="274"/>
   <tile gid="200"/>
   <tile gid="881"/>
   <tile gid="881"/>
   <tile gid="914"/>
   <tile gid="68"/>
   <tile gid="605"/>
   <tile gid="639"/>
   <tile gid="606"/>
   <tile gid="68"/>
   <tile gid="68"/>
   <tile gid="335"/>
   <tile gid="336"/>
   <tile gid="68"/>
   <tile gid="231"/>
   <tile gid="338"/>
   <tile gid="338"/>
   <tile gid="272"/>
   <tile gid="944"/>
   <tile gid="290"/>
   <tile gid="193"/>
   <tile gid="290"/>
   <tile gid="306"/>
   <tile gid="338"/>
   <tile gid="338"/>
   <tile gid="274"/>
   <tile gid="276"/>
   <tile gid="68"/>
   <tile gid="100"/>
   <tile gid="629"/>
   <tile gid="636"/>
   <tile gid="636"/>
   <tile gid="631"/>
   <tile gid="36"/>
   <tile gid="235"/>
   <tile gid="236"/>
   <tile gid="944"/>
   <tile gid="196"/>
   <tile gid="231"/>
   <tile gid="338"/>
   <tile gid="338"/>
   <tile gid="200"/>
   <tile gid="292"/>
   <tile gid="289"/>
   <tile gid="290"/>
   <tile gid="850"/>
   <tile gid="231"/>
   <tile gid="306"/>
   <tile gid="338"/>
   <tile gid="338"/>
   <tile gid="200"/>
   <tile gid="100"/>
   <tile gid="100"/>
   <tile gid="100"/>
   <tile gid="195"/>
   <tile gid="629"/>
   <tile gid="572"/>
   <tile gid="631"/>
   <tile gid="68"/>
   <tile gid="68"/>
   <tile gid="100"/>
   <tile gid="100"/>
   <tile gid="231"/>
   <tile gid="338"/>
   <tile gid="338"/>
   <tile gid="274"/>
   <tile gid="200"/>
   <tile gid="944"/>
   <tile gid="881"/>
   <tile gid="850"/>
   <tile gid="228"/>
   <tile gid="231"/>
   <tile gid="306"/>
   <tile gid="338"/>
   <tile gid="274"/>
   <tile gid="200"/>
   <tile gid="944"/>
   <tile gid="68"/>
   <tile gid="68"/>
   <tile gid="976"/>
   <tile gid="629"/>
   <tile gid="603"/>
   <tile gid="631"/>
   <tile gid="68"/>
   <tile gid="944"/>
   <tile gid="945"/>
   <tile gid="946"/>
   <tile gid="338"/>
   <tile gid="338"/>
   <tile gid="338"/>
   <tile gid="274"/>
   <tile gid="881"/>
   <tile gid="881"/>
   <tile gid="850"/>
   <tile gid="68"/>
   <tile gid="68"/>
   <tile gid="231"/>
   <tile gid="306"/>
   <tile gid="338"/>
   <tile gid="200"/>
   <tile gid="68"/>
   <tile gid="100"/>
   <tile gid="100"/>
   <tile gid="68"/>
   <tile gid="629"/>
   <tile gid="635"/>
   <tile gid="631"/>
   <tile gid="976"/>
   <tile gid="977"/>
   <tile gid="978"/>
   <tile gid="231"/>
   <tile gid="306"/>
   <tile gid="338"/>
   <tile gid="338"/>
   <tile gid="913"/>
   <tile gid="881"/>
   <tile gid="882"/>
   <tile gid="68"/>
   <tile gid="68"/>
   <tile gid="100"/>
   <tile gid="100"/>
   <tile gid="231"/>
   <tile gid="338"/>
   <tile gid="274"/>
   <tile gid="200"/>
   <tile gid="100"/>
   <tile gid="100"/>
   <tile gid="228"/>
   <tile gid="944"/>
   <tile gid="629"/>
   <tile gid="572"/>
   <tile gid="598"/>
   <tile gid="68"/>
   <tile gid="68"/>
   <tile gid="68"/>
   <tile gid="231"/>
   <tile gid="306"/>
   <tile gid="881"/>
   <tile gid="881"/>
   <tile gid="68"/>
   <tile gid="848"/>
   <tile gid="850"/>
   <tile gid="68"/>
   <tile gid="100"/>
   <tile gid="68"/>
   <tile gid="271"/>
   <tile gid="338"/>
   <tile gid="272"/>
   <tile gid="100"/>
   <tile gid="100"/>
   <tile gid="68"/>
   <tile gid="71"/>
   <tile gid="80"/>
   <tile gid="951"/>
   <tile gid="952"/>
   <tile gid="953"/>
   <tile gid="80"/>
   <tile gid="72"/>
   <tile gid="68"/>
   <tile gid="196"/>
   <tile gid="881"/>
   <tile gid="68"/>
   <tile gid="68"/>
   <tile gid="912"/>
   <tile gid="882"/>
   <tile gid="850"/>
   <tile gid="68"/>
   <tile gid="260"/>
   <tile gid="271"/>
   <tile gid="338"/>
   <tile gid="232"/>
   <tile gid="68"/>
   <tile gid="68"/>
   <tile gid="71"/>
   <tile gid="7"/>
   <tile gid="7"/>
   <tile gid="1015"/>
   <tile gid="1016"/>
   <tile gid="1017"/>
   <tile gid="112"/>
   <tile gid="104"/>
   <tile gid="643"/>
   <tile gid="642"/>
   <tile gid="816"/>
   <tile gid="68"/>
   <tile gid="816"/>
   <tile gid="903"/>
   <tile gid="880"/>
   <tile gid="882"/>
   <tile gid="850"/>
   <tile gid="199"/>
   <tile gid="338"/>
   <tile gid="272"/>
   <tile gid="68"/>
   <tile gid="944"/>
   <tile gid="68"/>
   <tile gid="143"/>
   <tile gid="7"/>
   <tile gid="104"/>
   <tile gid="976"/>
   <tile gid="629"/>
   <tile gid="598"/>
   <tile gid="68"/>
   <tile gid="643"/>
   <tile gid="720"/>
   <tile gid="68"/>
   <tile gid="68"/>
   <tile gid="68"/>
   <tile gid="68"/>
   <tile gid="332"/>
   <tile gid="880"/>
   <tile gid="882"/>
   <tile gid="914"/>
   <tile gid="271"/>
   <tile gid="338"/>
   <tile gid="338"/>
   <tile gid="200"/>
   <tile gid="68"/>
   <tile gid="68"/>
   <tile gid="103"/>
   <tile gid="104"/>
   <tile gid="100"/>
   <tile gid="68"/>
   <tile gid="196"/>
   <tile gid="602"/>
   <tile gid="100"/>
   <tile gid="943"/>
   <tile gid="68"/>
   <tile gid="68"/>
   <tile gid="68"/>
   <tile gid="68"/>
   <tile gid="68"/>
   <tile gid="848"/>
   <tile gid="882"/>
   <tile gid="914"/>
   <tile gid="199"/>
   <tile gid="338"/>
   <tile gid="338"/>
   <tile gid="338"/>
   <tile gid="272"/>
   <tile gid="260"/>
   <tile gid="68"/>
   <tile gid="68"/>
   <tile gid="68"/>
   <tile gid="68"/>
   <tile gid="68"/>
   <tile gid="944"/>
   <tile gid="601"/>
   <tile gid="100"/>
   <tile gid="975"/>
   <tile gid="68"/>
   <tile gid="196"/>
  </data>
 </layer>
 <layer id="2" name="Map Change 0" width="23" height="18">
  <properties>
   <property name="Height" value="2"/>
   <property name="ID" value="0"/>
   <property name="Width" value="3"/>
   <property name="X" value="12"/>
   <property name="Y" value="0"/>
  </properties>
  <data>
   <tile/>
   <tile/>
   <tile/>
   <tile/>
   <tile/>
   <tile/>
   <tile/>
   <tile/>
   <tile/>
   <tile/>
   <tile/>
   <tile/>
   <tile gid="808"/>
   <tile gid="809"/>
   <tile gid="810"/>
   <tile/>
   <tile/>
   <tile/>
   <tile/>
   <tile/>
   <tile/>
   <tile/>
   <tile/>
   <tile/>
   <tile/>
   <tile/>
   <tile/>
   <tile/>
   <tile/>
   <tile/>
   <tile/>
   <tile/>
   <tile/>
   <tile/>
   <tile/>
   <tile gid="840"/>
   <tile gid="841"/>
   <tile gid="842"/>
   <tile/>
   <tile/>
   <tile/>
   <tile/>
   <tile/>
   <tile/>
   <tile/>
   <tile/>
   <tile/>
   <tile/>
   <tile/>
   <tile/>
   <tile/>
   <tile/>
   <tile/>
   <tile/>
   <tile/>
   <tile/>
   <tile/>
   <tile/>
   <tile/>
   <tile/>
   <tile/>
   <tile/>
   <tile/>
   <tile/>
   <tile/>
   <tile/>
   <tile/>
   <tile/>
   <tile/>
   <tile/>
   <tile/>
   <tile/>
   <tile/>
   <tile/>
   <tile/>
   <tile/>
   <tile/>
   <tile/>
   <tile/>
   <tile/>
   <tile/>
   <tile/>
   <tile/>
   <tile/>
   <tile/>
   <tile/>
   <tile/>
   <tile/>
   <tile/>
   <tile/>
   <tile/>
   <tile/>
   <tile/>
   <tile/>
   <tile/>
   <tile/>
   <tile/>
   <tile/>
   <tile/>
   <tile/>
   <tile/>
   <tile/>
   <tile/>
   <tile/>
   <tile/>
   <tile/>
   <tile/>
   <tile/>
   <tile/>
   <tile/>
   <tile/>
   <tile/>
   <tile/>
   <tile/>
   <tile/>
   <tile/>
   <tile/>
   <tile/>
   <tile/>
   <tile/>
   <tile/>
   <tile/>
   <tile/>
   <tile/>
   <tile/>
   <tile/>
   <tile/>
   <tile/>
   <tile/>
   <tile/>
   <tile/>
   <tile/>
   <tile/>
   <tile/>
   <tile/>
   <tile/>
   <tile/>
   <tile/>
   <tile/>
   <tile/>
   <tile/>
   <tile/>
   <tile/>
   <tile/>
   <tile/>
   <tile/>
   <tile/>
   <tile/>
   <tile/>
   <tile/>
   <tile/>
   <tile/>
   <tile/>
   <tile/>
   <tile/>
   <tile/>
   <tile/>
   <tile/>
   <tile/>
   <tile/>
   <tile/>
   <tile/>
   <tile/>
   <tile/>
   <tile/>
   <tile/>
   <tile/>
   <tile/>
   <tile/>
   <tile/>
   <tile/>
   <tile/>
   <tile/>
   <tile/>
   <tile/>
   <tile/>
   <tile/>
   <tile/>
   <tile/>
   <tile/>
   <tile/>
   <tile/>
   <tile/>
   <tile/>
   <tile/>
   <tile/>
   <tile/>
   <tile/>
   <tile/>
   <tile/>
   <tile/>
   <tile/>
   <tile/>
   <tile/>
   <tile/>
   <tile/>
   <tile/>
   <tile/>
   <tile/>
   <tile/>
   <tile/>
   <tile/>
   <tile/>
   <tile/>
   <tile/>
   <tile/>
   <tile/>
   <tile/>
   <tile/>
   <tile/>
   <tile/>
   <tile/>
   <tile/>
   <tile/>
   <tile/>
   <tile/>
   <tile/>
   <tile/>
   <tile/>
   <tile/>
   <tile/>
   <tile/>
   <tile/>
   <tile/>
   <tile/>
   <tile/>
   <tile/>
   <tile/>
   <tile/>
   <tile/>
   <tile/>
   <tile/>
   <tile/>
   <tile/>
   <tile/>
   <tile/>
   <tile/>
   <tile/>
   <tile/>
   <tile/>
   <tile/>
   <tile/>
   <tile/>
   <tile/>
   <tile/>
   <tile/>
   <tile/>
   <tile/>
   <tile/>
   <tile/>
   <tile/>
   <tile/>
   <tile/>
   <tile/>
   <tile/>
   <tile/>
   <tile/>
   <tile/>
   <tile/>
   <tile/>
   <tile/>
   <tile/>
   <tile/>
   <tile/>
   <tile/>
   <tile/>
   <tile/>
   <tile/>
   <tile/>
   <tile/>
   <tile/>
   <tile/>
   <tile/>
   <tile/>
   <tile/>
   <tile/>
   <tile/>
   <tile/>
   <tile/>
   <tile/>
   <tile/>
   <tile/>
   <tile/>
   <tile/>
   <tile/>
   <tile/>
   <tile/>
   <tile/>
   <tile/>
   <tile/>
   <tile/>
   <tile/>
   <tile/>
   <tile/>
   <tile/>
   <tile/>
   <tile/>
   <tile/>
   <tile/>
   <tile/>
   <tile/>
   <tile/>
   <tile/>
   <tile/>
   <tile/>
   <tile/>
   <tile/>
   <tile/>
   <tile/>
   <tile/>
   <tile/>
   <tile/>
   <tile/>
   <tile/>
   <tile/>
   <tile/>
   <tile/>
   <tile/>
   <tile/>
   <tile/>
   <tile/>
   <tile/>
   <tile/>
   <tile/>
   <tile/>
   <tile/>
   <tile/>
   <tile/>
   <tile/>
   <tile/>
   <tile/>
   <tile/>
   <tile/>
   <tile/>
   <tile/>
   <tile/>
   <tile/>
   <tile/>
   <tile/>
   <tile/>
   <tile/>
   <tile/>
   <tile/>
   <tile/>
   <tile/>
   <tile/>
   <tile/>
   <tile/>
   <tile/>
   <tile/>
   <tile/>
   <tile/>
   <tile/>
   <tile/>
   <tile/>
   <tile/>
   <tile/>
   <tile/>
   <tile/>
   <tile/>
   <tile/>
   <tile/>
   <tile/>
   <tile/>
   <tile/>
   <tile/>
   <tile/>
   <tile/>
   <tile/>
   <tile/>
   <tile/>
   <tile/>
   <tile/>
   <tile/>
   <tile/>
   <tile/>
   <tile/>
   <tile/>
   <tile/>
   <tile/>
   <tile/>
   <tile/>
   <tile/>
   <tile/>
   <tile/>
   <tile/>
   <tile/>
   <tile/>
   <tile/>
   <tile/>
   <tile/>
   <tile/>
   <tile/>
   <tile/>
   <tile/>
   <tile/>
   <tile/>
   <tile/>
   <tile/>
   <tile/>
   <tile/>
   <tile/>
   <tile/>
   <tile/>
   <tile/>
   <tile/>
   <tile/>
   <tile/>
   <tile/>
   <tile/>
   <tile/>
   <tile/>
   <tile/>
   <tile/>
  </data>
 </layer>
 <layer id="3" name="Map Change 1" width="23" height="18">
  <properties>
   <property name="Height" value="1"/>
   <property name="ID" value="1"/>
   <property name="Width" value="1"/>
   <property name="X" value="13"/>
   <property name="Y" value="1"/>
  </properties>
  <data>
   <tile/>
   <tile/>
   <tile/>
   <tile/>
   <tile/>
   <tile/>
   <tile/>
   <tile/>
   <tile/>
   <tile/>
   <tile/>
   <tile/>
   <tile/>
   <tile/>
   <tile/>
   <tile/>
   <tile/>
   <tile/>
   <tile/>
   <tile/>
   <tile/>
   <tile/>
   <tile/>
   <tile/>
   <tile/>
   <tile/>
   <tile/>
   <tile/>
   <tile/>
   <tile/>
   <tile/>
   <tile/>
   <tile/>
   <tile/>
   <tile/>
   <tile/>
   <tile gid="33"/>
   <tile/>
   <tile/>
   <tile/>
   <tile/>
   <tile/>
   <tile/>
   <tile/>
   <tile/>
   <tile/>
   <tile/>
   <tile/>
   <tile/>
   <tile/>
   <tile/>
   <tile/>
   <tile/>
   <tile/>
   <tile/>
   <tile/>
   <tile/>
   <tile/>
   <tile/>
   <tile/>
   <tile/>
   <tile/>
   <tile/>
   <tile/>
   <tile/>
   <tile/>
   <tile/>
   <tile/>
   <tile/>
   <tile/>
   <tile/>
   <tile/>
   <tile/>
   <tile/>
   <tile/>
   <tile/>
   <tile/>
   <tile/>
   <tile/>
   <tile/>
   <tile/>
   <tile/>
   <tile/>
   <tile/>
   <tile/>
   <tile/>
   <tile/>
   <tile/>
   <tile/>
   <tile/>
   <tile/>
   <tile/>
   <tile/>
   <tile/>
   <tile/>
   <tile/>
   <tile/>
   <tile/>
   <tile/>
   <tile/>
   <tile/>
   <tile/>
   <tile/>
   <tile/>
   <tile/>
   <tile/>
   <tile/>
   <tile/>
   <tile/>
   <tile/>
   <tile/>
   <tile/>
   <tile/>
   <tile/>
   <tile/>
   <tile/>
   <tile/>
   <tile/>
   <tile/>
   <tile/>
   <tile/>
   <tile/>
   <tile/>
   <tile/>
   <tile/>
   <tile/>
   <tile/>
   <tile/>
   <tile/>
   <tile/>
   <tile/>
   <tile/>
   <tile/>
   <tile/>
   <tile/>
   <tile/>
   <tile/>
   <tile/>
   <tile/>
   <tile/>
   <tile/>
   <tile/>
   <tile/>
   <tile/>
   <tile/>
   <tile/>
   <tile/>
   <tile/>
   <tile/>
   <tile/>
   <tile/>
   <tile/>
   <tile/>
   <tile/>
   <tile/>
   <tile/>
   <tile/>
   <tile/>
   <tile/>
   <tile/>
   <tile/>
   <tile/>
   <tile/>
   <tile/>
   <tile/>
   <tile/>
   <tile/>
   <tile/>
   <tile/>
   <tile/>
   <tile/>
   <tile/>
   <tile/>
   <tile/>
   <tile/>
   <tile/>
   <tile/>
   <tile/>
   <tile/>
   <tile/>
   <tile/>
   <tile/>
   <tile/>
   <tile/>
   <tile/>
   <tile/>
   <tile/>
   <tile/>
   <tile/>
   <tile/>
   <tile/>
   <tile/>
   <tile/>
   <tile/>
   <tile/>
   <tile/>
   <tile/>
   <tile/>
   <tile/>
   <tile/>
   <tile/>
   <tile/>
   <tile/>
   <tile/>
   <tile/>
   <tile/>
   <tile/>
   <tile/>
   <tile/>
   <tile/>
   <tile/>
   <tile/>
   <tile/>
   <tile/>
   <tile/>
   <tile/>
   <tile/>
   <tile/>
   <tile/>
   <tile/>
   <tile/>
   <tile/>
   <tile/>
   <tile/>
   <tile/>
   <tile/>
   <tile/>
   <tile/>
   <tile/>
   <tile/>
   <tile/>
   <tile/>
   <tile/>
   <tile/>
   <tile/>
   <tile/>
   <tile/>
   <tile/>
   <tile/>
   <tile/>
   <tile/>
   <tile/>
   <tile/>
   <tile/>
   <tile/>
   <tile/>
   <tile/>
   <tile/>
   <tile/>
   <tile/>
   <tile/>
   <tile/>
   <tile/>
   <tile/>
   <tile/>
   <tile/>
   <tile/>
   <tile/>
   <tile/>
   <tile/>
   <tile/>
   <tile/>
   <tile/>
   <tile/>
   <tile/>
   <tile/>
   <tile/>
   <tile/>
   <tile/>
   <tile/>
   <tile/>
   <tile/>
   <tile/>
   <tile/>
   <tile/>
   <tile/>
   <tile/>
   <tile/>
   <tile/>
   <tile/>
   <tile/>
   <tile/>
   <tile/>
   <tile/>
   <tile/>
   <tile/>
   <tile/>
   <tile/>
   <tile/>
   <tile/>
   <tile/>
   <tile/>
   <tile/>
   <tile/>
   <tile/>
   <tile/>
   <tile/>
   <tile/>
   <tile/>
   <tile/>
   <tile/>
   <tile/>
   <tile/>
   <tile/>
   <tile/>
   <tile/>
   <tile/>
   <tile/>
   <tile/>
   <tile/>
   <tile/>
   <tile/>
   <tile/>
   <tile/>
   <tile/>
   <tile/>
   <tile/>
   <tile/>
   <tile/>
   <tile/>
   <tile/>
   <tile/>
   <tile/>
   <tile/>
   <tile/>
   <tile/>
   <tile/>
   <tile/>
   <tile/>
   <tile/>
   <tile/>
   <tile/>
   <tile/>
   <tile/>
   <tile/>
   <tile/>
   <tile/>
   <tile/>
   <tile/>
   <tile/>
   <tile/>
   <tile/>
   <tile/>
   <tile/>
   <tile/>
   <tile/>
   <tile/>
   <tile/>
   <tile/>
   <tile/>
   <tile/>
   <tile/>
   <tile/>
   <tile/>
   <tile/>
   <tile/>
   <tile/>
   <tile/>
   <tile/>
   <tile/>
   <tile/>
   <tile/>
   <tile/>
   <tile/>
   <tile/>
   <tile/>
   <tile/>
   <tile/>
   <tile/>
   <tile/>
   <tile/>
   <tile/>
   <tile/>
   <tile/>
   <tile/>
   <tile/>
   <tile/>
   <tile/>
   <tile/>
   <tile/>
   <tile/>
   <tile/>
   <tile/>
   <tile/>
   <tile/>
   <tile/>
   <tile/>
   <tile/>
   <tile/>
   <tile/>
   <tile/>
   <tile/>
   <tile/>
   <tile/>
   <tile/>
   <tile/>
   <tile/>
   <tile/>
   <tile/>
   <tile/>
   <tile/>
   <tile/>
   <tile/>
   <tile/>
   <tile/>
   <tile/>
   <tile/>
   <tile/>
   <tile/>
   <tile/>
   <tile/>
   <tile/>
   <tile/>
   <tile/>
  </data>
 </layer>
 <layer id="4" name="Map Change 2" width="23" height="18">
  <properties>
   <property name="Height" value="3"/>
   <property name="ID" value="2"/>
   <property name="Width" value="1"/>
   <property name="X" value="11"/>
   <property name="Y" value="8"/>
  </properties>
  <data>
   <tile/>
   <tile/>
   <tile/>
   <tile/>
   <tile/>
   <tile/>
   <tile/>
   <tile/>
   <tile/>
   <tile/>
   <tile/>
   <tile/>
   <tile/>
   <tile/>
   <tile/>
   <tile/>
   <tile/>
   <tile/>
   <tile/>
   <tile/>
   <tile/>
   <tile/>
   <tile/>
   <tile/>
   <tile/>
   <tile/>
   <tile/>
   <tile/>
   <tile/>
   <tile/>
   <tile/>
   <tile/>
   <tile/>
   <tile/>
   <tile/>
   <tile/>
   <tile/>
   <tile/>
   <tile/>
   <tile/>
   <tile/>
   <tile/>
   <tile/>
   <tile/>
   <tile/>
   <tile/>
   <tile/>
   <tile/>
   <tile/>
   <tile/>
   <tile/>
   <tile/>
   <tile/>
   <tile/>
   <tile/>
   <tile/>
   <tile/>
   <tile/>
   <tile/>
   <tile/>
   <tile/>
   <tile/>
   <tile/>
   <tile/>
   <tile/>
   <tile/>
   <tile/>
   <tile/>
   <tile/>
   <tile/>
   <tile/>
   <tile/>
   <tile/>
   <tile/>
   <tile/>
   <tile/>
   <tile/>
   <tile/>
   <tile/>
   <tile/>
   <tile/>
   <tile/>
   <tile/>
   <tile/>
   <tile/>
   <tile/>
   <tile/>
   <tile/>
   <tile/>
   <tile/>
   <tile/>
   <tile/>
   <tile/>
   <tile/>
   <tile/>
   <tile/>
   <tile/>
   <tile/>
   <tile/>
   <tile/>
   <tile/>
   <tile/>
   <tile/>
   <tile/>
   <tile/>
   <tile/>
   <tile/>
   <tile/>
   <tile/>
   <tile/>
   <tile/>
   <tile/>
   <tile/>
   <tile/>
   <tile/>
   <tile/>
   <tile/>
   <tile/>
   <tile/>
   <tile/>
   <tile/>
   <tile/>
   <tile/>
   <tile/>
   <tile/>
   <tile/>
   <tile/>
   <tile/>
   <tile/>
   <tile/>
   <tile/>
   <tile/>
   <tile/>
   <tile/>
   <tile/>
   <tile/>
   <tile/>
   <tile/>
   <tile/>
   <tile/>
   <tile/>
   <tile/>
   <tile/>
   <tile/>
   <tile/>
   <tile/>
   <tile/>
   <tile/>
   <tile/>
   <tile/>
   <tile/>
   <tile/>
   <tile/>
   <tile/>
   <tile/>
   <tile/>
   <tile/>
   <tile/>
   <tile/>
   <tile/>
   <tile/>
   <tile/>
   <tile/>
   <tile/>
   <tile/>
   <tile/>
   <tile/>
   <tile/>
   <tile/>
   <tile/>
   <tile/>
   <tile/>
   <tile/>
   <tile/>
   <tile/>
   <tile/>
   <tile/>
   <tile/>
   <tile/>
   <tile/>
   <tile/>
   <tile/>
   <tile/>
   <tile/>
   <tile/>
   <tile/>
   <tile/>
   <tile/>
   <tile/>
   <tile/>
   <tile/>
   <tile/>
   <tile/>
   <tile/>
   <tile/>
   <tile gid="8"/>
   <tile/>
   <tile/>
   <tile/>
   <tile/>
   <tile/>
   <tile/>
   <tile/>
   <tile/>
   <tile/>
   <tile/>
   <tile/>
   <tile/>
   <tile/>
   <tile/>
   <tile/>
   <tile/>
   <tile/>
   <tile/>
   <tile/>
   <tile/>
   <tile/>
   <tile/>
   <tile gid="40"/>
   <tile/>
   <tile/>
   <tile/>
   <tile/>
   <tile/>
   <tile/>
   <tile/>
   <tile/>
   <tile/>
   <tile/>
   <tile/>
   <tile/>
   <tile/>
   <tile/>
   <tile/>
   <tile/>
   <tile/>
   <tile/>
   <tile/>
   <tile/>
   <tile/>
   <tile/>
   <tile gid="6"/>
   <tile/>
   <tile/>
   <tile/>
   <tile/>
   <tile/>
   <tile/>
   <tile/>
   <tile/>
   <tile/>
   <tile/>
   <tile/>
   <tile/>
   <tile/>
   <tile/>
   <tile/>
   <tile/>
   <tile/>
   <tile/>
   <tile/>
   <tile/>
   <tile/>
   <tile/>
   <tile/>
   <tile/>
   <tile/>
   <tile/>
   <tile/>
   <tile/>
   <tile/>
   <tile/>
   <tile/>
   <tile/>
   <tile/>
   <tile/>
   <tile/>
   <tile/>
   <tile/>
   <tile/>
   <tile/>
   <tile/>
   <tile/>
   <tile/>
   <tile/>
   <tile/>
   <tile/>
   <tile/>
   <tile/>
   <tile/>
   <tile/>
   <tile/>
   <tile/>
   <tile/>
   <tile/>
   <tile/>
   <tile/>
   <tile/>
   <tile/>
   <tile/>
   <tile/>
   <tile/>
   <tile/>
   <tile/>
   <tile/>
   <tile/>
   <tile/>
   <tile/>
   <tile/>
   <tile/>
   <tile/>
   <tile/>
   <tile/>
   <tile/>
   <tile/>
   <tile/>
   <tile/>
   <tile/>
   <tile/>
   <tile/>
   <tile/>
   <tile/>
   <tile/>
   <tile/>
   <tile/>
   <tile/>
   <tile/>
   <tile/>
   <tile/>
   <tile/>
   <tile/>
   <tile/>
   <tile/>
   <tile/>
   <tile/>
   <tile/>
   <tile/>
   <tile/>
   <tile/>
   <tile/>
   <tile/>
   <tile/>
   <tile/>
   <tile/>
   <tile/>
   <tile/>
   <tile/>
   <tile/>
   <tile/>
   <tile/>
   <tile/>
   <tile/>
   <tile/>
   <tile/>
   <tile/>
   <tile/>
   <tile/>
   <tile/>
   <tile/>
   <tile/>
   <tile/>
   <tile/>
   <tile/>
   <tile/>
   <tile/>
   <tile/>
   <tile/>
   <tile/>
   <tile/>
   <tile/>
   <tile/>
   <tile/>
   <tile/>
   <tile/>
   <tile/>
   <tile/>
   <tile/>
   <tile/>
   <tile/>
   <tile/>
   <tile/>
   <tile/>
   <tile/>
   <tile/>
   <tile/>
   <tile/>
   <tile/>
   <tile/>
   <tile/>
   <tile/>
   <tile/>
   <tile/>
   <tile/>
   <tile/>
   <tile/>
   <tile/>
   <tile/>
   <tile/>
   <tile/>
   <tile/>
   <tile/>
   <tile/>
   <tile/>
   <tile/>
   <tile/>
   <tile/>
   <tile/>
   <tile/>
   <tile/>
   <tile/>
   <tile/>
   <tile/>
   <tile/>
   <tile/>
  </data>
 </layer>
</map>
