<?xml version="1.0" encoding="UTF-8"?>
<map version="1.10" tiledversion="1.11.2" orientation="orthogonal" renderorder="right-down" width="27" height="25" tilewidth="16" tileheight="16" infinite="0" nextlayerid="5" nextobjectid="1">
 <tileset firstgid="1" name="05001205" tilewidth="16" tileheight="16" tilecount="1024" columns="32">
  <image source="05001205.png" trans="ffffff" width="512" height="512"/>
 </tileset>
 <layer id="1" name="Tile Layer 1" width="27" height="25">
  <properties>
   <property name="Anims1" value="0xDB"/>
   <property name="Anims2" value="0x0"/>
   <property name="ChapterID" value="0x6"/>
   <property name="Main" value=""/>
   <property name="MapChangesID" value="0x20"/>
   <property name="MapID" value="0x1F"/>
   <property name="ObjectType" value="9"/>
   <property name="PaletteID" value="0xD"/>
   <property name="TileConfig" value="9"/>
  </properties>
  <data>
   <tile gid="816"/>
   <tile gid="103"/>
   <tile gid="7"/>
   <tile gid="72"/>
   <tile gid="196"/>
   <tile gid="642"/>
   <tile gid="816"/>
   <tile gid="903"/>
   <tile gid="676"/>
   <tile gid="257"/>
   <tile gid="258"/>
   <tile gid="321"/>
   <tile gid="322"/>
   <tile gid="321"/>
   <tile gid="322"/>
   <tile gid="323"/>
   <tile gid="194"/>
   <tile gid="290"/>
   <tile gid="873"/>
   <tile gid="944"/>
   <tile gid="560"/>
   <tile gid="526"/>
   <tile gid="526"/>
   <tile gid="526"/>
   <tile gid="425"/>
   <tile gid="554"/>
   <tile gid="457"/>
   <tile gid="68"/>
   <tile gid="68"/>
   <tile gid="143"/>
   <tile gid="144"/>
   <tile gid="68"/>
   <tile gid="68"/>
   <tile gid="644"/>
   <tile gid="332"/>
   <tile gid="642"/>
   <tile gid="257"/>
   <tile gid="258"/>
   <tile gid="353"/>
   <tile gid="354"/>
   <tile gid="353"/>
   <tile gid="354"/>
   <tile gid="194"/>
   <tile gid="291"/>
   <tile gid="805"/>
   <tile gid="969"/>
   <tile gid="937"/>
   <tile gid="690"/>
   <tile gid="560"/>
   <tile gid="526"/>
   <tile gid="526"/>
   <tile gid="525"/>
   <tile gid="546"/>
   <tile gid="584"/>
   <tile gid="937"/>
   <tile gid="195"/>
   <tile gid="103"/>
   <tile gid="7"/>
   <tile gid="72"/>
   <tile gid="197"/>
   <tile gid="676"/>
   <tile gid="196"/>
   <tile gid="674"/>
   <tile gid="289"/>
   <tile gid="193"/>
   <tile gid="385"/>
   <tile gid="386"/>
   <tile gid="290"/>
   <tile gid="290"/>
   <tile gid="291"/>
   <tile gid="68"/>
   <tile gid="239"/>
   <tile gid="742"/>
   <tile gid="969"/>
   <tile gid="937"/>
   <tile gid="999"/>
   <tile gid="560"/>
   <tile gid="526"/>
   <tile gid="526"/>
   <tile gid="425"/>
   <tile gid="554"/>
   <tile gid="969"/>
   <tile gid="937"/>
   <tile gid="68"/>
   <tile gid="143"/>
   <tile gid="144"/>
   <tile gid="676"/>
   <tile gid="816"/>
   <tile gid="676"/>
   <tile gid="816"/>
   <tile gid="68"/>
   <tile gid="289"/>
   <tile gid="290"/>
   <tile gid="291"/>
   <tile gid="643"/>
   <tile gid="644"/>
   <tile gid="68"/>
   <tile gid="68"/>
   <tile gid="68"/>
   <tile gid="68"/>
   <tile gid="742"/>
   <tile gid="969"/>
   <tile gid="968"/>
   <tile gid="937"/>
   <tile gid="560"/>
   <tile gid="526"/>
   <tile gid="525"/>
   <tile gid="546"/>
   <tile gid="1001"/>
   <tile gid="1007"/>
   <tile gid="816"/>
   <tile gid="103"/>
   <tile gid="104"/>
   <tile gid="644"/>
   <tile gid="676"/>
   <tile gid="196"/>
   <tile gid="68"/>
   <tile gid="68"/>
   <tile gid="68"/>
   <tile gid="196"/>
   <tile gid="643"/>
   <tile gid="644"/>
   <tile gid="643"/>
   <tile gid="642"/>
   <tile gid="816"/>
   <tile gid="68"/>
   <tile gid="68"/>
   <tile gid="816"/>
   <tile gid="742"/>
   <tile gid="741"/>
   <tile gid="1007"/>
   <tile gid="691"/>
   <tile gid="496"/>
   <tile gid="525"/>
   <tile gid="426"/>
   <tile gid="805"/>
   <tile gid="873"/>
   <tile gid="68"/>
   <tile gid="68"/>
   <tile gid="68"/>
   <tile gid="816"/>
   <tile gid="644"/>
   <tile gid="68"/>
   <tile gid="68"/>
   <tile gid="68"/>
   <tile gid="68"/>
   <tile gid="641"/>
   <tile gid="937"/>
   <tile gid="944"/>
   <tile gid="945"/>
   <tile gid="938"/>
   <tile gid="644"/>
   <tile gid="195"/>
   <tile gid="71"/>
   <tile gid="72"/>
   <tile gid="260"/>
   <tile gid="48"/>
   <tile gid="937"/>
   <tile gid="944"/>
   <tile gid="560"/>
   <tile gid="482"/>
   <tile gid="590"/>
   <tile gid="332"/>
   <tile gid="1001"/>
   <tile gid="68"/>
   <tile gid="68"/>
   <tile gid="68"/>
   <tile gid="937"/>
   <tile gid="938"/>
   <tile gid="816"/>
   <tile gid="68"/>
   <tile gid="68"/>
   <tile gid="816"/>
   <tile gid="673"/>
   <tile gid="1007"/>
   <tile gid="976"/>
   <tile gid="977"/>
   <tile gid="1008"/>
   <tile gid="903"/>
   <tile gid="642"/>
   <tile gid="143"/>
   <tile gid="7"/>
   <tile gid="72"/>
   <tile gid="68"/>
   <tile gid="742"/>
   <tile gid="937"/>
   <tile gid="196"/>
   <tile gid="143"/>
   <tile gid="144"/>
   <tile gid="68"/>
   <tile gid="816"/>
   <tile gid="68"/>
   <tile gid="68"/>
   <tile gid="68"/>
   <tile gid="742"/>
   <tile gid="741"/>
   <tile gid="68"/>
   <tile gid="68"/>
   <tile gid="68"/>
   <tile gid="740"/>
   <tile gid="643"/>
   <tile gid="104"/>
   <tile gid="68"/>
   <tile gid="903"/>
   <tile gid="938"/>
   <tile gid="332"/>
   <tile gid="674"/>
   <tile gid="103"/>
   <tile gid="7"/>
   <tile gid="144"/>
   <tile gid="68"/>
   <tile gid="816"/>
   <tile gid="1007"/>
   <tile gid="816"/>
   <tile gid="143"/>
   <tile gid="104"/>
   <tile gid="68"/>
   <tile gid="68"/>
   <tile gid="68"/>
   <tile gid="68"/>
   <tile gid="816"/>
   <tile gid="68"/>
   <tile gid="68"/>
   <tile gid="68"/>
   <tile gid="68"/>
   <tile gid="643"/>
   <tile gid="196"/>
   <tile gid="104"/>
   <tile gid="839"/>
   <tile gid="839"/>
   <tile gid="239"/>
   <tile gid="1008"/>
   <tile gid="68"/>
   <tile gid="816"/>
   <tile gid="68"/>
   <tile gid="103"/>
   <tile gid="7"/>
   <tile gid="72"/>
   <tile gid="68"/>
   <tile gid="937"/>
   <tile gid="938"/>
   <tile gid="174"/>
   <tile gid="816"/>
   <tile gid="292"/>
   <tile gid="68"/>
   <tile gid="68"/>
   <tile gid="68"/>
   <tile gid="68"/>
   <tile gid="68"/>
   <tile gid="68"/>
   <tile gid="816"/>
   <tile gid="643"/>
   <tile gid="104"/>
   <tile gid="68"/>
   <tile gid="68"/>
   <tile gid="839"/>
   <tile gid="839"/>
   <tile gid="817"/>
   <tile gid="68"/>
   <tile gid="646"/>
   <tile gid="196"/>
   <tile gid="68"/>
   <tile gid="68"/>
   <tile gid="173"/>
   <tile gid="174"/>
   <tile gid="68"/>
   <tile gid="742"/>
   <tile gid="741"/>
   <tile gid="68"/>
   <tile gid="68"/>
   <tile gid="644"/>
   <tile gid="740"/>
   <tile gid="816"/>
   <tile gid="196"/>
   <tile gid="68"/>
   <tile gid="68"/>
   <tile gid="68"/>
   <tile gid="68"/>
   <tile gid="68"/>
   <tile gid="68"/>
   <tile gid="68"/>
   <tile gid="816"/>
   <tile gid="68"/>
   <tile gid="68"/>
   <tile gid="68"/>
   <tile gid="196"/>
   <tile gid="906"/>
   <tile gid="824"/>
   <tile gid="893"/>
   <tile gid="825"/>
   <tile gid="68"/>
   <tile gid="68"/>
   <tile gid="68"/>
   <tile gid="68"/>
   <tile gid="68"/>
   <tile gid="68"/>
   <tile gid="68"/>
   <tile gid="816"/>
   <tile gid="103"/>
   <tile gid="644"/>
   <tile gid="740"/>
   <tile gid="643"/>
   <tile gid="228"/>
   <tile gid="199"/>
   <tile gid="200"/>
   <tile gid="816"/>
   <tile gid="68"/>
   <tile gid="68"/>
   <tile gid="68"/>
   <tile gid="292"/>
   <tile gid="68"/>
   <tile gid="903"/>
   <tile gid="938"/>
   <tile gid="741"/>
   <tile gid="862"/>
   <tile gid="799"/>
   <tile gid="855"/>
   <tile gid="68"/>
   <tile gid="68"/>
   <tile gid="68"/>
   <tile gid="643"/>
   <tile gid="642"/>
   <tile gid="740"/>
   <tile gid="68"/>
   <tile gid="68"/>
   <tile gid="292"/>
   <tile gid="816"/>
   <tile gid="71"/>
   <tile gid="80"/>
   <tile gid="72"/>
   <tile gid="271"/>
   <tile gid="272"/>
   <tile gid="68"/>
   <tile gid="68"/>
   <tile gid="68"/>
   <tile gid="68"/>
   <tile gid="68"/>
   <tile gid="816"/>
   <tile gid="938"/>
   <tile gid="741"/>
   <tile gid="824"/>
   <tile gid="830"/>
   <tile gid="799"/>
   <tile gid="854"/>
   <tile gid="68"/>
   <tile gid="260"/>
   <tile gid="643"/>
   <tile gid="903"/>
   <tile gid="816"/>
   <tile gid="68"/>
   <tile gid="642"/>
   <tile gid="68"/>
   <tile gid="71"/>
   <tile gid="80"/>
   <tile gid="7"/>
   <tile gid="7"/>
   <tile gid="144"/>
   <tile gid="231"/>
   <tile gid="402"/>
   <tile gid="200"/>
   <tile gid="68"/>
   <tile gid="68"/>
   <tile gid="944"/>
   <tile gid="945"/>
   <tile gid="68"/>
   <tile gid="1008"/>
   <tile gid="926"/>
   <tile gid="799"/>
   <tile gid="799"/>
   <tile gid="854"/>
   <tile gid="816"/>
   <tile gid="740"/>
   <tile gid="643"/>
   <tile gid="68"/>
   <tile gid="239"/>
   <tile gid="68"/>
   <tile gid="68"/>
   <tile gid="292"/>
   <tile gid="80"/>
   <tile gid="7"/>
   <tile gid="7"/>
   <tile gid="7"/>
   <tile gid="112"/>
   <tile gid="104"/>
   <tile gid="938"/>
   <tile gid="18"/>
   <tile gid="20"/>
   <tile gid="937"/>
   <tile gid="196"/>
   <tile gid="976"/>
   <tile gid="977"/>
   <tile gid="999"/>
   <tile gid="906"/>
   <tile gid="821"/>
   <tile gid="799"/>
   <tile gid="855"/>
   <tile gid="68"/>
   <tile gid="68"/>
   <tile gid="937"/>
   <tile gid="816"/>
   <tile gid="68"/>
   <tile gid="68"/>
   <tile gid="68"/>
   <tile gid="68"/>
   <tile gid="68"/>
   <tile gid="7"/>
   <tile gid="7"/>
   <tile gid="112"/>
   <tile gid="104"/>
   <tile gid="195"/>
   <tile gid="816"/>
   <tile gid="1008"/>
   <tile gid="50"/>
   <tile gid="52"/>
   <tile gid="742"/>
   <tile gid="937"/>
   <tile gid="999"/>
   <tile gid="938"/>
   <tile gid="741"/>
   <tile gid="773"/>
   <tile gid="856"/>
   <tile gid="925"/>
   <tile gid="857"/>
   <tile gid="68"/>
   <tile gid="68"/>
   <tile gid="1007"/>
   <tile gid="195"/>
   <tile gid="906"/>
   <tile gid="68"/>
   <tile gid="68"/>
   <tile gid="816"/>
   <tile gid="68"/>
   <tile gid="112"/>
   <tile gid="104"/>
   <tile gid="71"/>
   <tile gid="597"/>
   <tile gid="604"/>
   <tile gid="631"/>
   <tile gid="938"/>
   <tile gid="68"/>
   <tile gid="68"/>
   <tile gid="68"/>
   <tile gid="742"/>
   <tile gid="741"/>
   <tile gid="741"/>
   <tile gid="479"/>
   <tile gid="408"/>
   <tile gid="511"/>
   <tile gid="407"/>
   <tile gid="479"/>
   <tile gid="68"/>
   <tile gid="68"/>
   <tile gid="937"/>
   <tile gid="874"/>
   <tile gid="741"/>
   <tile gid="68"/>
   <tile gid="68"/>
   <tile gid="68"/>
   <tile gid="68"/>
   <tile gid="68"/>
   <tile gid="944"/>
   <tile gid="945"/>
   <tile gid="600"/>
   <tile gid="672"/>
   <tile gid="599"/>
   <tile gid="1008"/>
   <tile gid="848"/>
   <tile gid="850"/>
   <tile gid="68"/>
   <tile gid="68"/>
   <tile gid="292"/>
   <tile gid="501"/>
   <tile gid="481"/>
   <tile gid="416"/>
   <tile gid="414"/>
   <tile gid="414"/>
   <tile gid="416"/>
   <tile gid="407"/>
   <tile gid="68"/>
   <tile gid="742"/>
   <tile gid="741"/>
   <tile gid="104"/>
   <tile gid="68"/>
   <tile gid="643"/>
   <tile gid="68"/>
   <tile gid="68"/>
   <tile gid="292"/>
   <tile gid="976"/>
   <tile gid="977"/>
   <tile gid="938"/>
   <tile gid="565"/>
   <tile gid="937"/>
   <tile gid="938"/>
   <tile gid="881"/>
   <tile gid="881"/>
   <tile gid="850"/>
   <tile gid="68"/>
   <tile gid="68"/>
   <tile gid="438"/>
   <tile gid="413"/>
   <tile gid="416"/>
   <tile gid="13"/>
   <tile gid="43"/>
   <tile gid="416"/>
   <tile gid="437"/>
   <tile gid="68"/>
   <tile gid="68"/>
   <tile gid="68"/>
   <tile gid="68"/>
   <tile gid="641"/>
   <tile gid="228"/>
   <tile gid="68"/>
   <tile gid="68"/>
   <tile gid="937"/>
   <tile gid="999"/>
   <tile gid="938"/>
   <tile gid="741"/>
   <tile gid="601"/>
   <tile gid="742"/>
   <tile gid="741"/>
   <tile gid="881"/>
   <tile gid="880"/>
   <tile gid="880"/>
   <tile gid="850"/>
   <tile gid="68"/>
   <tile gid="68"/>
   <tile gid="260"/>
   <tile gid="376"/>
   <tile gid="382"/>
   <tile gid="416"/>
   <tile gid="437"/>
   <tile gid="68"/>
   <tile gid="68"/>
   <tile gid="68"/>
   <tile gid="68"/>
   <tile gid="816"/>
   <tile gid="675"/>
   <tile gid="816"/>
   <tile gid="68"/>
   <tile gid="68"/>
   <tile gid="742"/>
   <tile gid="779"/>
   <tile gid="780"/>
   <tile gid="781"/>
   <tile gid="601"/>
   <tile gid="260"/>
   <tile gid="880"/>
   <tile gid="880"/>
   <tile gid="880"/>
   <tile gid="912"/>
   <tile gid="881"/>
   <tile gid="849"/>
   <tile gid="850"/>
   <tile gid="68"/>
   <tile gid="68"/>
   <tile gid="447"/>
   <tile gid="447"/>
   <tile gid="816"/>
   <tile gid="68"/>
   <tile gid="68"/>
   <tile gid="68"/>
   <tile gid="68"/>
   <tile gid="740"/>
   <tile gid="643"/>
   <tile gid="68"/>
   <tile gid="68"/>
   <tile gid="816"/>
   <tile gid="292"/>
   <tile gid="843"/>
   <tile gid="844"/>
   <tile gid="845"/>
   <tile gid="600"/>
   <tile gid="631"/>
   <tile gid="913"/>
   <tile gid="914"/>
   <tile gid="71"/>
   <tile gid="72"/>
   <tile gid="912"/>
   <tile gid="881"/>
   <tile gid="881"/>
   <tile gid="850"/>
   <tile gid="68"/>
   <tile gid="68"/>
   <tile gid="68"/>
   <tile gid="68"/>
   <tile gid="68"/>
   <tile gid="68"/>
   <tile gid="196"/>
   <tile gid="643"/>
   <tile gid="816"/>
   <tile gid="68"/>
   <tile gid="68"/>
   <tile gid="68"/>
   <tile gid="68"/>
   <tile gid="68"/>
   <tile gid="68"/>
   <tile gid="332"/>
   <tile gid="68"/>
   <tile gid="103"/>
   <tile gid="600"/>
   <tile gid="571"/>
   <tile gid="598"/>
   <tile gid="7"/>
   <tile gid="7"/>
   <tile gid="72"/>
   <tile gid="912"/>
   <tile gid="881"/>
   <tile gid="881"/>
   <tile gid="850"/>
   <tile gid="228"/>
   <tile gid="68"/>
   <tile gid="68"/>
   <tile gid="68"/>
   <tile gid="68"/>
   <tile gid="816"/>
   <tile gid="937"/>
   <tile gid="805"/>
   <tile gid="195"/>
   <tile gid="68"/>
   <tile gid="68"/>
   <tile gid="68"/>
   <tile gid="68"/>
   <tile gid="68"/>
   <tile gid="68"/>
   <tile gid="68"/>
   <tile gid="816"/>
   <tile gid="103"/>
   <tile gid="112"/>
   <tile gid="601"/>
   <tile gid="36"/>
   <tile gid="7"/>
   <tile gid="7"/>
   <tile gid="72"/>
   <tile gid="880"/>
   <tile gid="881"/>
   <tile gid="881"/>
   <tile gid="850"/>
   <tile gid="68"/>
   <tile gid="68"/>
   <tile gid="68"/>
   <tile gid="68"/>
   <tile gid="68"/>
   <tile gid="742"/>
   <tile gid="937"/>
   <tile gid="816"/>
   <tile gid="68"/>
   <tile gid="68"/>
   <tile gid="68"/>
   <tile gid="816"/>
   <tile gid="68"/>
   <tile gid="68"/>
   <tile gid="68"/>
   <tile gid="68"/>
   <tile gid="68"/>
   <tile gid="292"/>
   <tile gid="600"/>
   <tile gid="598"/>
   <tile gid="7"/>
   <tile gid="7"/>
   <tile gid="7"/>
   <tile gid="912"/>
   <tile gid="881"/>
   <tile gid="881"/>
   <tile gid="881"/>
   <tile gid="850"/>
   <tile gid="68"/>
   <tile gid="816"/>
   <tile gid="68"/>
   <tile gid="68"/>
   <tile gid="260"/>
   <tile gid="742"/>
   <tile gid="937"/>
   <tile gid="68"/>
   <tile gid="292"/>
   <tile gid="816"/>
  </data>
 </layer>
 <layer id="2" name="Map Change 0" width="27" height="25">
  <properties>
   <property name="Height" value="2"/>
   <property name="ID" value="0"/>
   <property name="Width" value="3"/>
   <property name="X" value="1"/>
   <property name="Y" value="20"/>
  </properties>
  <data>
   <tile/>
   <tile/>
   <tile/>
   <tile/>
   <tile/>
   <tile/>
   <tile/>
   <tile/>
   <tile/>
   <tile/>
   <tile/>
   <tile/>
   <tile/>
   <tile/>
   <tile/>
   <tile/>
   <tile/>
   <tile/>
   <tile/>
   <tile/>
   <tile/>
   <tile/>
   <tile/>
   <tile/>
   <tile/>
   <tile/>
   <tile/>
   <tile/>
   <tile/>
   <tile/>
   <tile/>
   <tile/>
   <tile/>
   <tile/>
   <tile/>
   <tile/>
   <tile/>
   <tile/>
   <tile/>
   <tile/>
   <tile/>
   <tile/>
   <tile/>
   <tile/>
   <tile/>
   <tile/>
   <tile/>
   <tile/>
   <tile/>
   <tile/>
   <tile/>
   <tile/>
   <tile/>
   <tile/>
   <tile/>
   <tile/>
   <tile/>
   <tile/>
   <tile/>
   <tile/>
   <tile/>
   <tile/>
   <tile/>
   <tile/>
   <tile/>
   <tile/>
   <tile/>
   <tile/>
   <tile/>
   <tile/>
   <tile/>
   <tile/>
   <tile/>
   <tile/>
   <tile/>
   <tile/>
   <tile/>
   <tile/>
   <tile/>
   <tile/>
   <tile/>
   <tile/>
   <tile/>
   <tile/>
   <tile/>
   <tile/>
   <tile/>
   <tile/>
   <tile/>
   <tile/>
   <tile/>
   <tile/>
   <tile/>
   <tile/>
   <tile/>
   <tile/>
   <tile/>
   <tile/>
   <tile/>
   <tile/>
   <tile/>
   <tile/>
   <tile/>
   <tile/>
   <tile/>
   <tile/>
   <tile/>
   <tile/>
   <tile/>
   <tile/>
   <tile/>
   <tile/>
   <tile/>
   <tile/>
   <tile/>
   <tile/>
   <tile/>
   <tile/>
   <tile/>
   <tile/>
   <tile/>
   <tile/>
   <tile/>
   <tile/>
   <tile/>
   <tile/>
   <tile/>
   <tile/>
   <tile/>
   <tile/>
   <tile/>
   <tile/>
   <tile/>
   <tile/>
   <tile/>
   <tile/>
   <tile/>
   <tile/>
   <tile/>
   <tile/>
   <tile/>
   <tile/>
   <tile/>
   <tile/>
   <tile/>
   <tile/>
   <tile/>
   <tile/>
   <tile/>
   <tile/>
   <tile/>
   <tile/>
   <tile/>
   <tile/>
   <tile/>
   <tile/>
   <tile/>
   <tile/>
   <tile/>
   <tile/>
   <tile/>
   <tile/>
   <tile/>
   <tile/>
   <tile/>
   <tile/>
   <tile/>
   <tile/>
   <tile/>
   <tile/>
   <tile/>
   <tile/>
   <tile/>
   <tile/>
   <tile/>
   <tile/>
   <tile/>
   <tile/>
   <tile/>
   <tile/>
   <tile/>
   <tile/>
   <tile/>
   <tile/>
   <tile/>
   <tile/>
   <tile/>
   <tile/>
   <tile/>
   <tile/>
   <tile/>
   <tile/>
   <tile/>
   <tile/>
   <tile/>
   <tile/>
   <tile/>
   <tile/>
   <tile/>
   <tile/>
   <tile/>
   <tile/>
   <tile/>
   <tile/>
   <tile/>
   <tile/>
   <tile/>
   <tile/>
   <tile/>
   <tile/>
   <tile/>
   <tile/>
   <tile/>
   <tile/>
   <tile/>
   <tile/>
   <tile/>
   <tile/>
   <tile/>
   <tile/>
   <tile/>
   <tile/>
   <tile/>
   <tile/>
   <tile/>
   <tile/>
   <tile/>
   <tile/>
   <tile/>
   <tile/>
   <tile/>
   <tile/>
   <tile/>
   <tile/>
   <tile/>
   <tile/>
   <tile/>
   <tile/>
   <tile/>
   <tile/>
   <tile/>
   <tile/>
   <tile/>
   <tile/>
   <tile/>
   <tile/>
   <tile/>
   <tile/>
   <tile/>
   <tile/>
   <tile/>
   <tile/>
   <tile/>
   <tile/>
   <tile/>
   <tile/>
   <tile/>
   <tile/>
   <tile/>
   <tile/>
   <tile/>
   <tile/>
   <tile/>
   <tile/>
   <tile/>
   <tile/>
   <tile/>
   <tile/>
   <tile/>
   <tile/>
   <tile/>
   <tile/>
   <tile/>
   <tile/>
   <tile/>
   <tile/>
   <tile/>
   <tile/>
   <tile/>
   <tile/>
   <tile/>
   <tile/>
   <tile/>
   <tile/>
   <tile/>
   <tile/>
   <tile/>
   <tile/>
   <tile/>
   <tile/>
   <tile/>
   <tile/>
   <tile/>
   <tile/>
   <tile/>
   <tile/>
   <tile/>
   <tile/>
   <tile/>
   <tile/>
   <tile/>
   <tile/>
   <tile/>
   <tile/>
   <tile/>
   <tile/>
   <tile/>
   <tile/>
   <tile/>
   <tile/>
   <tile/>
   <tile/>
   <tile/>
   <tile/>
   <tile/>
   <tile/>
   <tile/>
   <tile/>
   <tile/>
   <tile/>
   <tile/>
   <tile/>
   <tile/>
   <tile/>
   <tile/>
   <tile/>
   <tile/>
   <tile/>
   <tile/>
   <tile/>
   <tile/>
   <tile/>
   <tile/>
   <tile/>
   <tile/>
   <tile/>
   <tile/>
   <tile/>
   <tile/>
   <tile/>
   <tile/>
   <tile/>
   <tile/>
   <tile/>
   <tile/>
   <tile/>
   <tile/>
   <tile/>
   <tile/>
   <tile/>
   <tile/>
   <tile/>
   <tile/>
   <tile/>
   <tile/>
   <tile/>
   <tile/>
   <tile/>
   <tile/>
   <tile/>
   <tile/>
   <tile/>
   <tile/>
   <tile/>
   <tile/>
   <tile/>
   <tile/>
   <tile/>
   <tile/>
   <tile/>
   <tile/>
   <tile/>
   <tile/>
   <tile/>
   <tile/>
   <tile/>
   <tile/>
   <tile/>
   <tile/>
   <tile/>
   <tile/>
   <tile/>
   <tile/>
   <tile/>
   <tile/>
   <tile/>
   <tile/>
   <tile/>
   <tile/>
   <tile/>
   <tile/>
   <tile/>
   <tile/>
   <tile/>
   <tile/>
   <tile/>
   <tile/>
   <tile/>
   <tile/>
   <tile/>
   <tile/>
   <tile/>
   <tile/>
   <tile/>
   <tile/>
   <tile/>
   <tile/>
   <tile/>
   <tile/>
   <tile/>
   <tile/>
   <tile/>
   <tile/>
   <tile/>
   <tile/>
   <tile/>
   <tile/>
   <tile/>
   <tile/>
   <tile/>
   <tile/>
   <tile/>
   <tile/>
   <tile/>
   <tile/>
   <tile/>
   <tile/>
   <tile/>
   <tile/>
   <tile/>
   <tile/>
   <tile/>
   <tile/>
   <tile/>
   <tile/>
   <tile/>
   <tile/>
   <tile/>
   <tile/>
   <tile/>
   <tile/>
   <tile/>
   <tile/>
   <tile/>
   <tile/>
   <tile/>
   <tile/>
   <tile/>
   <tile/>
   <tile/>
   <tile/>
   <tile/>
   <tile/>
   <tile/>
   <tile/>
   <tile/>
   <tile/>
   <tile/>
   <tile/>
   <tile/>
   <tile/>
   <tile/>
   <tile/>
   <tile/>
   <tile/>
   <tile/>
   <tile/>
   <tile/>
   <tile/>
   <tile/>
   <tile/>
   <tile/>
   <tile/>
   <tile/>
   <tile/>
   <tile/>
   <tile/>
   <tile/>
   <tile/>
   <tile/>
   <tile/>
   <tile/>
   <tile/>
   <tile/>
   <tile/>
   <tile/>
   <tile/>
   <tile/>
   <tile/>
   <tile/>
   <tile/>
   <tile/>
   <tile/>
   <tile/>
   <tile/>
   <tile/>
   <tile/>
   <tile/>
   <tile/>
   <tile/>
   <tile/>
   <tile/>
   <tile/>
   <tile/>
   <tile/>
   <tile/>
   <tile/>
   <tile/>
   <tile/>
   <tile/>
   <tile/>
   <tile/>
   <tile/>
   <tile/>
   <tile/>
   <tile/>
   <tile/>
   <tile/>
   <tile/>
   <tile/>
   <tile/>
   <tile/>
   <tile/>
   <tile/>
   <tile/>
   <tile/>
   <tile/>
   <tile/>
   <tile/>
   <tile/>
   <tile/>
   <tile/>
   <tile/>
   <tile/>
   <tile/>
   <tile/>
   <tile/>
   <tile/>
   <tile/>
   <tile/>
   <tile/>
   <tile gid="776"/>
   <tile gid="777"/>
   <tile gid="778"/>
   <tile/>
   <tile/>
   <tile/>
   <tile/>
   <tile/>
   <tile/>
   <tile/>
   <tile/>
   <tile/>
   <tile/>
   <tile/>
   <tile/>
   <tile/>
   <tile/>
   <tile/>
   <tile/>
   <tile/>
   <tile/>
   <tile/>
   <tile/>
   <tile/>
   <tile/>
   <tile/>
   <tile/>
   <tile gid="840"/>
   <tile gid="841"/>
   <tile gid="842"/>
   <tile/>
   <tile/>
   <tile/>
   <tile/>
   <tile/>
   <tile/>
   <tile/>
   <tile/>
   <tile/>
   <tile/>
   <tile/>
   <tile/>
   <tile/>
   <tile/>
   <tile/>
   <tile/>
   <tile/>
   <tile/>
   <tile/>
   <tile/>
   <tile/>
   <tile/>
   <tile/>
   <tile/>
   <tile/>
   <tile/>
   <tile/>
   <tile/>
   <tile/>
   <tile/>
   <tile/>
   <tile/>
   <tile/>
   <tile/>
   <tile/>
   <tile/>
   <tile/>
   <tile/>
   <tile/>
   <tile/>
   <tile/>
   <tile/>
   <tile/>
   <tile/>
   <tile/>
   <tile/>
   <tile/>
   <tile/>
   <tile/>
   <tile/>
   <tile/>
   <tile/>
   <tile/>
   <tile/>
   <tile/>
   <tile/>
   <tile/>
   <tile/>
   <tile/>
   <tile/>
   <tile/>
   <tile/>
   <tile/>
   <tile/>
   <tile/>
   <tile/>
   <tile/>
   <tile/>
   <tile/>
   <tile/>
   <tile/>
   <tile/>
   <tile/>
   <tile/>
   <tile/>
   <tile/>
   <tile/>
   <tile/>
   <tile/>
   <tile/>
   <tile/>
   <tile/>
   <tile/>
   <tile/>
   <tile/>
   <tile/>
   <tile/>
   <tile/>
   <tile/>
   <tile/>
   <tile/>
   <tile/>
   <tile/>
   <tile/>
   <tile/>
   <tile/>
   <tile/>
   <tile/>
   <tile/>
   <tile/>
   <tile/>
   <tile/>
   <tile/>
   <tile/>
  </data>
 </layer>
 <layer id="3" name="Map Change 1" width="27" height="25">
  <properties>
   <property name="Height" value="1"/>
   <property name="ID" value="1"/>
   <property name="Width" value="1"/>
   <property name="X" value="2"/>
   <property name="Y" value="21"/>
  </properties>
  <data>
   <tile/>
   <tile/>
   <tile/>
   <tile/>
   <tile/>
   <tile/>
   <tile/>
   <tile/>
   <tile/>
   <tile/>
   <tile/>
   <tile/>
   <tile/>
   <tile/>
   <tile/>
   <tile/>
   <tile/>
   <tile/>
   <tile/>
   <tile/>
   <tile/>
   <tile/>
   <tile/>
   <tile/>
   <tile/>
   <tile/>
   <tile/>
   <tile/>
   <tile/>
   <tile/>
   <tile/>
   <tile/>
   <tile/>
   <tile/>
   <tile/>
   <tile/>
   <tile/>
   <tile/>
   <tile/>
   <tile/>
   <tile/>
   <tile/>
   <tile/>
   <tile/>
   <tile/>
   <tile/>
   <tile/>
   <tile/>
   <tile/>
   <tile/>
   <tile/>
   <tile/>
   <tile/>
   <tile/>
   <tile/>
   <tile/>
   <tile/>
   <tile/>
   <tile/>
   <tile/>
   <tile/>
   <tile/>
   <tile/>
   <tile/>
   <tile/>
   <tile/>
   <tile/>
   <tile/>
   <tile/>
   <tile/>
   <tile/>
   <tile/>
   <tile/>
   <tile/>
   <tile/>
   <tile/>
   <tile/>
   <tile/>
   <tile/>
   <tile/>
   <tile/>
   <tile/>
   <tile/>
   <tile/>
   <tile/>
   <tile/>
   <tile/>
   <tile/>
   <tile/>
   <tile/>
   <tile/>
   <tile/>
   <tile/>
   <tile/>
   <tile/>
   <tile/>
   <tile/>
   <tile/>
   <tile/>
   <tile/>
   <tile/>
   <tile/>
   <tile/>
   <tile/>
   <tile/>
   <tile/>
   <tile/>
   <tile/>
   <tile/>
   <tile/>
   <tile/>
   <tile/>
   <tile/>
   <tile/>
   <tile/>
   <tile/>
   <tile/>
   <tile/>
   <tile/>
   <tile/>
   <tile/>
   <tile/>
   <tile/>
   <tile/>
   <tile/>
   <tile/>
   <tile/>
   <tile/>
   <tile/>
   <tile/>
   <tile/>
   <tile/>
   <tile/>
   <tile/>
   <tile/>
   <tile/>
   <tile/>
   <tile/>
   <tile/>
   <tile/>
   <tile/>
   <tile/>
   <tile/>
   <tile/>
   <tile/>
   <tile/>
   <tile/>
   <tile/>
   <tile/>
   <tile/>
   <tile/>
   <tile/>
   <tile/>
   <tile/>
   <tile/>
   <tile/>
   <tile/>
   <tile/>
   <tile/>
   <tile/>
   <tile/>
   <tile/>
   <tile/>
   <tile/>
   <tile/>
   <tile/>
   <tile/>
   <tile/>
   <tile/>
   <tile/>
   <tile/>
   <tile/>
   <tile/>
   <tile/>
   <tile/>
   <tile/>
   <tile/>
   <tile/>
   <tile/>
   <tile/>
   <tile/>
   <tile/>
   <tile/>
   <tile/>
   <tile/>
   <tile/>
   <tile/>
   <tile/>
   <tile/>
   <tile/>
   <tile/>
   <tile/>
   <tile/>
   <tile/>
   <tile/>
   <tile/>
   <tile/>
   <tile/>
   <tile/>
   <tile/>
   <tile/>
   <tile/>
   <tile/>
   <tile/>
   <tile/>
   <tile/>
   <tile/>
   <tile/>
   <tile/>
   <tile/>
   <tile/>
   <tile/>
   <tile/>
   <tile/>
   <tile/>
   <tile/>
   <tile/>
   <tile/>
   <tile/>
   <tile/>
   <tile/>
   <tile/>
   <tile/>
   <tile/>
   <tile/>
   <tile/>
   <tile/>
   <tile/>
   <tile/>
   <tile/>
   <tile/>
   <tile/>
   <tile/>
   <tile/>
   <tile/>
   <tile/>
   <tile/>
   <tile/>
   <tile/>
   <tile/>
   <tile/>
   <tile/>
   <tile/>
   <tile/>
   <tile/>
   <tile/>
   <tile/>
   <tile/>
   <tile/>
   <tile/>
   <tile/>
   <tile/>
   <tile/>
   <tile/>
   <tile/>
   <tile/>
   <tile/>
   <tile/>
   <tile/>
   <tile/>
   <tile/>
   <tile/>
   <tile/>
   <tile/>
   <tile/>
   <tile/>
   <tile/>
   <tile/>
   <tile/>
   <tile/>
   <tile/>
   <tile/>
   <tile/>
   <tile/>
   <tile/>
   <tile/>
   <tile/>
   <tile/>
   <tile/>
   <tile/>
   <tile/>
   <tile/>
   <tile/>
   <tile/>
   <tile/>
   <tile/>
   <tile/>
   <tile/>
   <tile/>
   <tile/>
   <tile/>
   <tile/>
   <tile/>
   <tile/>
   <tile/>
   <tile/>
   <tile/>
   <tile/>
   <tile/>
   <tile/>
   <tile/>
   <tile/>
   <tile/>
   <tile/>
   <tile/>
   <tile/>
   <tile/>
   <tile/>
   <tile/>
   <tile/>
   <tile/>
   <tile/>
   <tile/>
   <tile/>
   <tile/>
   <tile/>
   <tile/>
   <tile/>
   <tile/>
   <tile/>
   <tile/>
   <tile/>
   <tile/>
   <tile/>
   <tile/>
   <tile/>
   <tile/>
   <tile/>
   <tile/>
   <tile/>
   <tile/>
   <tile/>
   <tile/>
   <tile/>
   <tile/>
   <tile/>
   <tile/>
   <tile/>
   <tile/>
   <tile/>
   <tile/>
   <tile/>
   <tile/>
   <tile/>
   <tile/>
   <tile/>
   <tile/>
   <tile/>
   <tile/>
   <tile/>
   <tile/>
   <tile/>
   <tile/>
   <tile/>
   <tile/>
   <tile/>
   <tile/>
   <tile/>
   <tile/>
   <tile/>
   <tile/>
   <tile/>
   <tile/>
   <tile/>
   <tile/>
   <tile/>
   <tile/>
   <tile/>
   <tile/>
   <tile/>
   <tile/>
   <tile/>
   <tile/>
   <tile/>
   <tile/>
   <tile/>
   <tile/>
   <tile/>
   <tile/>
   <tile/>
   <tile/>
   <tile/>
   <tile/>
   <tile/>
   <tile/>
   <tile/>
   <tile/>
   <tile/>
   <tile/>
   <tile/>
   <tile/>
   <tile/>
   <tile/>
   <tile/>
   <tile/>
   <tile/>
   <tile/>
   <tile/>
   <tile/>
   <tile/>
   <tile/>
   <tile/>
   <tile/>
   <tile/>
   <tile/>
   <tile/>
   <tile/>
   <tile/>
   <tile/>
   <tile/>
   <tile/>
   <tile/>
   <tile/>
   <tile/>
   <tile/>
   <tile/>
   <tile/>
   <tile/>
   <tile/>
   <tile/>
   <tile/>
   <tile/>
   <tile/>
   <tile/>
   <tile/>
   <tile/>
   <tile/>
   <tile/>
   <tile/>
   <tile/>
   <tile/>
   <tile/>
   <tile/>
   <tile/>
   <tile/>
   <tile/>
   <tile/>
   <tile/>
   <tile/>
   <tile/>
   <tile/>
   <tile/>
   <tile/>
   <tile/>
   <tile/>
   <tile/>
   <tile/>
   <tile/>
   <tile/>
   <tile/>
   <tile/>
   <tile/>
   <tile/>
   <tile/>
   <tile/>
   <tile/>
   <tile/>
   <tile/>
   <tile/>
   <tile/>
   <tile/>
   <tile/>
   <tile/>
   <tile/>
   <tile/>
   <tile/>
   <tile/>
   <tile/>
   <tile/>
   <tile/>
   <tile/>
   <tile/>
   <tile/>
   <tile/>
   <tile/>
   <tile/>
   <tile/>
   <tile/>
   <tile/>
   <tile/>
   <tile/>
   <tile/>
   <tile/>
   <tile/>
   <tile/>
   <tile/>
   <tile/>
   <tile/>
   <tile/>
   <tile/>
   <tile/>
   <tile/>
   <tile/>
   <tile/>
   <tile/>
   <tile/>
   <tile/>
   <tile/>
   <tile/>
   <tile/>
   <tile/>
   <tile/>
   <tile/>
   <tile/>
   <tile/>
   <tile/>
   <tile/>
   <tile/>
   <tile/>
   <tile/>
   <tile/>
   <tile/>
   <tile/>
   <tile/>
   <tile/>
   <tile/>
   <tile/>
   <tile/>
   <tile/>
   <tile/>
   <tile/>
   <tile/>
   <tile/>
   <tile/>
   <tile/>
   <tile/>
   <tile/>
   <tile/>
   <tile/>
   <tile/>
   <tile/>
   <tile/>
   <tile/>
   <tile/>
   <tile/>
   <tile/>
   <tile/>
   <tile/>
   <tile/>
   <tile/>
   <tile/>
   <tile/>
   <tile/>
   <tile/>
   <tile/>
   <tile/>
   <tile/>
   <tile/>
   <tile/>
   <tile/>
   <tile/>
   <tile/>
   <tile/>
   <tile/>
   <tile/>
   <tile/>
   <tile/>
   <tile/>
   <tile/>
   <tile/>
   <tile/>
   <tile/>
   <tile/>
   <tile/>
   <tile/>
   <tile/>
   <tile/>
   <tile/>
   <tile/>
   <tile gid="33"/>
   <tile/>
   <tile/>
   <tile/>
   <tile/>
   <tile/>
   <tile/>
   <tile/>
   <tile/>
   <tile/>
   <tile/>
   <tile/>
   <tile/>
   <tile/>
   <tile/>
   <tile/>
   <tile/>
   <tile/>
   <tile/>
   <tile/>
   <tile/>
   <tile/>
   <tile/>
   <tile/>
   <tile/>
   <tile/>
   <tile/>
   <tile/>
   <tile/>
   <tile/>
   <tile/>
   <tile/>
   <tile/>
   <tile/>
   <tile/>
   <tile/>
   <tile/>
   <tile/>
   <tile/>
   <tile/>
   <tile/>
   <tile/>
   <tile/>
   <tile/>
   <tile/>
   <tile/>
   <tile/>
   <tile/>
   <tile/>
   <tile/>
   <tile/>
   <tile/>
   <tile/>
   <tile/>
   <tile/>
   <tile/>
   <tile/>
   <tile/>
   <tile/>
   <tile/>
   <tile/>
   <tile/>
   <tile/>
   <tile/>
   <tile/>
   <tile/>
   <tile/>
   <tile/>
   <tile/>
   <tile/>
   <tile/>
   <tile/>
   <tile/>
   <tile/>
   <tile/>
   <tile/>
   <tile/>
   <tile/>
   <tile/>
   <tile/>
   <tile/>
   <tile/>
   <tile/>
   <tile/>
   <tile/>
   <tile/>
   <tile/>
   <tile/>
   <tile/>
   <tile/>
   <tile/>
   <tile/>
   <tile/>
   <tile/>
   <tile/>
   <tile/>
   <tile/>
   <tile/>
   <tile/>
   <tile/>
   <tile/>
   <tile/>
   <tile/>
   <tile/>
   <tile/>
   <tile/>
  </data>
 </layer>
 <layer id="4" name="Map Change 2" width="27" height="25">
  <properties>
   <property name="Height" value="1"/>
   <property name="ID" value="2"/>
   <property name="Width" value="3"/>
   <property name="X" value="6"/>
   <property name="Y" value="23"/>
  </properties>
  <data>
   <tile/>
   <tile/>
   <tile/>
   <tile/>
   <tile/>
   <tile/>
   <tile/>
   <tile/>
   <tile/>
   <tile/>
   <tile/>
   <tile/>
   <tile/>
   <tile/>
   <tile/>
   <tile/>
   <tile/>
   <tile/>
   <tile/>
   <tile/>
   <tile/>
   <tile/>
   <tile/>
   <tile/>
   <tile/>
   <tile/>
   <tile/>
   <tile/>
   <tile/>
   <tile/>
   <tile/>
   <tile/>
   <tile/>
   <tile/>
   <tile/>
   <tile/>
   <tile/>
   <tile/>
   <tile/>
   <tile/>
   <tile/>
   <tile/>
   <tile/>
   <tile/>
   <tile/>
   <tile/>
   <tile/>
   <tile/>
   <tile/>
   <tile/>
   <tile/>
   <tile/>
   <tile/>
   <tile/>
   <tile/>
   <tile/>
   <tile/>
   <tile/>
   <tile/>
   <tile/>
   <tile/>
   <tile/>
   <tile/>
   <tile/>
   <tile/>
   <tile/>
   <tile/>
   <tile/>
   <tile/>
   <tile/>
   <tile/>
   <tile/>
   <tile/>
   <tile/>
   <tile/>
   <tile/>
   <tile/>
   <tile/>
   <tile/>
   <tile/>
   <tile/>
   <tile/>
   <tile/>
   <tile/>
   <tile/>
   <tile/>
   <tile/>
   <tile/>
   <tile/>
   <tile/>
   <tile/>
   <tile/>
   <tile/>
   <tile/>
   <tile/>
   <tile/>
   <tile/>
   <tile/>
   <tile/>
   <tile/>
   <tile/>
   <tile/>
   <tile/>
   <tile/>
   <tile/>
   <tile/>
   <tile/>
   <tile/>
   <tile/>
   <tile/>
   <tile/>
   <tile/>
   <tile/>
   <tile/>
   <tile/>
   <tile/>
   <tile/>
   <tile/>
   <tile/>
   <tile/>
   <tile/>
   <tile/>
   <tile/>
   <tile/>
   <tile/>
   <tile/>
   <tile/>
   <tile/>
   <tile/>
   <tile/>
   <tile/>
   <tile/>
   <tile/>
   <tile/>
   <tile/>
   <tile/>
   <tile/>
   <tile/>
   <tile/>
   <tile/>
   <tile/>
   <tile/>
   <tile/>
   <tile/>
   <tile/>
   <tile/>
   <tile/>
   <tile/>
   <tile/>
   <tile/>
   <tile/>
   <tile/>
   <tile/>
   <tile/>
   <tile/>
   <tile/>
   <tile/>
   <tile/>
   <tile/>
   <tile/>
   <tile/>
   <tile/>
   <tile/>
   <tile/>
   <tile/>
   <tile/>
   <tile/>
   <tile/>
   <tile/>
   <tile/>
   <tile/>
   <tile/>
   <tile/>
   <tile/>
   <tile/>
   <tile/>
   <tile/>
   <tile/>
   <tile/>
   <tile/>
   <tile/>
   <tile/>
   <tile/>
   <tile/>
   <tile/>
   <tile/>
   <tile/>
   <tile/>
   <tile/>
   <tile/>
   <tile/>
   <tile/>
   <tile/>
   <tile/>
   <tile/>
   <tile/>
   <tile/>
   <tile/>
   <tile/>
   <tile/>
   <tile/>
   <tile/>
   <tile/>
   <tile/>
   <tile/>
   <tile/>
   <tile/>
   <tile/>
   <tile/>
   <tile/>
   <tile/>
   <tile/>
   <tile/>
   <tile/>
   <tile/>
   <tile/>
   <tile/>
   <tile/>
   <tile/>
   <tile/>
   <tile/>
   <tile/>
   <tile/>
   <tile/>
   <tile/>
   <tile/>
   <tile/>
   <tile/>
   <tile/>
   <tile/>
   <tile/>
   <tile/>
   <tile/>
   <tile/>
   <tile/>
   <tile/>
   <tile/>
   <tile/>
   <tile/>
   <tile/>
   <tile/>
   <tile/>
   <tile/>
   <tile/>
   <tile/>
   <tile/>
   <tile/>
   <tile/>
   <tile/>
   <tile/>
   <tile/>
   <tile/>
   <tile/>
   <tile/>
   <tile/>
   <tile/>
   <tile/>
   <tile/>
   <tile/>
   <tile/>
   <tile/>
   <tile/>
   <tile/>
   <tile/>
   <tile/>
   <tile/>
   <tile/>
   <tile/>
   <tile/>
   <tile/>
   <tile/>
   <tile/>
   <tile/>
   <tile/>
   <tile/>
   <tile/>
   <tile/>
   <tile/>
   <tile/>
   <tile/>
   <tile/>
   <tile/>
   <tile/>
   <tile/>
   <tile/>
   <tile/>
   <tile/>
   <tile/>
   <tile/>
   <tile/>
   <tile/>
   <tile/>
   <tile/>
   <tile/>
   <tile/>
   <tile/>
   <tile/>
   <tile/>
   <tile/>
   <tile/>
   <tile/>
   <tile/>
   <tile/>
   <tile/>
   <tile/>
   <tile/>
   <tile/>
   <tile/>
   <tile/>
   <tile/>
   <tile/>
   <tile/>
   <tile/>
   <tile/>
   <tile/>
   <tile/>
   <tile/>
   <tile/>
   <tile/>
   <tile/>
   <tile/>
   <tile/>
   <tile/>
   <tile/>
   <tile/>
   <tile/>
   <tile/>
   <tile/>
   <tile/>
   <tile/>
   <tile/>
   <tile/>
   <tile/>
   <tile/>
   <tile/>
   <tile/>
   <tile/>
   <tile/>
   <tile/>
   <tile/>
   <tile/>
   <tile/>
   <tile/>
   <tile/>
   <tile/>
   <tile/>
   <tile/>
   <tile/>
   <tile/>
   <tile/>
   <tile/>
   <tile/>
   <tile/>
   <tile/>
   <tile/>
   <tile/>
   <tile/>
   <tile/>
   <tile/>
   <tile/>
   <tile/>
   <tile/>
   <tile/>
   <tile/>
   <tile/>
   <tile/>
   <tile/>
   <tile/>
   <tile/>
   <tile/>
   <tile/>
   <tile/>
   <tile/>
   <tile/>
   <tile/>
   <tile/>
   <tile/>
   <tile/>
   <tile/>
   <tile/>
   <tile/>
   <tile/>
   <tile/>
   <tile/>
   <tile/>
   <tile/>
   <tile/>
   <tile/>
   <tile/>
   <tile/>
   <tile/>
   <tile/>
   <tile/>
   <tile/>
   <tile/>
   <tile/>
   <tile/>
   <tile/>
   <tile/>
   <tile/>
   <tile/>
   <tile/>
   <tile/>
   <tile/>
   <tile/>
   <tile/>
   <tile/>
   <tile/>
   <tile/>
   <tile/>
   <tile/>
   <tile/>
   <tile/>
   <tile/>
   <tile/>
   <tile/>
   <tile/>
   <tile/>
   <tile/>
   <tile/>
   <tile/>
   <tile/>
   <tile/>
   <tile/>
   <tile/>
   <tile/>
   <tile/>
   <tile/>
   <tile/>
   <tile/>
   <tile/>
   <tile/>
   <tile/>
   <tile/>
   <tile/>
   <tile/>
   <tile/>
   <tile/>
   <tile/>
   <tile/>
   <tile/>
   <tile/>
   <tile/>
   <tile/>
   <tile/>
   <tile/>
   <tile/>
   <tile/>
   <tile/>
   <tile/>
   <tile/>
   <tile/>
   <tile/>
   <tile/>
   <tile/>
   <tile/>
   <tile/>
   <tile/>
   <tile/>
   <tile/>
   <tile/>
   <tile/>
   <tile/>
   <tile/>
   <tile/>
   <tile/>
   <tile/>
   <tile/>
   <tile/>
   <tile/>
   <tile/>
   <tile/>
   <tile/>
   <tile/>
   <tile/>
   <tile/>
   <tile/>
   <tile/>
   <tile/>
   <tile/>
   <tile/>
   <tile/>
   <tile/>
   <tile/>
   <tile/>
   <tile/>
   <tile/>
   <tile/>
   <tile/>
   <tile/>
   <tile/>
   <tile/>
   <tile/>
   <tile/>
   <tile/>
   <tile/>
   <tile/>
   <tile/>
   <tile/>
   <tile/>
   <tile/>
   <tile/>
   <tile/>
   <tile/>
   <tile/>
   <tile/>
   <tile/>
   <tile/>
   <tile/>
   <tile/>
   <tile/>
   <tile/>
   <tile/>
   <tile/>
   <tile/>
   <tile/>
   <tile/>
   <tile/>
   <tile/>
   <tile/>
   <tile/>
   <tile/>
   <tile/>
   <tile/>
   <tile/>
   <tile/>
   <tile/>
   <tile/>
   <tile/>
   <tile/>
   <tile/>
   <tile/>
   <tile/>
   <tile/>
   <tile/>
   <tile/>
   <tile/>
   <tile/>
   <tile/>
   <tile/>
   <tile/>
   <tile/>
   <tile/>
   <tile/>
   <tile/>
   <tile/>
   <tile/>
   <tile/>
   <tile/>
   <tile/>
   <tile/>
   <tile/>
   <tile/>
   <tile/>
   <tile/>
   <tile/>
   <tile/>
   <tile/>
   <tile/>
   <tile/>
   <tile/>
   <tile/>
   <tile/>
   <tile/>
   <tile/>
   <tile/>
   <tile/>
   <tile/>
   <tile/>
   <tile/>
   <tile/>
   <tile/>
   <tile/>
   <tile/>
   <tile/>
   <tile/>
   <tile/>
   <tile/>
   <tile/>
   <tile/>
   <tile/>
   <tile/>
   <tile/>
   <tile/>
   <tile/>
   <tile/>
   <tile/>
   <tile/>
   <tile/>
   <tile/>
   <tile/>
   <tile/>
   <tile/>
   <tile/>
   <tile/>
   <tile/>
   <tile/>
   <tile/>
   <tile/>
   <tile/>
   <tile/>
   <tile/>
   <tile/>
   <tile/>
   <tile/>
   <tile/>
   <tile/>
   <tile/>
   <tile/>
   <tile/>
   <tile/>
   <tile/>
   <tile/>
   <tile/>
   <tile/>
   <tile/>
   <tile/>
   <tile/>
   <tile/>
   <tile/>
   <tile/>
   <tile/>
   <tile/>
   <tile/>
   <tile/>
   <tile/>
   <tile/>
   <tile gid="4"/>
   <tile gid="38"/>
   <tile gid="41"/>
   <tile/>
   <tile/>
   <tile/>
   <tile/>
   <tile/>
   <tile/>
   <tile/>
   <tile/>
   <tile/>
   <tile/>
   <tile/>
   <tile/>
   <tile/>
   <tile/>
   <tile/>
   <tile/>
   <tile/>
   <tile/>
   <tile/>
   <tile/>
   <tile/>
   <tile/>
   <tile/>
   <tile/>
   <tile/>
   <tile/>
   <tile/>
   <tile/>
   <tile/>
   <tile/>
   <tile/>
   <tile/>
   <tile/>
   <tile/>
   <tile/>
   <tile/>
   <tile/>
   <tile/>
   <tile/>
   <tile/>
   <tile/>
   <tile/>
   <tile/>
   <tile/>
   <tile/>
  </data>
 </layer>
</map>
