<?xml version="1.0" encoding="UTF-8"?>
<map version="1.10" tiledversion="1.11.2" orientation="orthogonal" renderorder="right-down" width="22" height="26" tilewidth="16" tileheight="16" infinite="0" nextlayerid="5" nextobjectid="1">
 <tileset firstgid="1" name="03000503" tilewidth="16" tileheight="16" tilecount="1024" columns="32">
  <image source="03000503.png" trans="ffffff" width="512" height="512"/>
 </tileset>
 <layer id="1" name="Tile Layer 1" width="22" height="26">
  <properties>
   <property name="Anims1" value="0x07"/>
   <property name="Anims2" value="0"/>
   <property name="ChapterID" value="0x7"/>
   <property name="Main" value=""/>
   <property name="MapChangesID" value="0x10"/>
   <property name="MapID" value="0xE1"/>
   <property name="ObjectType" value="3"/>
   <property name="PaletteID" value="0x5"/>
   <property name="TileConfig" value="3"/>
  </properties>
  <data>
   <tile gid="500"/>
   <tile gid="417"/>
   <tile gid="418"/>
   <tile gid="424"/>
   <tile gid="418"/>
   <tile gid="13"/>
   <tile gid="421"/>
   <tile gid="500"/>
   <tile gid="628"/>
   <tile gid="484"/>
   <tile gid="482"/>
   <tile gid="482"/>
   <tile gid="483"/>
   <tile gid="482"/>
   <tile gid="482"/>
   <tile gid="564"/>
   <tile gid="450"/>
   <tile gid="419"/>
   <tile gid="419"/>
   <tile gid="419"/>
   <tile gid="419"/>
   <tile gid="422"/>
   <tile gid="628"/>
   <tile gid="417"/>
   <tile gid="418"/>
   <tile gid="13"/>
   <tile gid="417"/>
   <tile gid="45"/>
   <tile gid="418"/>
   <tile gid="628"/>
   <tile gid="628"/>
   <tile gid="481"/>
   <tile gid="13"/>
   <tile gid="481"/>
   <tile gid="482"/>
   <tile gid="13"/>
   <tile gid="481"/>
   <tile gid="628"/>
   <tile gid="420"/>
   <tile gid="418"/>
   <tile gid="418"/>
   <tile gid="418"/>
   <tile gid="13"/>
   <tile gid="417"/>
   <tile gid="628"/>
   <tile gid="417"/>
   <tile gid="421"/>
   <tile gid="45"/>
   <tile gid="451"/>
   <tile gid="418"/>
   <tile gid="13"/>
   <tile gid="628"/>
   <tile gid="628"/>
   <tile gid="481"/>
   <tile gid="45"/>
   <tile gid="487"/>
   <tile gid="482"/>
   <tile gid="45"/>
   <tile gid="487"/>
   <tile gid="628"/>
   <tile gid="13"/>
   <tile gid="417"/>
   <tile gid="424"/>
   <tile gid="418"/>
   <tile gid="45"/>
   <tile gid="451"/>
   <tile gid="628"/>
   <tile gid="417"/>
   <tile gid="418"/>
   <tile gid="418"/>
   <tile gid="424"/>
   <tile gid="418"/>
   <tile gid="45"/>
   <tile gid="628"/>
   <tile gid="628"/>
   <tile gid="481"/>
   <tile gid="482"/>
   <tile gid="482"/>
   <tile gid="483"/>
   <tile gid="482"/>
   <tile gid="482"/>
   <tile gid="628"/>
   <tile gid="45"/>
   <tile gid="454"/>
   <tile gid="418"/>
   <tile gid="418"/>
   <tile gid="418"/>
   <tile gid="421"/>
   <tile gid="292"/>
   <tile gid="420"/>
   <tile gid="418"/>
   <tile gid="418"/>
   <tile gid="418"/>
   <tile gid="418"/>
   <tile gid="278"/>
   <tile gid="279"/>
   <tile gid="7"/>
   <tile gid="481"/>
   <tile gid="483"/>
   <tile gid="482"/>
   <tile gid="483"/>
   <tile gid="483"/>
   <tile gid="483"/>
   <tile gid="7"/>
   <tile gid="354"/>
   <tile gid="34"/>
   <tile gid="417"/>
   <tile gid="13"/>
   <tile gid="417"/>
   <tile gid="418"/>
   <tile gid="292"/>
   <tile gid="420"/>
   <tile gid="421"/>
   <tile gid="418"/>
   <tile gid="278"/>
   <tile gid="279"/>
   <tile gid="311"/>
   <tile gid="311"/>
   <tile gid="38"/>
   <tile gid="481"/>
   <tile gid="483"/>
   <tile gid="547"/>
   <tile gid="547"/>
   <tile gid="481"/>
   <tile gid="482"/>
   <tile gid="38"/>
   <tile gid="385"/>
   <tile gid="354"/>
   <tile gid="417"/>
   <tile gid="45"/>
   <tile gid="451"/>
   <tile gid="421"/>
   <tile gid="292"/>
   <tile gid="417"/>
   <tile gid="418"/>
   <tile gid="418"/>
   <tile gid="566"/>
   <tile gid="311"/>
   <tile gid="311"/>
   <tile gid="311"/>
   <tile gid="71"/>
   <tile gid="80"/>
   <tile gid="545"/>
   <tile gid="547"/>
   <tile gid="516"/>
   <tile gid="547"/>
   <tile gid="80"/>
   <tile gid="71"/>
   <tile gid="310"/>
   <tile gid="278"/>
   <tile gid="7"/>
   <tile gid="417"/>
   <tile gid="424"/>
   <tile gid="7"/>
   <tile gid="292"/>
   <tile gid="417"/>
   <tile gid="13"/>
   <tile gid="417"/>
   <tile gid="310"/>
   <tile gid="596"/>
   <tile gid="484"/>
   <tile gid="485"/>
   <tile gid="580"/>
   <tile gid="112"/>
   <tile gid="578"/>
   <tile gid="580"/>
   <tile gid="547"/>
   <tile gid="516"/>
   <tile gid="112"/>
   <tile gid="547"/>
   <tile gid="310"/>
   <tile gid="566"/>
   <tile gid="38"/>
   <tile gid="417"/>
   <tile gid="421"/>
   <tile gid="38"/>
   <tile gid="292"/>
   <tile gid="417"/>
   <tile gid="45"/>
   <tile gid="454"/>
   <tile gid="500"/>
   <tile gid="628"/>
   <tile gid="481"/>
   <tile gid="80"/>
   <tile gid="545"/>
   <tile gid="644"/>
   <tile gid="549"/>
   <tile gid="418"/>
   <tile gid="424"/>
   <tile gid="610"/>
   <tile gid="644"/>
   <tile gid="547"/>
   <tile gid="80"/>
   <tile gid="141"/>
   <tile gid="71"/>
   <tile gid="168"/>
   <tile gid="169"/>
   <tile gid="71"/>
   <tile gid="292"/>
   <tile gid="417"/>
   <tile gid="424"/>
   <tile gid="418"/>
   <tile gid="628"/>
   <tile gid="628"/>
   <tile gid="580"/>
   <tile gid="112"/>
   <tile gid="578"/>
   <tile gid="580"/>
   <tile gid="418"/>
   <tile gid="418"/>
   <tile gid="418"/>
   <tile gid="418"/>
   <tile gid="545"/>
   <tile gid="516"/>
   <tile gid="112"/>
   <tile gid="580"/>
   <tile gid="484"/>
   <tile gid="485"/>
   <tile gid="485"/>
   <tile gid="485"/>
   <tile gid="353"/>
   <tile gid="279"/>
   <tile gid="279"/>
   <tile gid="279"/>
   <tile gid="279"/>
   <tile gid="280"/>
   <tile gid="547"/>
   <tile gid="644"/>
   <tile gid="579"/>
   <tile gid="418"/>
   <tile gid="421"/>
   <tile gid="30"/>
   <tile gid="31"/>
   <tile gid="417"/>
   <tile gid="418"/>
   <tile gid="547"/>
   <tile gid="547"/>
   <tile gid="547"/>
   <tile gid="481"/>
   <tile gid="13"/>
   <tile gid="481"/>
   <tile gid="482"/>
   <tile gid="292"/>
   <tile gid="311"/>
   <tile gid="17"/>
   <tile gid="18"/>
   <tile gid="19"/>
   <tile gid="141"/>
   <tile gid="579"/>
   <tile gid="580"/>
   <tile gid="516"/>
   <tile gid="418"/>
   <tile gid="421"/>
   <tile gid="62"/>
   <tile gid="63"/>
   <tile gid="420"/>
   <tile gid="424"/>
   <tile gid="545"/>
   <tile gid="516"/>
   <tile gid="580"/>
   <tile gid="481"/>
   <tile gid="45"/>
   <tile gid="481"/>
   <tile gid="482"/>
   <tile gid="292"/>
   <tile gid="311"/>
   <tile gid="49"/>
   <tile gid="50"/>
   <tile gid="51"/>
   <tile gid="141"/>
   <tile gid="580"/>
   <tile gid="80"/>
   <tile gid="545"/>
   <tile gid="424"/>
   <tile gid="418"/>
   <tile gid="94"/>
   <tile gid="95"/>
   <tile gid="417"/>
   <tile gid="418"/>
   <tile gid="577"/>
   <tile gid="80"/>
   <tile gid="548"/>
   <tile gid="481"/>
   <tile gid="483"/>
   <tile gid="482"/>
   <tile gid="13"/>
   <tile gid="292"/>
   <tile gid="103"/>
   <tile gid="484"/>
   <tile gid="485"/>
   <tile gid="485"/>
   <tile gid="485"/>
   <tile gid="579"/>
   <tile gid="112"/>
   <tile gid="578"/>
   <tile gid="579"/>
   <tile gid="418"/>
   <tile gid="34"/>
   <tile gid="453"/>
   <tile gid="418"/>
   <tile gid="673"/>
   <tile gid="545"/>
   <tile gid="112"/>
   <tile gid="580"/>
   <tile gid="481"/>
   <tile gid="482"/>
   <tile gid="482"/>
   <tile gid="45"/>
   <tile gid="292"/>
   <tile gid="484"/>
   <tile gid="482"/>
   <tile gid="482"/>
   <tile gid="482"/>
   <tile gid="482"/>
   <tile gid="485"/>
   <tile gid="644"/>
   <tile gid="547"/>
   <tile gid="579"/>
   <tile gid="549"/>
   <tile gid="419"/>
   <tile gid="418"/>
   <tile gid="673"/>
   <tile gid="514"/>
   <tile gid="549"/>
   <tile gid="515"/>
   <tile gid="484"/>
   <tile gid="482"/>
   <tile gid="482"/>
   <tile gid="483"/>
   <tile gid="482"/>
   <tile gid="386"/>
   <tile gid="481"/>
   <tile gid="482"/>
   <tile gid="13"/>
   <tile gid="481"/>
   <tile gid="482"/>
   <tile gid="482"/>
   <tile gid="485"/>
   <tile gid="515"/>
   <tile gid="80"/>
   <tile gid="545"/>
   <tile gid="547"/>
   <tile gid="677"/>
   <tile gid="547"/>
   <tile gid="80"/>
   <tile gid="515"/>
   <tile gid="484"/>
   <tile gid="482"/>
   <tile gid="13"/>
   <tile gid="481"/>
   <tile gid="483"/>
   <tile gid="482"/>
   <tile gid="566"/>
   <tile gid="481"/>
   <tile gid="482"/>
   <tile gid="45"/>
   <tile gid="487"/>
   <tile gid="483"/>
   <tile gid="482"/>
   <tile gid="13"/>
   <tile gid="484"/>
   <tile gid="112"/>
   <tile gid="578"/>
   <tile gid="516"/>
   <tile gid="579"/>
   <tile gid="515"/>
   <tile gid="112"/>
   <tile gid="484"/>
   <tile gid="482"/>
   <tile gid="482"/>
   <tile gid="45"/>
   <tile gid="487"/>
   <tile gid="482"/>
   <tile gid="135"/>
   <tile gid="310"/>
   <tile gid="481"/>
   <tile gid="482"/>
   <tile gid="482"/>
   <tile gid="482"/>
   <tile gid="483"/>
   <tile gid="482"/>
   <tile gid="45"/>
   <tile gid="487"/>
   <tile gid="485"/>
   <tile gid="485"/>
   <tile gid="547"/>
   <tile gid="580"/>
   <tile gid="353"/>
   <tile gid="259"/>
   <tile gid="70"/>
   <tile gid="168"/>
   <tile gid="170"/>
   <tile gid="169"/>
   <tile gid="7"/>
   <tile gid="259"/>
   <tile gid="257"/>
   <tile gid="485"/>
   <tile gid="482"/>
   <tile gid="482"/>
   <tile gid="482"/>
   <tile gid="13"/>
   <tile gid="481"/>
   <tile gid="483"/>
   <tile gid="482"/>
   <tile gid="482"/>
   <tile gid="483"/>
   <tile gid="483"/>
   <tile gid="485"/>
   <tile gid="353"/>
   <tile gid="386"/>
   <tile gid="566"/>
   <tile gid="40"/>
   <tile gid="528"/>
   <tile gid="529"/>
   <tile gid="530"/>
   <tile gid="39"/>
   <tile gid="566"/>
   <tile gid="385"/>
   <tile gid="482"/>
   <tile gid="482"/>
   <tile gid="482"/>
   <tile gid="482"/>
   <tile gid="45"/>
   <tile gid="487"/>
   <tile gid="482"/>
   <tile gid="482"/>
   <tile gid="482"/>
   <tile gid="482"/>
   <tile gid="135"/>
   <tile gid="70"/>
   <tile gid="386"/>
   <tile gid="312"/>
   <tile gid="312"/>
   <tile gid="71"/>
   <tile gid="545"/>
   <tile gid="514"/>
   <tile gid="548"/>
   <tile gid="71"/>
   <tile gid="310"/>
   <tile gid="310"/>
   <tile gid="298"/>
   <tile gid="279"/>
   <tile gid="279"/>
   <tile gid="279"/>
   <tile gid="326"/>
   <tile gid="482"/>
   <tile gid="482"/>
   <tile gid="6"/>
   <tile gid="279"/>
   <tile gid="279"/>
   <tile gid="279"/>
   <tile gid="40"/>
   <tile gid="566"/>
   <tile gid="312"/>
   <tile gid="673"/>
   <tile gid="13"/>
   <tile gid="545"/>
   <tile gid="580"/>
   <tile gid="547"/>
   <tile gid="549"/>
   <tile gid="549"/>
   <tile gid="310"/>
   <tile gid="292"/>
   <tile gid="311"/>
   <tile gid="32"/>
   <tile gid="311"/>
   <tile gid="292"/>
   <tile gid="481"/>
   <tile gid="482"/>
   <tile gid="38"/>
   <tile gid="311"/>
   <tile gid="311"/>
   <tile gid="310"/>
   <tile gid="71"/>
   <tile gid="312"/>
   <tile gid="673"/>
   <tile gid="549"/>
   <tile gid="109"/>
   <tile gid="675"/>
   <tile gid="678"/>
   <tile gid="548"/>
   <tile gid="547"/>
   <tile gid="13"/>
   <tile gid="545"/>
   <tile gid="292"/>
   <tile gid="34"/>
   <tile gid="484"/>
   <tile gid="485"/>
   <tile gid="355"/>
   <tile gid="481"/>
   <tile gid="482"/>
   <tile gid="485"/>
   <tile gid="13"/>
   <tile gid="484"/>
   <tile gid="485"/>
   <tile gid="500"/>
   <tile gid="545"/>
   <tile gid="549"/>
   <tile gid="548"/>
   <tile gid="580"/>
   <tile gid="547"/>
   <tile gid="547"/>
   <tile gid="547"/>
   <tile gid="514"/>
   <tile gid="109"/>
   <tile gid="675"/>
   <tile gid="292"/>
   <tile gid="484"/>
   <tile gid="482"/>
   <tile gid="482"/>
   <tile gid="141"/>
   <tile gid="481"/>
   <tile gid="482"/>
   <tile gid="482"/>
   <tile gid="45"/>
   <tile gid="487"/>
   <tile gid="482"/>
   <tile gid="628"/>
   <tile gid="545"/>
   <tile gid="547"/>
   <tile gid="579"/>
   <tile gid="580"/>
   <tile gid="579"/>
   <tile gid="13"/>
   <tile gid="545"/>
   <tile gid="547"/>
   <tile gid="548"/>
   <tile gid="547"/>
   <tile gid="292"/>
   <tile gid="481"/>
   <tile gid="482"/>
   <tile gid="482"/>
   <tile gid="485"/>
   <tile gid="482"/>
   <tile gid="482"/>
   <tile gid="482"/>
   <tile gid="482"/>
   <tile gid="482"/>
   <tile gid="482"/>
   <tile gid="628"/>
   <tile gid="545"/>
   <tile gid="516"/>
   <tile gid="547"/>
   <tile gid="548"/>
   <tile gid="548"/>
   <tile gid="109"/>
   <tile gid="675"/>
   <tile gid="579"/>
   <tile gid="547"/>
   <tile gid="579"/>
   <tile gid="292"/>
   <tile gid="481"/>
   <tile gid="482"/>
   <tile gid="482"/>
   <tile gid="482"/>
   <tile gid="482"/>
   <tile gid="482"/>
   <tile gid="13"/>
   <tile gid="481"/>
   <tile gid="482"/>
   <tile gid="482"/>
   <tile gid="70"/>
   <tile gid="354"/>
   <tile gid="13"/>
   <tile gid="545"/>
   <tile gid="678"/>
   <tile gid="579"/>
   <tile gid="579"/>
   <tile gid="547"/>
   <tile gid="516"/>
   <tile gid="579"/>
   <tile gid="13"/>
  </data>
 </layer>
 <layer id="2" name="Map Change 0" width="22" height="26">
  <properties>
   <property name="Height" value="1"/>
   <property name="ID" value="0"/>
   <property name="Width" value="1"/>
   <property name="X" value="17"/>
   <property name="Y" value="4"/>
  </properties>
  <data>
   <tile/>
   <tile/>
   <tile/>
   <tile/>
   <tile/>
   <tile/>
   <tile/>
   <tile/>
   <tile/>
   <tile/>
   <tile/>
   <tile/>
   <tile/>
   <tile/>
   <tile/>
   <tile/>
   <tile/>
   <tile/>
   <tile/>
   <tile/>
   <tile/>
   <tile/>
   <tile/>
   <tile/>
   <tile/>
   <tile/>
   <tile/>
   <tile/>
   <tile/>
   <tile/>
   <tile/>
   <tile/>
   <tile/>
   <tile/>
   <tile/>
   <tile/>
   <tile/>
   <tile/>
   <tile/>
   <tile/>
   <tile/>
   <tile/>
   <tile/>
   <tile/>
   <tile/>
   <tile/>
   <tile/>
   <tile/>
   <tile/>
   <tile/>
   <tile/>
   <tile/>
   <tile/>
   <tile/>
   <tile/>
   <tile/>
   <tile/>
   <tile/>
   <tile/>
   <tile/>
   <tile/>
   <tile/>
   <tile/>
   <tile/>
   <tile/>
   <tile/>
   <tile/>
   <tile/>
   <tile/>
   <tile/>
   <tile/>
   <tile/>
   <tile/>
   <tile/>
   <tile/>
   <tile/>
   <tile/>
   <tile/>
   <tile/>
   <tile/>
   <tile/>
   <tile/>
   <tile/>
   <tile/>
   <tile/>
   <tile/>
   <tile/>
   <tile/>
   <tile/>
   <tile/>
   <tile/>
   <tile/>
   <tile/>
   <tile/>
   <tile/>
   <tile/>
   <tile/>
   <tile/>
   <tile/>
   <tile/>
   <tile/>
   <tile/>
   <tile/>
   <tile/>
   <tile/>
   <tile gid="2"/>
   <tile/>
   <tile/>
   <tile/>
   <tile/>
   <tile/>
   <tile/>
   <tile/>
   <tile/>
   <tile/>
   <tile/>
   <tile/>
   <tile/>
   <tile/>
   <tile/>
   <tile/>
   <tile/>
   <tile/>
   <tile/>
   <tile/>
   <tile/>
   <tile/>
   <tile/>
   <tile/>
   <tile/>
   <tile/>
   <tile/>
   <tile/>
   <tile/>
   <tile/>
   <tile/>
   <tile/>
   <tile/>
   <tile/>
   <tile/>
   <tile/>
   <tile/>
   <tile/>
   <tile/>
   <tile/>
   <tile/>
   <tile/>
   <tile/>
   <tile/>
   <tile/>
   <tile/>
   <tile/>
   <tile/>
   <tile/>
   <tile/>
   <tile/>
   <tile/>
   <tile/>
   <tile/>
   <tile/>
   <tile/>
   <tile/>
   <tile/>
   <tile/>
   <tile/>
   <tile/>
   <tile/>
   <tile/>
   <tile/>
   <tile/>
   <tile/>
   <tile/>
   <tile/>
   <tile/>
   <tile/>
   <tile/>
   <tile/>
   <tile/>
   <tile/>
   <tile/>
   <tile/>
   <tile/>
   <tile/>
   <tile/>
   <tile/>
   <tile/>
   <tile/>
   <tile/>
   <tile/>
   <tile/>
   <tile/>
   <tile/>
   <tile/>
   <tile/>
   <tile/>
   <tile/>
   <tile/>
   <tile/>
   <tile/>
   <tile/>
   <tile/>
   <tile/>
   <tile/>
   <tile/>
   <tile/>
   <tile/>
   <tile/>
   <tile/>
   <tile/>
   <tile/>
   <tile/>
   <tile/>
   <tile/>
   <tile/>
   <tile/>
   <tile/>
   <tile/>
   <tile/>
   <tile/>
   <tile/>
   <tile/>
   <tile/>
   <tile/>
   <tile/>
   <tile/>
   <tile/>
   <tile/>
   <tile/>
   <tile/>
   <tile/>
   <tile/>
   <tile/>
   <tile/>
   <tile/>
   <tile/>
   <tile/>
   <tile/>
   <tile/>
   <tile/>
   <tile/>
   <tile/>
   <tile/>
   <tile/>
   <tile/>
   <tile/>
   <tile/>
   <tile/>
   <tile/>
   <tile/>
   <tile/>
   <tile/>
   <tile/>
   <tile/>
   <tile/>
   <tile/>
   <tile/>
   <tile/>
   <tile/>
   <tile/>
   <tile/>
   <tile/>
   <tile/>
   <tile/>
   <tile/>
   <tile/>
   <tile/>
   <tile/>
   <tile/>
   <tile/>
   <tile/>
   <tile/>
   <tile/>
   <tile/>
   <tile/>
   <tile/>
   <tile/>
   <tile/>
   <tile/>
   <tile/>
   <tile/>
   <tile/>
   <tile/>
   <tile/>
   <tile/>
   <tile/>
   <tile/>
   <tile/>
   <tile/>
   <tile/>
   <tile/>
   <tile/>
   <tile/>
   <tile/>
   <tile/>
   <tile/>
   <tile/>
   <tile/>
   <tile/>
   <tile/>
   <tile/>
   <tile/>
   <tile/>
   <tile/>
   <tile/>
   <tile/>
   <tile/>
   <tile/>
   <tile/>
   <tile/>
   <tile/>
   <tile/>
   <tile/>
   <tile/>
   <tile/>
   <tile/>
   <tile/>
   <tile/>
   <tile/>
   <tile/>
   <tile/>
   <tile/>
   <tile/>
   <tile/>
   <tile/>
   <tile/>
   <tile/>
   <tile/>
   <tile/>
   <tile/>
   <tile/>
   <tile/>
   <tile/>
   <tile/>
   <tile/>
   <tile/>
   <tile/>
   <tile/>
   <tile/>
   <tile/>
   <tile/>
   <tile/>
   <tile/>
   <tile/>
   <tile/>
   <tile/>
   <tile/>
   <tile/>
   <tile/>
   <tile/>
   <tile/>
   <tile/>
   <tile/>
   <tile/>
   <tile/>
   <tile/>
   <tile/>
   <tile/>
   <tile/>
   <tile/>
   <tile/>
   <tile/>
   <tile/>
   <tile/>
   <tile/>
   <tile/>
   <tile/>
   <tile/>
   <tile/>
   <tile/>
   <tile/>
   <tile/>
   <tile/>
   <tile/>
   <tile/>
   <tile/>
   <tile/>
   <tile/>
   <tile/>
   <tile/>
   <tile/>
   <tile/>
   <tile/>
   <tile/>
   <tile/>
   <tile/>
   <tile/>
   <tile/>
   <tile/>
   <tile/>
   <tile/>
   <tile/>
   <tile/>
   <tile/>
   <tile/>
   <tile/>
   <tile/>
   <tile/>
   <tile/>
   <tile/>
   <tile/>
   <tile/>
   <tile/>
   <tile/>
   <tile/>
   <tile/>
   <tile/>
   <tile/>
   <tile/>
   <tile/>
   <tile/>
   <tile/>
   <tile/>
   <tile/>
   <tile/>
   <tile/>
   <tile/>
   <tile/>
   <tile/>
   <tile/>
   <tile/>
   <tile/>
   <tile/>
   <tile/>
   <tile/>
   <tile/>
   <tile/>
   <tile/>
   <tile/>
   <tile/>
   <tile/>
   <tile/>
   <tile/>
   <tile/>
   <tile/>
   <tile/>
   <tile/>
   <tile/>
   <tile/>
   <tile/>
   <tile/>
   <tile/>
   <tile/>
   <tile/>
   <tile/>
   <tile/>
   <tile/>
   <tile/>
   <tile/>
   <tile/>
   <tile/>
   <tile/>
   <tile/>
   <tile/>
   <tile/>
   <tile/>
   <tile/>
   <tile/>
   <tile/>
   <tile/>
   <tile/>
   <tile/>
   <tile/>
   <tile/>
   <tile/>
   <tile/>
   <tile/>
   <tile/>
   <tile/>
   <tile/>
   <tile/>
   <tile/>
   <tile/>
   <tile/>
   <tile/>
   <tile/>
   <tile/>
   <tile/>
   <tile/>
   <tile/>
   <tile/>
   <tile/>
   <tile/>
   <tile/>
   <tile/>
   <tile/>
   <tile/>
   <tile/>
   <tile/>
   <tile/>
   <tile/>
   <tile/>
   <tile/>
   <tile/>
   <tile/>
   <tile/>
   <tile/>
   <tile/>
   <tile/>
   <tile/>
   <tile/>
   <tile/>
   <tile/>
   <tile/>
   <tile/>
   <tile/>
   <tile/>
   <tile/>
   <tile/>
   <tile/>
   <tile/>
   <tile/>
   <tile/>
   <tile/>
   <tile/>
   <tile/>
   <tile/>
   <tile/>
   <tile/>
   <tile/>
   <tile/>
   <tile/>
   <tile/>
   <tile/>
   <tile/>
   <tile/>
   <tile/>
   <tile/>
   <tile/>
   <tile/>
   <tile/>
   <tile/>
   <tile/>
   <tile/>
   <tile/>
   <tile/>
   <tile/>
   <tile/>
   <tile/>
   <tile/>
   <tile/>
   <tile/>
   <tile/>
   <tile/>
   <tile/>
   <tile/>
   <tile/>
   <tile/>
   <tile/>
   <tile/>
   <tile/>
   <tile/>
   <tile/>
   <tile/>
   <tile/>
   <tile/>
   <tile/>
   <tile/>
   <tile/>
   <tile/>
   <tile/>
   <tile/>
   <tile/>
   <tile/>
   <tile/>
   <tile/>
   <tile/>
   <tile/>
   <tile/>
   <tile/>
   <tile/>
   <tile/>
   <tile/>
  </data>
 </layer>
 <layer id="3" name="Map Change 1" width="22" height="26">
  <properties>
   <property name="Height" value="1"/>
   <property name="ID" value="1"/>
   <property name="Width" value="1"/>
   <property name="X" value="11"/>
   <property name="Y" value="13"/>
  </properties>
  <data>
   <tile/>
   <tile/>
   <tile/>
   <tile/>
   <tile/>
   <tile/>
   <tile/>
   <tile/>
   <tile/>
   <tile/>
   <tile/>
   <tile/>
   <tile/>
   <tile/>
   <tile/>
   <tile/>
   <tile/>
   <tile/>
   <tile/>
   <tile/>
   <tile/>
   <tile/>
   <tile/>
   <tile/>
   <tile/>
   <tile/>
   <tile/>
   <tile/>
   <tile/>
   <tile/>
   <tile/>
   <tile/>
   <tile/>
   <tile/>
   <tile/>
   <tile/>
   <tile/>
   <tile/>
   <tile/>
   <tile/>
   <tile/>
   <tile/>
   <tile/>
   <tile/>
   <tile/>
   <tile/>
   <tile/>
   <tile/>
   <tile/>
   <tile/>
   <tile/>
   <tile/>
   <tile/>
   <tile/>
   <tile/>
   <tile/>
   <tile/>
   <tile/>
   <tile/>
   <tile/>
   <tile/>
   <tile/>
   <tile/>
   <tile/>
   <tile/>
   <tile/>
   <tile/>
   <tile/>
   <tile/>
   <tile/>
   <tile/>
   <tile/>
   <tile/>
   <tile/>
   <tile/>
   <tile/>
   <tile/>
   <tile/>
   <tile/>
   <tile/>
   <tile/>
   <tile/>
   <tile/>
   <tile/>
   <tile/>
   <tile/>
   <tile/>
   <tile/>
   <tile/>
   <tile/>
   <tile/>
   <tile/>
   <tile/>
   <tile/>
   <tile/>
   <tile/>
   <tile/>
   <tile/>
   <tile/>
   <tile/>
   <tile/>
   <tile/>
   <tile/>
   <tile/>
   <tile/>
   <tile/>
   <tile/>
   <tile/>
   <tile/>
   <tile/>
   <tile/>
   <tile/>
   <tile/>
   <tile/>
   <tile/>
   <tile/>
   <tile/>
   <tile/>
   <tile/>
   <tile/>
   <tile/>
   <tile/>
   <tile/>
   <tile/>
   <tile/>
   <tile/>
   <tile/>
   <tile/>
   <tile/>
   <tile/>
   <tile/>
   <tile/>
   <tile/>
   <tile/>
   <tile/>
   <tile/>
   <tile/>
   <tile/>
   <tile/>
   <tile/>
   <tile/>
   <tile/>
   <tile/>
   <tile/>
   <tile/>
   <tile/>
   <tile/>
   <tile/>
   <tile/>
   <tile/>
   <tile/>
   <tile/>
   <tile/>
   <tile/>
   <tile/>
   <tile/>
   <tile/>
   <tile/>
   <tile/>
   <tile/>
   <tile/>
   <tile/>
   <tile/>
   <tile/>
   <tile/>
   <tile/>
   <tile/>
   <tile/>
   <tile/>
   <tile/>
   <tile/>
   <tile/>
   <tile/>
   <tile/>
   <tile/>
   <tile/>
   <tile/>
   <tile/>
   <tile/>
   <tile/>
   <tile/>
   <tile/>
   <tile/>
   <tile/>
   <tile/>
   <tile/>
   <tile/>
   <tile/>
   <tile/>
   <tile/>
   <tile/>
   <tile/>
   <tile/>
   <tile/>
   <tile/>
   <tile/>
   <tile/>
   <tile/>
   <tile/>
   <tile/>
   <tile/>
   <tile/>
   <tile/>
   <tile/>
   <tile/>
   <tile/>
   <tile/>
   <tile/>
   <tile/>
   <tile/>
   <tile/>
   <tile/>
   <tile/>
   <tile/>
   <tile/>
   <tile/>
   <tile/>
   <tile/>
   <tile/>
   <tile/>
   <tile/>
   <tile/>
   <tile/>
   <tile/>
   <tile/>
   <tile/>
   <tile/>
   <tile/>
   <tile/>
   <tile/>
   <tile/>
   <tile/>
   <tile/>
   <tile/>
   <tile/>
   <tile/>
   <tile/>
   <tile/>
   <tile/>
   <tile/>
   <tile/>
   <tile/>
   <tile/>
   <tile/>
   <tile/>
   <tile/>
   <tile/>
   <tile/>
   <tile/>
   <tile/>
   <tile/>
   <tile/>
   <tile/>
   <tile/>
   <tile/>
   <tile/>
   <tile/>
   <tile/>
   <tile/>
   <tile/>
   <tile/>
   <tile/>
   <tile/>
   <tile/>
   <tile/>
   <tile/>
   <tile/>
   <tile/>
   <tile/>
   <tile/>
   <tile/>
   <tile/>
   <tile/>
   <tile/>
   <tile/>
   <tile/>
   <tile/>
   <tile/>
   <tile/>
   <tile/>
   <tile/>
   <tile/>
   <tile/>
   <tile/>
   <tile/>
   <tile/>
   <tile/>
   <tile/>
   <tile/>
   <tile/>
   <tile/>
   <tile/>
   <tile/>
   <tile/>
   <tile/>
   <tile/>
   <tile/>
   <tile gid="2"/>
   <tile/>
   <tile/>
   <tile/>
   <tile/>
   <tile/>
   <tile/>
   <tile/>
   <tile/>
   <tile/>
   <tile/>
   <tile/>
   <tile/>
   <tile/>
   <tile/>
   <tile/>
   <tile/>
   <tile/>
   <tile/>
   <tile/>
   <tile/>
   <tile/>
   <tile/>
   <tile/>
   <tile/>
   <tile/>
   <tile/>
   <tile/>
   <tile/>
   <tile/>
   <tile/>
   <tile/>
   <tile/>
   <tile/>
   <tile/>
   <tile/>
   <tile/>
   <tile/>
   <tile/>
   <tile/>
   <tile/>
   <tile/>
   <tile/>
   <tile/>
   <tile/>
   <tile/>
   <tile/>
   <tile/>
   <tile/>
   <tile/>
   <tile/>
   <tile/>
   <tile/>
   <tile/>
   <tile/>
   <tile/>
   <tile/>
   <tile/>
   <tile/>
   <tile/>
   <tile/>
   <tile/>
   <tile/>
   <tile/>
   <tile/>
   <tile/>
   <tile/>
   <tile/>
   <tile/>
   <tile/>
   <tile/>
   <tile/>
   <tile/>
   <tile/>
   <tile/>
   <tile/>
   <tile/>
   <tile/>
   <tile/>
   <tile/>
   <tile/>
   <tile/>
   <tile/>
   <tile/>
   <tile/>
   <tile/>
   <tile/>
   <tile/>
   <tile/>
   <tile/>
   <tile/>
   <tile/>
   <tile/>
   <tile/>
   <tile/>
   <tile/>
   <tile/>
   <tile/>
   <tile/>
   <tile/>
   <tile/>
   <tile/>
   <tile/>
   <tile/>
   <tile/>
   <tile/>
   <tile/>
   <tile/>
   <tile/>
   <tile/>
   <tile/>
   <tile/>
   <tile/>
   <tile/>
   <tile/>
   <tile/>
   <tile/>
   <tile/>
   <tile/>
   <tile/>
   <tile/>
   <tile/>
   <tile/>
   <tile/>
   <tile/>
   <tile/>
   <tile/>
   <tile/>
   <tile/>
   <tile/>
   <tile/>
   <tile/>
   <tile/>
   <tile/>
   <tile/>
   <tile/>
   <tile/>
   <tile/>
   <tile/>
   <tile/>
   <tile/>
   <tile/>
   <tile/>
   <tile/>
   <tile/>
   <tile/>
   <tile/>
   <tile/>
   <tile/>
   <tile/>
   <tile/>
   <tile/>
   <tile/>
   <tile/>
   <tile/>
   <tile/>
   <tile/>
   <tile/>
   <tile/>
   <tile/>
   <tile/>
   <tile/>
   <tile/>
   <tile/>
   <tile/>
   <tile/>
   <tile/>
   <tile/>
   <tile/>
   <tile/>
   <tile/>
   <tile/>
   <tile/>
   <tile/>
   <tile/>
   <tile/>
   <tile/>
   <tile/>
   <tile/>
   <tile/>
   <tile/>
   <tile/>
   <tile/>
   <tile/>
   <tile/>
   <tile/>
   <tile/>
   <tile/>
   <tile/>
   <tile/>
   <tile/>
   <tile/>
   <tile/>
   <tile/>
   <tile/>
   <tile/>
   <tile/>
   <tile/>
   <tile/>
   <tile/>
   <tile/>
   <tile/>
   <tile/>
   <tile/>
   <tile/>
   <tile/>
   <tile/>
   <tile/>
   <tile/>
   <tile/>
   <tile/>
   <tile/>
   <tile/>
   <tile/>
   <tile/>
   <tile/>
   <tile/>
   <tile/>
   <tile/>
   <tile/>
   <tile/>
   <tile/>
   <tile/>
   <tile/>
   <tile/>
   <tile/>
   <tile/>
   <tile/>
   <tile/>
   <tile/>
   <tile/>
   <tile/>
   <tile/>
   <tile/>
   <tile/>
   <tile/>
   <tile/>
   <tile/>
   <tile/>
   <tile/>
   <tile/>
   <tile/>
   <tile/>
   <tile/>
   <tile/>
   <tile/>
   <tile/>
   <tile/>
   <tile/>
   <tile/>
   <tile/>
   <tile/>
   <tile/>
   <tile/>
   <tile/>
   <tile/>
   <tile/>
   <tile/>
   <tile/>
   <tile/>
   <tile/>
   <tile/>
   <tile/>
   <tile/>
   <tile/>
   <tile/>
   <tile/>
   <tile/>
   <tile/>
   <tile/>
   <tile/>
   <tile/>
   <tile/>
   <tile/>
   <tile/>
  </data>
 </layer>
 <layer id="4" name="Map Change 2" width="22" height="26">
  <properties>
   <property name="Height" value="1"/>
   <property name="ID" value="2"/>
   <property name="Width" value="1"/>
   <property name="X" value="1"/>
   <property name="Y" value="22"/>
  </properties>
  <data>
   <tile/>
   <tile/>
   <tile/>
   <tile/>
   <tile/>
   <tile/>
   <tile/>
   <tile/>
   <tile/>
   <tile/>
   <tile/>
   <tile/>
   <tile/>
   <tile/>
   <tile/>
   <tile/>
   <tile/>
   <tile/>
   <tile/>
   <tile/>
   <tile/>
   <tile/>
   <tile/>
   <tile/>
   <tile/>
   <tile/>
   <tile/>
   <tile/>
   <tile/>
   <tile/>
   <tile/>
   <tile/>
   <tile/>
   <tile/>
   <tile/>
   <tile/>
   <tile/>
   <tile/>
   <tile/>
   <tile/>
   <tile/>
   <tile/>
   <tile/>
   <tile/>
   <tile/>
   <tile/>
   <tile/>
   <tile/>
   <tile/>
   <tile/>
   <tile/>
   <tile/>
   <tile/>
   <tile/>
   <tile/>
   <tile/>
   <tile/>
   <tile/>
   <tile/>
   <tile/>
   <tile/>
   <tile/>
   <tile/>
   <tile/>
   <tile/>
   <tile/>
   <tile/>
   <tile/>
   <tile/>
   <tile/>
   <tile/>
   <tile/>
   <tile/>
   <tile/>
   <tile/>
   <tile/>
   <tile/>
   <tile/>
   <tile/>
   <tile/>
   <tile/>
   <tile/>
   <tile/>
   <tile/>
   <tile/>
   <tile/>
   <tile/>
   <tile/>
   <tile/>
   <tile/>
   <tile/>
   <tile/>
   <tile/>
   <tile/>
   <tile/>
   <tile/>
   <tile/>
   <tile/>
   <tile/>
   <tile/>
   <tile/>
   <tile/>
   <tile/>
   <tile/>
   <tile/>
   <tile/>
   <tile/>
   <tile/>
   <tile/>
   <tile/>
   <tile/>
   <tile/>
   <tile/>
   <tile/>
   <tile/>
   <tile/>
   <tile/>
   <tile/>
   <tile/>
   <tile/>
   <tile/>
   <tile/>
   <tile/>
   <tile/>
   <tile/>
   <tile/>
   <tile/>
   <tile/>
   <tile/>
   <tile/>
   <tile/>
   <tile/>
   <tile/>
   <tile/>
   <tile/>
   <tile/>
   <tile/>
   <tile/>
   <tile/>
   <tile/>
   <tile/>
   <tile/>
   <tile/>
   <tile/>
   <tile/>
   <tile/>
   <tile/>
   <tile/>
   <tile/>
   <tile/>
   <tile/>
   <tile/>
   <tile/>
   <tile/>
   <tile/>
   <tile/>
   <tile/>
   <tile/>
   <tile/>
   <tile/>
   <tile/>
   <tile/>
   <tile/>
   <tile/>
   <tile/>
   <tile/>
   <tile/>
   <tile/>
   <tile/>
   <tile/>
   <tile/>
   <tile/>
   <tile/>
   <tile/>
   <tile/>
   <tile/>
   <tile/>
   <tile/>
   <tile/>
   <tile/>
   <tile/>
   <tile/>
   <tile/>
   <tile/>
   <tile/>
   <tile/>
   <tile/>
   <tile/>
   <tile/>
   <tile/>
   <tile/>
   <tile/>
   <tile/>
   <tile/>
   <tile/>
   <tile/>
   <tile/>
   <tile/>
   <tile/>
   <tile/>
   <tile/>
   <tile/>
   <tile/>
   <tile/>
   <tile/>
   <tile/>
   <tile/>
   <tile/>
   <tile/>
   <tile/>
   <tile/>
   <tile/>
   <tile/>
   <tile/>
   <tile/>
   <tile/>
   <tile/>
   <tile/>
   <tile/>
   <tile/>
   <tile/>
   <tile/>
   <tile/>
   <tile/>
   <tile/>
   <tile/>
   <tile/>
   <tile/>
   <tile/>
   <tile/>
   <tile/>
   <tile/>
   <tile/>
   <tile/>
   <tile/>
   <tile/>
   <tile/>
   <tile/>
   <tile/>
   <tile/>
   <tile/>
   <tile/>
   <tile/>
   <tile/>
   <tile/>
   <tile/>
   <tile/>
   <tile/>
   <tile/>
   <tile/>
   <tile/>
   <tile/>
   <tile/>
   <tile/>
   <tile/>
   <tile/>
   <tile/>
   <tile/>
   <tile/>
   <tile/>
   <tile/>
   <tile/>
   <tile/>
   <tile/>
   <tile/>
   <tile/>
   <tile/>
   <tile/>
   <tile/>
   <tile/>
   <tile/>
   <tile/>
   <tile/>
   <tile/>
   <tile/>
   <tile/>
   <tile/>
   <tile/>
   <tile/>
   <tile/>
   <tile/>
   <tile/>
   <tile/>
   <tile/>
   <tile/>
   <tile/>
   <tile/>
   <tile/>
   <tile/>
   <tile/>
   <tile/>
   <tile/>
   <tile/>
   <tile/>
   <tile/>
   <tile/>
   <tile/>
   <tile/>
   <tile/>
   <tile/>
   <tile/>
   <tile/>
   <tile/>
   <tile/>
   <tile/>
   <tile/>
   <tile/>
   <tile/>
   <tile/>
   <tile/>
   <tile/>
   <tile/>
   <tile/>
   <tile/>
   <tile/>
   <tile/>
   <tile/>
   <tile/>
   <tile/>
   <tile/>
   <tile/>
   <tile/>
   <tile/>
   <tile/>
   <tile/>
   <tile/>
   <tile/>
   <tile/>
   <tile/>
   <tile/>
   <tile/>
   <tile/>
   <tile/>
   <tile/>
   <tile/>
   <tile/>
   <tile/>
   <tile/>
   <tile/>
   <tile/>
   <tile/>
   <tile/>
   <tile/>
   <tile/>
   <tile/>
   <tile/>
   <tile/>
   <tile/>
   <tile/>
   <tile/>
   <tile/>
   <tile/>
   <tile/>
   <tile/>
   <tile/>
   <tile/>
   <tile/>
   <tile/>
   <tile/>
   <tile/>
   <tile/>
   <tile/>
   <tile/>
   <tile/>
   <tile/>
   <tile/>
   <tile/>
   <tile/>
   <tile/>
   <tile/>
   <tile/>
   <tile/>
   <tile/>
   <tile/>
   <tile/>
   <tile/>
   <tile/>
   <tile/>
   <tile/>
   <tile/>
   <tile/>
   <tile/>
   <tile/>
   <tile/>
   <tile/>
   <tile/>
   <tile/>
   <tile/>
   <tile/>
   <tile/>
   <tile/>
   <tile/>
   <tile/>
   <tile/>
   <tile/>
   <tile/>
   <tile/>
   <tile/>
   <tile/>
   <tile/>
   <tile/>
   <tile/>
   <tile/>
   <tile/>
   <tile/>
   <tile/>
   <tile/>
   <tile/>
   <tile/>
   <tile/>
   <tile/>
   <tile/>
   <tile/>
   <tile/>
   <tile/>
   <tile/>
   <tile/>
   <tile/>
   <tile/>
   <tile/>
   <tile/>
   <tile/>
   <tile/>
   <tile/>
   <tile/>
   <tile/>
   <tile/>
   <tile/>
   <tile/>
   <tile/>
   <tile/>
   <tile/>
   <tile/>
   <tile/>
   <tile/>
   <tile/>
   <tile/>
   <tile/>
   <tile/>
   <tile/>
   <tile/>
   <tile/>
   <tile/>
   <tile/>
   <tile/>
   <tile/>
   <tile/>
   <tile/>
   <tile/>
   <tile/>
   <tile/>
   <tile/>
   <tile/>
   <tile/>
   <tile/>
   <tile/>
   <tile/>
   <tile/>
   <tile/>
   <tile/>
   <tile/>
   <tile/>
   <tile/>
   <tile/>
   <tile/>
   <tile/>
   <tile/>
   <tile/>
   <tile/>
   <tile/>
   <tile/>
   <tile/>
   <tile/>
   <tile/>
   <tile/>
   <tile/>
   <tile/>
   <tile/>
   <tile/>
   <tile/>
   <tile/>
   <tile/>
   <tile/>
   <tile/>
   <tile/>
   <tile gid="2"/>
   <tile/>
   <tile/>
   <tile/>
   <tile/>
   <tile/>
   <tile/>
   <tile/>
   <tile/>
   <tile/>
   <tile/>
   <tile/>
   <tile/>
   <tile/>
   <tile/>
   <tile/>
   <tile/>
   <tile/>
   <tile/>
   <tile/>
   <tile/>
   <tile/>
   <tile/>
   <tile/>
   <tile/>
   <tile/>
   <tile/>
   <tile/>
   <tile/>
   <tile/>
   <tile/>
   <tile/>
   <tile/>
   <tile/>
   <tile/>
   <tile/>
   <tile/>
   <tile/>
   <tile/>
   <tile/>
   <tile/>
   <tile/>
   <tile/>
   <tile/>
   <tile/>
   <tile/>
   <tile/>
   <tile/>
   <tile/>
   <tile/>
   <tile/>
   <tile/>
   <tile/>
   <tile/>
   <tile/>
   <tile/>
   <tile/>
   <tile/>
   <tile/>
   <tile/>
   <tile/>
   <tile/>
   <tile/>
   <tile/>
   <tile/>
   <tile/>
   <tile/>
   <tile/>
   <tile/>
   <tile/>
   <tile/>
   <tile/>
   <tile/>
   <tile/>
   <tile/>
   <tile/>
   <tile/>
   <tile/>
   <tile/>
   <tile/>
   <tile/>
   <tile/>
   <tile/>
   <tile/>
   <tile/>
   <tile/>
   <tile/>
  </data>
 </layer>
</map>
