<?xml version="1.0" encoding="UTF-8"?>
<map version="1.10" tiledversion="1.11.2" orientation="orthogonal" renderorder="right-down" width="18" height="15" tilewidth="16" tileheight="16" infinite="0" nextlayerid="2" nextobjectid="1">
 <tileset firstgid="1" name="04000304" tilewidth="16" tileheight="16" tilecount="1024" columns="32">
  <image source="04000304.png" trans="ffffff" width="512" height="512"/>
 </tileset>
 <layer id="1" name="Tile Layer 1" width="18" height="15">
  <properties>
   <property name="Anims1" value="0x07"/>
   <property name="Anims2" value="0"/>
   <property name="ChapterID" value="0x47"/>
   <property name="Main" value=""/>
   <property name="MapChangesID" value="0"/>
   <property name="MapID" value="0xE0"/>
   <property name="ObjectType" value="3"/>
   <property name="PaletteID" value="0x5"/>
   <property name="TileConfig" value="3"/>
  </properties>
  <data>
   <tile gid="258"/>
   <tile gid="258"/>
   <tile gid="258"/>
   <tile gid="258"/>
   <tile gid="258"/>
   <tile gid="258"/>
   <tile gid="258"/>
   <tile gid="258"/>
   <tile gid="258"/>
   <tile gid="258"/>
   <tile gid="258"/>
   <tile gid="258"/>
   <tile gid="258"/>
   <tile gid="258"/>
   <tile gid="258"/>
   <tile gid="258"/>
   <tile gid="258"/>
   <tile gid="258"/>
   <tile gid="290"/>
   <tile gid="310"/>
   <tile gid="311"/>
   <tile gid="3"/>
   <tile gid="311"/>
   <tile gid="266"/>
   <tile gid="291"/>
   <tile gid="311"/>
   <tile gid="311"/>
   <tile gid="311"/>
   <tile gid="311"/>
   <tile gid="266"/>
   <tile gid="311"/>
   <tile gid="311"/>
   <tile gid="291"/>
   <tile gid="310"/>
   <tile gid="311"/>
   <tile gid="312"/>
   <tile gid="290"/>
   <tile gid="194"/>
   <tile gid="133"/>
   <tile gid="35"/>
   <tile gid="133"/>
   <tile gid="2"/>
   <tile gid="139"/>
   <tile gid="450"/>
   <tile gid="73"/>
   <tile gid="450"/>
   <tile gid="419"/>
   <tile gid="422"/>
   <tile gid="419"/>
   <tile gid="419"/>
   <tile gid="291"/>
   <tile gid="34"/>
   <tile gid="34"/>
   <tile gid="450"/>
   <tile gid="290"/>
   <tile gid="134"/>
   <tile gid="263"/>
   <tile gid="325"/>
   <tile gid="325"/>
   <tile gid="166"/>
   <tile gid="171"/>
   <tile gid="417"/>
   <tile gid="73"/>
   <tile gid="420"/>
   <tile gid="418"/>
   <tile gid="418"/>
   <tile gid="418"/>
   <tile gid="424"/>
   <tile gid="139"/>
   <tile gid="34"/>
   <tile gid="417"/>
   <tile gid="421"/>
   <tile gid="290"/>
   <tile gid="134"/>
   <tile gid="101"/>
   <tile gid="101"/>
   <tile gid="101"/>
   <tile gid="166"/>
   <tile gid="419"/>
   <tile gid="418"/>
   <tile gid="468"/>
   <tile gid="451"/>
   <tile gid="418"/>
   <tile gid="418"/>
   <tile gid="418"/>
   <tile gid="418"/>
   <tile gid="171"/>
   <tile gid="453"/>
   <tile gid="34"/>
   <tile gid="73"/>
   <tile gid="290"/>
   <tile gid="226"/>
   <tile gid="165"/>
   <tile gid="165"/>
   <tile gid="165"/>
   <tile gid="227"/>
   <tile gid="421"/>
   <tile gid="418"/>
   <tile gid="418"/>
   <tile gid="418"/>
   <tile gid="418"/>
   <tile gid="418"/>
   <tile gid="421"/>
   <tile gid="418"/>
   <tile gid="419"/>
   <tile gid="419"/>
   <tile gid="418"/>
   <tile gid="73"/>
   <tile gid="298"/>
   <tile gid="259"/>
   <tile gid="259"/>
   <tile gid="259"/>
   <tile gid="259"/>
   <tile gid="259"/>
   <tile gid="259"/>
   <tile gid="450"/>
   <tile gid="418"/>
   <tile gid="418"/>
   <tile gid="421"/>
   <tile gid="418"/>
   <tile gid="418"/>
   <tile gid="418"/>
   <tile gid="418"/>
   <tile gid="418"/>
   <tile gid="424"/>
   <tile gid="468"/>
   <tile gid="290"/>
   <tile gid="266"/>
   <tile gid="311"/>
   <tile gid="311"/>
   <tile gid="266"/>
   <tile gid="311"/>
   <tile gid="80"/>
   <tile gid="420"/>
   <tile gid="418"/>
   <tile gid="421"/>
   <tile gid="418"/>
   <tile gid="418"/>
   <tile gid="418"/>
   <tile gid="418"/>
   <tile gid="291"/>
   <tile gid="420"/>
   <tile gid="418"/>
   <tile gid="421"/>
   <tile gid="302"/>
   <tile gid="419"/>
   <tile gid="422"/>
   <tile gid="419"/>
   <tile gid="419"/>
   <tile gid="422"/>
   <tile gid="112"/>
   <tile gid="194"/>
   <tile gid="133"/>
   <tile gid="133"/>
   <tile gid="133"/>
   <tile gid="133"/>
   <tile gid="133"/>
   <tile gid="195"/>
   <tile gid="291"/>
   <tile gid="417"/>
   <tile gid="34"/>
   <tile gid="34"/>
   <tile gid="334"/>
   <tile gid="418"/>
   <tile gid="418"/>
   <tile gid="418"/>
   <tile gid="418"/>
   <tile gid="418"/>
   <tile gid="418"/>
   <tile gid="134"/>
   <tile gid="163"/>
   <tile gid="163"/>
   <tile gid="163"/>
   <tile gid="163"/>
   <tile gid="163"/>
   <tile gid="166"/>
   <tile gid="291"/>
   <tile gid="34"/>
   <tile gid="34"/>
   <tile gid="34"/>
   <tile gid="290"/>
   <tile gid="417"/>
   <tile gid="73"/>
   <tile gid="417"/>
   <tile gid="421"/>
   <tile gid="418"/>
   <tile gid="424"/>
   <tile gid="134"/>
   <tile gid="3"/>
   <tile gid="3"/>
   <tile gid="163"/>
   <tile gid="3"/>
   <tile gid="3"/>
   <tile gid="166"/>
   <tile gid="385"/>
   <tile gid="259"/>
   <tile gid="259"/>
   <tile gid="259"/>
   <tile gid="290"/>
   <tile gid="417"/>
   <tile gid="73"/>
   <tile gid="420"/>
   <tile gid="418"/>
   <tile gid="418"/>
   <tile gid="418"/>
   <tile gid="134"/>
   <tile gid="35"/>
   <tile gid="35"/>
   <tile gid="163"/>
   <tile gid="35"/>
   <tile gid="35"/>
   <tile gid="166"/>
   <tile gid="310"/>
   <tile gid="311"/>
   <tile gid="266"/>
   <tile gid="596"/>
   <tile gid="290"/>
   <tile gid="417"/>
   <tile gid="468"/>
   <tile gid="451"/>
   <tile gid="418"/>
   <tile gid="418"/>
   <tile gid="418"/>
   <tile gid="226"/>
   <tile gid="165"/>
   <tile gid="165"/>
   <tile gid="165"/>
   <tile gid="165"/>
   <tile gid="165"/>
   <tile gid="227"/>
   <tile gid="418"/>
   <tile gid="422"/>
   <tile gid="500"/>
   <tile gid="628"/>
   <tile gid="290"/>
   <tile gid="417"/>
   <tile gid="424"/>
   <tile gid="421"/>
   <tile gid="418"/>
   <tile gid="418"/>
   <tile gid="418"/>
   <tile gid="418"/>
   <tile gid="134"/>
   <tile gid="989"/>
   <tile gid="990"/>
   <tile gid="991"/>
   <tile gid="166"/>
   <tile gid="421"/>
   <tile gid="418"/>
   <tile gid="418"/>
   <tile gid="628"/>
   <tile gid="628"/>
   <tile gid="290"/>
   <tile gid="417"/>
   <tile gid="418"/>
   <tile gid="421"/>
   <tile gid="421"/>
   <tile gid="418"/>
   <tile gid="418"/>
   <tile gid="418"/>
   <tile gid="226"/>
   <tile gid="500"/>
   <tile gid="425"/>
   <tile gid="501"/>
   <tile gid="227"/>
   <tile gid="418"/>
   <tile gid="424"/>
   <tile gid="418"/>
   <tile gid="628"/>
   <tile gid="628"/>
  </data>
 </layer>
</map>
