<?xml version="1.0" encoding="UTF-8"?>
<map version="1.10" tiledversion="1.11.2" orientation="orthogonal" renderorder="right-down" width="30" height="19" tilewidth="16" tileheight="16" infinite="0" nextlayerid="4" nextobjectid="1">
 <tileset firstgid="1" name="04000304" tilewidth="16" tileheight="16" tilecount="1024" columns="32">
  <image source="04000304.png" trans="ffffff" width="512" height="512"/>
 </tileset>
 <layer id="1" name="Tile Layer 1" width="30" height="19">
  <properties>
   <property name="Anims1" value="0xE0"/>
   <property name="Anims2" value="0x0"/>
   <property name="ChapterID" value="9"/>
   <property name="Main" value=""/>
   <property name="MapChangesID" value="0x29"/>
   <property name="MapID" value="0x28"/>
   <property name="ObjectType" value="0x4"/>
   <property name="PaletteID" value="0x8"/>
   <property name="TileConfig" value="0x4"/>
  </properties>
  <data>
   <tile gid="498"/>
   <tile gid="584"/>
   <tile gid="129"/>
   <tile gid="492"/>
   <tile gid="458"/>
   <tile gid="362"/>
   <tile gid="80"/>
   <tile gid="81"/>
   <tile gid="82"/>
   <tile gid="458"/>
   <tile gid="490"/>
   <tile gid="490"/>
   <tile gid="458"/>
   <tile gid="458"/>
   <tile gid="362"/>
   <tile gid="701"/>
   <tile gid="458"/>
   <tile gid="458"/>
   <tile gid="487"/>
   <tile gid="487"/>
   <tile gid="397"/>
   <tile gid="129"/>
   <tile gid="100"/>
   <tile gid="145"/>
   <tile gid="20"/>
   <tile gid="146"/>
   <tile gid="368"/>
   <tile gid="893"/>
   <tile gid="893"/>
   <tile gid="162"/>
   <tile gid="498"/>
   <tile gid="851"/>
   <tile gid="100"/>
   <tile gid="521"/>
   <tile gid="394"/>
   <tile gid="458"/>
   <tile gid="112"/>
   <tile gid="113"/>
   <tile gid="114"/>
   <tile gid="557"/>
   <tile gid="851"/>
   <tile gid="781"/>
   <tile gid="492"/>
   <tile gid="490"/>
   <tile gid="458"/>
   <tile gid="458"/>
   <tile gid="394"/>
   <tile gid="166"/>
   <tile gid="194"/>
   <tile gid="194"/>
   <tile gid="489"/>
   <tile gid="331"/>
   <tile gid="667"/>
   <tile gid="177"/>
   <tile gid="52"/>
   <tile gid="178"/>
   <tile gid="368"/>
   <tile gid="893"/>
   <tile gid="129"/>
   <tile gid="893"/>
   <tile gid="498"/>
   <tile gid="851"/>
   <tile gid="851"/>
   <tile gid="162"/>
   <tile gid="667"/>
   <tile gid="556"/>
   <tile gid="490"/>
   <tile gid="458"/>
   <tile gid="491"/>
   <tile gid="781"/>
   <tile gid="33"/>
   <tile gid="813"/>
   <tile gid="129"/>
   <tile gid="635"/>
   <tile gid="489"/>
   <tile gid="166"/>
   <tile gid="194"/>
   <tile gid="194"/>
   <tile gid="501"/>
   <tile gid="472"/>
   <tile gid="194"/>
   <tile gid="205"/>
   <tile gid="525"/>
   <tile gid="194"/>
   <tile gid="304"/>
   <tile gid="129"/>
   <tile gid="400"/>
   <tile gid="37"/>
   <tile gid="130"/>
   <tile gid="893"/>
   <tile gid="498"/>
   <tile gid="71"/>
   <tile gid="143"/>
   <tile gid="17"/>
   <tile gid="144"/>
   <tile gid="129"/>
   <tile gid="100"/>
   <tile gid="360"/>
   <tile gid="420"/>
   <tile gid="813"/>
   <tile gid="45"/>
   <tile gid="40"/>
   <tile gid="194"/>
   <tile gid="194"/>
   <tile gid="130"/>
   <tile gid="473"/>
   <tile gid="194"/>
   <tile gid="194"/>
   <tile gid="194"/>
   <tile gid="420"/>
   <tile gid="472"/>
   <tile gid="393"/>
   <tile gid="459"/>
   <tile gid="133"/>
   <tile gid="166"/>
   <tile gid="194"/>
   <tile gid="851"/>
   <tile gid="37"/>
   <tile gid="194"/>
   <tile gid="194"/>
   <tile gid="498"/>
   <tile gid="103"/>
   <tile gid="175"/>
   <tile gid="49"/>
   <tile gid="176"/>
   <tile gid="194"/>
   <tile gid="460"/>
   <tile gid="363"/>
   <tile gid="194"/>
   <tile gid="129"/>
   <tile gid="194"/>
   <tile gid="781"/>
   <tile gid="851"/>
   <tile gid="420"/>
   <tile gid="471"/>
   <tile gid="40"/>
   <tile gid="667"/>
   <tile gid="194"/>
   <tile gid="129"/>
   <tile gid="130"/>
   <tile gid="194"/>
   <tile gid="133"/>
   <tile gid="458"/>
   <tile gid="363"/>
   <tile gid="100"/>
   <tile gid="194"/>
   <tile gid="6"/>
   <tile gid="162"/>
   <tile gid="194"/>
   <tile gid="129"/>
   <tile gid="498"/>
   <tile gid="420"/>
   <tile gid="553"/>
   <tile gid="490"/>
   <tile gid="525"/>
   <tile gid="329"/>
   <tile gid="362"/>
   <tile gid="363"/>
   <tile gid="420"/>
   <tile gid="194"/>
   <tile gid="851"/>
   <tile gid="813"/>
   <tile gid="129"/>
   <tile gid="501"/>
   <tile gid="40"/>
   <tile gid="420"/>
   <tile gid="83"/>
   <tile gid="84"/>
   <tile gid="85"/>
   <tile gid="583"/>
   <tile gid="194"/>
   <tile gid="489"/>
   <tile gid="490"/>
   <tile gid="490"/>
   <tile gid="397"/>
   <tile gid="130"/>
   <tile gid="194"/>
   <tile gid="616"/>
   <tile gid="194"/>
   <tile gid="258"/>
   <tile gid="498"/>
   <tile gid="130"/>
   <tile gid="100"/>
   <tile gid="194"/>
   <tile gid="492"/>
   <tile gid="458"/>
   <tile gid="458"/>
   <tile gid="458"/>
   <tile gid="426"/>
   <tile gid="426"/>
   <tile gid="397"/>
   <tile gid="420"/>
   <tile gid="129"/>
   <tile gid="533"/>
   <tile gid="425"/>
   <tile gid="397"/>
   <tile gid="115"/>
   <tile gid="116"/>
   <tile gid="117"/>
   <tile gid="129"/>
   <tile gid="194"/>
   <tile gid="851"/>
   <tile gid="472"/>
   <tile gid="420"/>
   <tile gid="165"/>
   <tile gid="522"/>
   <tile gid="522"/>
   <tile gid="397"/>
   <tile gid="100"/>
   <tile gid="130"/>
   <tile gid="594"/>
   <tile gid="592"/>
   <tile gid="590"/>
   <tile gid="129"/>
   <tile gid="616"/>
   <tile gid="457"/>
   <tile gid="491"/>
   <tile gid="392"/>
   <tile gid="492"/>
   <tile gid="490"/>
   <tile gid="458"/>
   <tile gid="427"/>
   <tile gid="582"/>
   <tile gid="396"/>
   <tile gid="458"/>
   <tile gid="490"/>
   <tile gid="522"/>
   <tile gid="458"/>
   <tile gid="331"/>
   <tile gid="667"/>
   <tile gid="851"/>
   <tile gid="417"/>
   <tile gid="506"/>
   <tile gid="668"/>
   <tile gid="194"/>
   <tile gid="129"/>
   <tile gid="396"/>
   <tile gid="458"/>
   <tile gid="426"/>
   <tile gid="331"/>
   <tile gid="626"/>
   <tile gid="624"/>
   <tile gid="622"/>
   <tile gid="420"/>
   <tile gid="460"/>
   <tile gid="493"/>
   <tile gid="225"/>
   <tile gid="129"/>
   <tile gid="225"/>
   <tile gid="420"/>
   <tile gid="492"/>
   <tile gid="458"/>
   <tile gid="330"/>
   <tile gid="490"/>
   <tile gid="493"/>
   <tile gid="503"/>
   <tile gid="417"/>
   <tile gid="489"/>
   <tile gid="459"/>
   <tile gid="417"/>
   <tile gid="436"/>
   <tile gid="504"/>
   <tile gid="420"/>
   <tile gid="130"/>
   <tile gid="194"/>
   <tile gid="194"/>
   <tile gid="428"/>
   <tile gid="490"/>
   <tile gid="362"/>
   <tile gid="429"/>
   <tile gid="111"/>
   <tile gid="45"/>
   <tile gid="100"/>
   <tile gid="425"/>
   <tile gid="459"/>
   <tile gid="420"/>
   <tile gid="225"/>
   <tile gid="635"/>
   <tile gid="425"/>
   <tile gid="330"/>
   <tile gid="522"/>
   <tile gid="458"/>
   <tile gid="493"/>
   <tile gid="194"/>
   <tile gid="614"/>
   <tile gid="851"/>
   <tile gid="503"/>
   <tile gid="130"/>
   <tile gid="457"/>
   <tile gid="426"/>
   <tile gid="330"/>
   <tile gid="134"/>
   <tile gid="91"/>
   <tile gid="92"/>
   <tile gid="28"/>
   <tile gid="92"/>
   <tile gid="96"/>
   <tile gid="460"/>
   <tile gid="458"/>
   <tile gid="427"/>
   <tile gid="40"/>
   <tile gid="667"/>
   <tile gid="396"/>
   <tile gid="493"/>
   <tile gid="361"/>
   <tile gid="522"/>
   <tile gid="522"/>
   <tile gid="426"/>
   <tile gid="701"/>
   <tile gid="459"/>
   <tile gid="584"/>
   <tile gid="428"/>
   <tile gid="461"/>
   <tile gid="100"/>
   <tile gid="194"/>
   <tile gid="194"/>
   <tile gid="635"/>
   <tile gid="460"/>
   <tile gid="362"/>
   <tile gid="166"/>
   <tile gid="165"/>
   <tile gid="456"/>
   <tile gid="123"/>
   <tile gid="64"/>
   <tile gid="59"/>
   <tile gid="64"/>
   <tile gid="128"/>
   <tile gid="457"/>
   <tile gid="701"/>
   <tile gid="458"/>
   <tile gid="522"/>
   <tile gid="522"/>
   <tile gid="429"/>
   <tile gid="129"/>
   <tile gid="360"/>
   <tile gid="225"/>
   <tile gid="616"/>
   <tile gid="428"/>
   <tile gid="490"/>
   <tile gid="491"/>
   <tile gid="225"/>
   <tile gid="425"/>
   <tile gid="458"/>
   <tile gid="427"/>
   <tile gid="129"/>
   <tile gid="460"/>
   <tile gid="426"/>
   <tile gid="459"/>
   <tile gid="173"/>
   <tile gid="100"/>
   <tile gid="425"/>
   <tile gid="490"/>
   <tile gid="426"/>
   <tile gid="458"/>
   <tile gid="426"/>
   <tile gid="490"/>
   <tile gid="554"/>
   <tile gid="458"/>
   <tile gid="458"/>
   <tile gid="429"/>
   <tile gid="100"/>
   <tile gid="225"/>
   <tile gid="584"/>
   <tile gid="225"/>
   <tile gid="457"/>
   <tile gid="397"/>
   <tile gid="420"/>
   <tile gid="161"/>
   <tile gid="225"/>
   <tile gid="129"/>
   <tile gid="420"/>
   <tile gid="457"/>
   <tile gid="362"/>
   <tile gid="394"/>
   <tile gid="522"/>
   <tile gid="490"/>
   <tile gid="394"/>
   <tile gid="458"/>
   <tile gid="426"/>
   <tile gid="522"/>
   <tile gid="493"/>
   <tile gid="420"/>
   <tile gid="428"/>
   <tile gid="458"/>
   <tile gid="557"/>
   <tile gid="635"/>
   <tile gid="420"/>
   <tile gid="457"/>
   <tile gid="395"/>
   <tile gid="615"/>
   <tile gid="494"/>
   <tile gid="592"/>
   <tile gid="590"/>
   <tile gid="420"/>
   <tile gid="428"/>
   <tile gid="490"/>
   <tile gid="330"/>
   <tile gid="397"/>
   <tile gid="129"/>
   <tile gid="635"/>
   <tile gid="425"/>
   <tile gid="458"/>
   <tile gid="491"/>
   <tile gid="100"/>
   <tile gid="129"/>
   <tile gid="635"/>
   <tile gid="420"/>
   <tile gid="393"/>
   <tile gid="429"/>
   <tile gid="129"/>
   <tile gid="29"/>
   <tile gid="30"/>
   <tile gid="31"/>
   <tile gid="489"/>
   <tile gid="427"/>
   <tile gid="494"/>
   <tile gid="590"/>
   <tile gid="556"/>
   <tile gid="397"/>
   <tile gid="100"/>
   <tile gid="621"/>
   <tile gid="624"/>
   <tile gid="622"/>
   <tile gid="225"/>
   <tile gid="225"/>
   <tile gid="225"/>
   <tile gid="428"/>
   <tile gid="394"/>
   <tile gid="554"/>
   <tile gid="426"/>
   <tile gid="458"/>
   <tile gid="493"/>
   <tile gid="129"/>
   <tile gid="194"/>
   <tile gid="194"/>
   <tile gid="29"/>
   <tile gid="30"/>
   <tile gid="31"/>
   <tile gid="100"/>
   <tile gid="194"/>
   <tile gid="61"/>
   <tile gid="62"/>
   <tile gid="63"/>
   <tile gid="329"/>
   <tile gid="459"/>
   <tile gid="621"/>
   <tile gid="622"/>
   <tile gid="396"/>
   <tile gid="459"/>
   <tile gid="129"/>
   <tile gid="530"/>
   <tile gid="149"/>
   <tile gid="30"/>
   <tile gid="31"/>
   <tile gid="615"/>
   <tile gid="129"/>
   <tile gid="577"/>
   <tile gid="578"/>
   <tile gid="584"/>
   <tile gid="428"/>
   <tile gid="459"/>
   <tile gid="29"/>
   <tile gid="30"/>
   <tile gid="31"/>
   <tile gid="616"/>
   <tile gid="61"/>
   <tile gid="62"/>
   <tile gid="63"/>
   <tile gid="130"/>
   <tile gid="194"/>
   <tile gid="666"/>
   <tile gid="492"/>
   <tile gid="134"/>
   <tile gid="492"/>
   <tile gid="459"/>
   <tile gid="530"/>
   <tile gid="40"/>
   <tile gid="457"/>
   <tile gid="458"/>
   <tile gid="397"/>
   <tile gid="530"/>
   <tile gid="61"/>
   <tile gid="127"/>
   <tile gid="128"/>
   <tile gid="546"/>
   <tile gid="225"/>
   <tile gid="609"/>
   <tile gid="610"/>
   <tile gid="130"/>
   <tile gid="129"/>
   <tile gid="360"/>
   <tile gid="61"/>
   <tile gid="62"/>
   <tile gid="63"/>
   <tile gid="420"/>
   <tile gid="396"/>
   <tile gid="458"/>
   <tile gid="397"/>
   <tile gid="582"/>
   <tile gid="194"/>
   <tile gid="129"/>
   <tile gid="100"/>
   <tile gid="457"/>
   <tile gid="522"/>
   <tile gid="459"/>
   <tile gid="530"/>
   <tile gid="420"/>
   <tile gid="492"/>
   <tile gid="458"/>
   <tile gid="395"/>
   <tile gid="530"/>
   <tile gid="546"/>
   <tile gid="111"/>
   <tile gid="71"/>
   <tile gid="274"/>
   <tile gid="225"/>
   <tile gid="161"/>
   <tile gid="667"/>
   <tile gid="420"/>
   <tile gid="425"/>
   <tile gid="363"/>
   <tile gid="396"/>
   <tile gid="490"/>
   <tile gid="522"/>
   <tile gid="522"/>
   <tile gid="493"/>
   <tile gid="359"/>
   <tile gid="492"/>
   <tile gid="522"/>
   <tile gid="522"/>
   <tile gid="522"/>
   <tile gid="522"/>
   <tile gid="493"/>
   <tile gid="524"/>
   <tile gid="395"/>
   <tile gid="530"/>
   <tile gid="194"/>
   <tile gid="522"/>
   <tile gid="458"/>
   <tile gid="397"/>
   <tile gid="530"/>
   <tile gid="851"/>
   <tile gid="71"/>
   <tile gid="545"/>
   <tile gid="306"/>
   <tile gid="225"/>
   <tile gid="129"/>
   <tile gid="225"/>
   <tile gid="396"/>
   <tile gid="362"/>
   <tile gid="458"/>
   <tile gid="493"/>
   <tile gid="635"/>
   <tile gid="194"/>
   <tile gid="129"/>
   <tile gid="420"/>
   <tile gid="304"/>
   <tile gid="420"/>
   <tile gid="129"/>
   <tile gid="194"/>
   <tile gid="615"/>
   <tile gid="420"/>
   <tile gid="425"/>
   <tile gid="429"/>
   <tile gid="614"/>
   <tile gid="530"/>
   <tile gid="635"/>
   <tile gid="129"/>
   <tile gid="361"/>
   <tile gid="362"/>
  </data>
 </layer>
 <layer id="2" name="Map Change 0" width="30" height="19">
  <properties>
   <property name="Height" value="1"/>
   <property name="ID" value="0"/>
   <property name="Width" value="1"/>
   <property name="X" value="10"/>
   <property name="Y" value="2"/>
  </properties>
  <data>
   <tile/>
   <tile/>
   <tile/>
   <tile/>
   <tile/>
   <tile/>
   <tile/>
   <tile/>
   <tile/>
   <tile/>
   <tile/>
   <tile/>
   <tile/>
   <tile/>
   <tile/>
   <tile/>
   <tile/>
   <tile/>
   <tile/>
   <tile/>
   <tile/>
   <tile/>
   <tile/>
   <tile/>
   <tile/>
   <tile/>
   <tile/>
   <tile/>
   <tile/>
   <tile/>
   <tile/>
   <tile/>
   <tile/>
   <tile/>
   <tile/>
   <tile/>
   <tile/>
   <tile/>
   <tile/>
   <tile/>
   <tile/>
   <tile/>
   <tile/>
   <tile/>
   <tile/>
   <tile/>
   <tile/>
   <tile/>
   <tile/>
   <tile/>
   <tile/>
   <tile/>
   <tile/>
   <tile/>
   <tile/>
   <tile/>
   <tile/>
   <tile/>
   <tile/>
   <tile/>
   <tile/>
   <tile/>
   <tile/>
   <tile/>
   <tile/>
   <tile/>
   <tile/>
   <tile/>
   <tile/>
   <tile/>
   <tile gid="65"/>
   <tile/>
   <tile/>
   <tile/>
   <tile/>
   <tile/>
   <tile/>
   <tile/>
   <tile/>
   <tile/>
   <tile/>
   <tile/>
   <tile/>
   <tile/>
   <tile/>
   <tile/>
   <tile/>
   <tile/>
   <tile/>
   <tile/>
   <tile/>
   <tile/>
   <tile/>
   <tile/>
   <tile/>
   <tile/>
   <tile/>
   <tile/>
   <tile/>
   <tile/>
   <tile/>
   <tile/>
   <tile/>
   <tile/>
   <tile/>
   <tile/>
   <tile/>
   <tile/>
   <tile/>
   <tile/>
   <tile/>
   <tile/>
   <tile/>
   <tile/>
   <tile/>
   <tile/>
   <tile/>
   <tile/>
   <tile/>
   <tile/>
   <tile/>
   <tile/>
   <tile/>
   <tile/>
   <tile/>
   <tile/>
   <tile/>
   <tile/>
   <tile/>
   <tile/>
   <tile/>
   <tile/>
   <tile/>
   <tile/>
   <tile/>
   <tile/>
   <tile/>
   <tile/>
   <tile/>
   <tile/>
   <tile/>
   <tile/>
   <tile/>
   <tile/>
   <tile/>
   <tile/>
   <tile/>
   <tile/>
   <tile/>
   <tile/>
   <tile/>
   <tile/>
   <tile/>
   <tile/>
   <tile/>
   <tile/>
   <tile/>
   <tile/>
   <tile/>
   <tile/>
   <tile/>
   <tile/>
   <tile/>
   <tile/>
   <tile/>
   <tile/>
   <tile/>
   <tile/>
   <tile/>
   <tile/>
   <tile/>
   <tile/>
   <tile/>
   <tile/>
   <tile/>
   <tile/>
   <tile/>
   <tile/>
   <tile/>
   <tile/>
   <tile/>
   <tile/>
   <tile/>
   <tile/>
   <tile/>
   <tile/>
   <tile/>
   <tile/>
   <tile/>
   <tile/>
   <tile/>
   <tile/>
   <tile/>
   <tile/>
   <tile/>
   <tile/>
   <tile/>
   <tile/>
   <tile/>
   <tile/>
   <tile/>
   <tile/>
   <tile/>
   <tile/>
   <tile/>
   <tile/>
   <tile/>
   <tile/>
   <tile/>
   <tile/>
   <tile/>
   <tile/>
   <tile/>
   <tile/>
   <tile/>
   <tile/>
   <tile/>
   <tile/>
   <tile/>
   <tile/>
   <tile/>
   <tile/>
   <tile/>
   <tile/>
   <tile/>
   <tile/>
   <tile/>
   <tile/>
   <tile/>
   <tile/>
   <tile/>
   <tile/>
   <tile/>
   <tile/>
   <tile/>
   <tile/>
   <tile/>
   <tile/>
   <tile/>
   <tile/>
   <tile/>
   <tile/>
   <tile/>
   <tile/>
   <tile/>
   <tile/>
   <tile/>
   <tile/>
   <tile/>
   <tile/>
   <tile/>
   <tile/>
   <tile/>
   <tile/>
   <tile/>
   <tile/>
   <tile/>
   <tile/>
   <tile/>
   <tile/>
   <tile/>
   <tile/>
   <tile/>
   <tile/>
   <tile/>
   <tile/>
   <tile/>
   <tile/>
   <tile/>
   <tile/>
   <tile/>
   <tile/>
   <tile/>
   <tile/>
   <tile/>
   <tile/>
   <tile/>
   <tile/>
   <tile/>
   <tile/>
   <tile/>
   <tile/>
   <tile/>
   <tile/>
   <tile/>
   <tile/>
   <tile/>
   <tile/>
   <tile/>
   <tile/>
   <tile/>
   <tile/>
   <tile/>
   <tile/>
   <tile/>
   <tile/>
   <tile/>
   <tile/>
   <tile/>
   <tile/>
   <tile/>
   <tile/>
   <tile/>
   <tile/>
   <tile/>
   <tile/>
   <tile/>
   <tile/>
   <tile/>
   <tile/>
   <tile/>
   <tile/>
   <tile/>
   <tile/>
   <tile/>
   <tile/>
   <tile/>
   <tile/>
   <tile/>
   <tile/>
   <tile/>
   <tile/>
   <tile/>
   <tile/>
   <tile/>
   <tile/>
   <tile/>
   <tile/>
   <tile/>
   <tile/>
   <tile/>
   <tile/>
   <tile/>
   <tile/>
   <tile/>
   <tile/>
   <tile/>
   <tile/>
   <tile/>
   <tile/>
   <tile/>
   <tile/>
   <tile/>
   <tile/>
   <tile/>
   <tile/>
   <tile/>
   <tile/>
   <tile/>
   <tile/>
   <tile/>
   <tile/>
   <tile/>
   <tile/>
   <tile/>
   <tile/>
   <tile/>
   <tile/>
   <tile/>
   <tile/>
   <tile/>
   <tile/>
   <tile/>
   <tile/>
   <tile/>
   <tile/>
   <tile/>
   <tile/>
   <tile/>
   <tile/>
   <tile/>
   <tile/>
   <tile/>
   <tile/>
   <tile/>
   <tile/>
   <tile/>
   <tile/>
   <tile/>
   <tile/>
   <tile/>
   <tile/>
   <tile/>
   <tile/>
   <tile/>
   <tile/>
   <tile/>
   <tile/>
   <tile/>
   <tile/>
   <tile/>
   <tile/>
   <tile/>
   <tile/>
   <tile/>
   <tile/>
   <tile/>
   <tile/>
   <tile/>
   <tile/>
   <tile/>
   <tile/>
   <tile/>
   <tile/>
   <tile/>
   <tile/>
   <tile/>
   <tile/>
   <tile/>
   <tile/>
   <tile/>
   <tile/>
   <tile/>
   <tile/>
   <tile/>
   <tile/>
   <tile/>
   <tile/>
   <tile/>
   <tile/>
   <tile/>
   <tile/>
   <tile/>
   <tile/>
   <tile/>
   <tile/>
   <tile/>
   <tile/>
   <tile/>
   <tile/>
   <tile/>
   <tile/>
   <tile/>
   <tile/>
   <tile/>
   <tile/>
   <tile/>
   <tile/>
   <tile/>
   <tile/>
   <tile/>
   <tile/>
   <tile/>
   <tile/>
   <tile/>
   <tile/>
   <tile/>
   <tile/>
   <tile/>
   <tile/>
   <tile/>
   <tile/>
   <tile/>
   <tile/>
   <tile/>
   <tile/>
   <tile/>
   <tile/>
   <tile/>
   <tile/>
   <tile/>
   <tile/>
   <tile/>
   <tile/>
   <tile/>
   <tile/>
   <tile/>
   <tile/>
   <tile/>
   <tile/>
   <tile/>
   <tile/>
   <tile/>
   <tile/>
   <tile/>
   <tile/>
   <tile/>
   <tile/>
   <tile/>
   <tile/>
   <tile/>
   <tile/>
   <tile/>
   <tile/>
   <tile/>
   <tile/>
   <tile/>
   <tile/>
   <tile/>
   <tile/>
   <tile/>
   <tile/>
   <tile/>
   <tile/>
   <tile/>
   <tile/>
   <tile/>
   <tile/>
   <tile/>
   <tile/>
   <tile/>
   <tile/>
   <tile/>
   <tile/>
   <tile/>
   <tile/>
   <tile/>
   <tile/>
   <tile/>
   <tile/>
   <tile/>
   <tile/>
   <tile/>
   <tile/>
   <tile/>
   <tile/>
   <tile/>
   <tile/>
   <tile/>
   <tile/>
   <tile/>
   <tile/>
   <tile/>
   <tile/>
   <tile/>
   <tile/>
   <tile/>
   <tile/>
   <tile/>
   <tile/>
   <tile/>
   <tile/>
   <tile/>
   <tile/>
   <tile/>
   <tile/>
   <tile/>
   <tile/>
   <tile/>
   <tile/>
   <tile/>
   <tile/>
   <tile/>
   <tile/>
   <tile/>
   <tile/>
   <tile/>
   <tile/>
   <tile/>
   <tile/>
   <tile/>
   <tile/>
   <tile/>
   <tile/>
   <tile/>
   <tile/>
   <tile/>
   <tile/>
   <tile/>
   <tile/>
   <tile/>
   <tile/>
   <tile/>
   <tile/>
   <tile/>
   <tile/>
   <tile/>
   <tile/>
   <tile/>
   <tile/>
  </data>
 </layer>
 <layer id="3" name="Map Change 1" width="30" height="19">
  <properties>
   <property name="Height" value="1"/>
   <property name="ID" value="1"/>
   <property name="Width" value="1"/>
   <property name="X" value="2"/>
   <property name="Y" value="16"/>
  </properties>
  <data>
   <tile/>
   <tile/>
   <tile/>
   <tile/>
   <tile/>
   <tile/>
   <tile/>
   <tile/>
   <tile/>
   <tile/>
   <tile/>
   <tile/>
   <tile/>
   <tile/>
   <tile/>
   <tile/>
   <tile/>
   <tile/>
   <tile/>
   <tile/>
   <tile/>
   <tile/>
   <tile/>
   <tile/>
   <tile/>
   <tile/>
   <tile/>
   <tile/>
   <tile/>
   <tile/>
   <tile/>
   <tile/>
   <tile/>
   <tile/>
   <tile/>
   <tile/>
   <tile/>
   <tile/>
   <tile/>
   <tile/>
   <tile/>
   <tile/>
   <tile/>
   <tile/>
   <tile/>
   <tile/>
   <tile/>
   <tile/>
   <tile/>
   <tile/>
   <tile/>
   <tile/>
   <tile/>
   <tile/>
   <tile/>
   <tile/>
   <tile/>
   <tile/>
   <tile/>
   <tile/>
   <tile/>
   <tile/>
   <tile/>
   <tile/>
   <tile/>
   <tile/>
   <tile/>
   <tile/>
   <tile/>
   <tile/>
   <tile/>
   <tile/>
   <tile/>
   <tile/>
   <tile/>
   <tile/>
   <tile/>
   <tile/>
   <tile/>
   <tile/>
   <tile/>
   <tile/>
   <tile/>
   <tile/>
   <tile/>
   <tile/>
   <tile/>
   <tile/>
   <tile/>
   <tile/>
   <tile/>
   <tile/>
   <tile/>
   <tile/>
   <tile/>
   <tile/>
   <tile/>
   <tile/>
   <tile/>
   <tile/>
   <tile/>
   <tile/>
   <tile/>
   <tile/>
   <tile/>
   <tile/>
   <tile/>
   <tile/>
   <tile/>
   <tile/>
   <tile/>
   <tile/>
   <tile/>
   <tile/>
   <tile/>
   <tile/>
   <tile/>
   <tile/>
   <tile/>
   <tile/>
   <tile/>
   <tile/>
   <tile/>
   <tile/>
   <tile/>
   <tile/>
   <tile/>
   <tile/>
   <tile/>
   <tile/>
   <tile/>
   <tile/>
   <tile/>
   <tile/>
   <tile/>
   <tile/>
   <tile/>
   <tile/>
   <tile/>
   <tile/>
   <tile/>
   <tile/>
   <tile/>
   <tile/>
   <tile/>
   <tile/>
   <tile/>
   <tile/>
   <tile/>
   <tile/>
   <tile/>
   <tile/>
   <tile/>
   <tile/>
   <tile/>
   <tile/>
   <tile/>
   <tile/>
   <tile/>
   <tile/>
   <tile/>
   <tile/>
   <tile/>
   <tile/>
   <tile/>
   <tile/>
   <tile/>
   <tile/>
   <tile/>
   <tile/>
   <tile/>
   <tile/>
   <tile/>
   <tile/>
   <tile/>
   <tile/>
   <tile/>
   <tile/>
   <tile/>
   <tile/>
   <tile/>
   <tile/>
   <tile/>
   <tile/>
   <tile/>
   <tile/>
   <tile/>
   <tile/>
   <tile/>
   <tile/>
   <tile/>
   <tile/>
   <tile/>
   <tile/>
   <tile/>
   <tile/>
   <tile/>
   <tile/>
   <tile/>
   <tile/>
   <tile/>
   <tile/>
   <tile/>
   <tile/>
   <tile/>
   <tile/>
   <tile/>
   <tile/>
   <tile/>
   <tile/>
   <tile/>
   <tile/>
   <tile/>
   <tile/>
   <tile/>
   <tile/>
   <tile/>
   <tile/>
   <tile/>
   <tile/>
   <tile/>
   <tile/>
   <tile/>
   <tile/>
   <tile/>
   <tile/>
   <tile/>
   <tile/>
   <tile/>
   <tile/>
   <tile/>
   <tile/>
   <tile/>
   <tile/>
   <tile/>
   <tile/>
   <tile/>
   <tile/>
   <tile/>
   <tile/>
   <tile/>
   <tile/>
   <tile/>
   <tile/>
   <tile/>
   <tile/>
   <tile/>
   <tile/>
   <tile/>
   <tile/>
   <tile/>
   <tile/>
   <tile/>
   <tile/>
   <tile/>
   <tile/>
   <tile/>
   <tile/>
   <tile/>
   <tile/>
   <tile/>
   <tile/>
   <tile/>
   <tile/>
   <tile/>
   <tile/>
   <tile/>
   <tile/>
   <tile/>
   <tile/>
   <tile/>
   <tile/>
   <tile/>
   <tile/>
   <tile/>
   <tile/>
   <tile/>
   <tile/>
   <tile/>
   <tile/>
   <tile/>
   <tile/>
   <tile/>
   <tile/>
   <tile/>
   <tile/>
   <tile/>
   <tile/>
   <tile/>
   <tile/>
   <tile/>
   <tile/>
   <tile/>
   <tile/>
   <tile/>
   <tile/>
   <tile/>
   <tile/>
   <tile/>
   <tile/>
   <tile/>
   <tile/>
   <tile/>
   <tile/>
   <tile/>
   <tile/>
   <tile/>
   <tile/>
   <tile/>
   <tile/>
   <tile/>
   <tile/>
   <tile/>
   <tile/>
   <tile/>
   <tile/>
   <tile/>
   <tile/>
   <tile/>
   <tile/>
   <tile/>
   <tile/>
   <tile/>
   <tile/>
   <tile/>
   <tile/>
   <tile/>
   <tile/>
   <tile/>
   <tile/>
   <tile/>
   <tile/>
   <tile/>
   <tile/>
   <tile/>
   <tile/>
   <tile/>
   <tile/>
   <tile/>
   <tile/>
   <tile/>
   <tile/>
   <tile/>
   <tile/>
   <tile/>
   <tile/>
   <tile/>
   <tile/>
   <tile/>
   <tile/>
   <tile/>
   <tile/>
   <tile/>
   <tile/>
   <tile/>
   <tile/>
   <tile/>
   <tile/>
   <tile/>
   <tile/>
   <tile/>
   <tile/>
   <tile/>
   <tile/>
   <tile/>
   <tile/>
   <tile/>
   <tile/>
   <tile/>
   <tile/>
   <tile/>
   <tile/>
   <tile/>
   <tile/>
   <tile/>
   <tile/>
   <tile/>
   <tile/>
   <tile/>
   <tile/>
   <tile/>
   <tile/>
   <tile/>
   <tile/>
   <tile/>
   <tile/>
   <tile/>
   <tile/>
   <tile/>
   <tile/>
   <tile/>
   <tile/>
   <tile/>
   <tile/>
   <tile/>
   <tile/>
   <tile/>
   <tile/>
   <tile/>
   <tile/>
   <tile/>
   <tile/>
   <tile/>
   <tile/>
   <tile/>
   <tile/>
   <tile/>
   <tile/>
   <tile/>
   <tile/>
   <tile/>
   <tile/>
   <tile/>
   <tile/>
   <tile/>
   <tile/>
   <tile/>
   <tile/>
   <tile/>
   <tile/>
   <tile/>
   <tile/>
   <tile/>
   <tile/>
   <tile/>
   <tile/>
   <tile/>
   <tile/>
   <tile/>
   <tile/>
   <tile/>
   <tile/>
   <tile/>
   <tile/>
   <tile/>
   <tile/>
   <tile/>
   <tile/>
   <tile/>
   <tile/>
   <tile/>
   <tile/>
   <tile/>
   <tile/>
   <tile/>
   <tile/>
   <tile/>
   <tile/>
   <tile/>
   <tile/>
   <tile/>
   <tile/>
   <tile/>
   <tile/>
   <tile/>
   <tile/>
   <tile/>
   <tile/>
   <tile/>
   <tile/>
   <tile/>
   <tile/>
   <tile/>
   <tile/>
   <tile/>
   <tile/>
   <tile/>
   <tile/>
   <tile/>
   <tile/>
   <tile/>
   <tile/>
   <tile/>
   <tile/>
   <tile/>
   <tile/>
   <tile/>
   <tile/>
   <tile/>
   <tile/>
   <tile/>
   <tile/>
   <tile gid="32"/>
   <tile/>
   <tile/>
   <tile/>
   <tile/>
   <tile/>
   <tile/>
   <tile/>
   <tile/>
   <tile/>
   <tile/>
   <tile/>
   <tile/>
   <tile/>
   <tile/>
   <tile/>
   <tile/>
   <tile/>
   <tile/>
   <tile/>
   <tile/>
   <tile/>
   <tile/>
   <tile/>
   <tile/>
   <tile/>
   <tile/>
   <tile/>
   <tile/>
   <tile/>
   <tile/>
   <tile/>
   <tile/>
   <tile/>
   <tile/>
   <tile/>
   <tile/>
   <tile/>
   <tile/>
   <tile/>
   <tile/>
   <tile/>
   <tile/>
   <tile/>
   <tile/>
   <tile/>
   <tile/>
   <tile/>
   <tile/>
   <tile/>
   <tile/>
   <tile/>
   <tile/>
   <tile/>
   <tile/>
   <tile/>
   <tile/>
   <tile/>
   <tile/>
   <tile/>
   <tile/>
   <tile/>
   <tile/>
   <tile/>
   <tile/>
   <tile/>
   <tile/>
   <tile/>
   <tile/>
   <tile/>
   <tile/>
   <tile/>
   <tile/>
   <tile/>
   <tile/>
   <tile/>
   <tile/>
   <tile/>
   <tile/>
   <tile/>
   <tile/>
   <tile/>
   <tile/>
   <tile/>
   <tile/>
   <tile/>
   <tile/>
   <tile/>
  </data>
 </layer>
</map>
