<?xml version="1.0" encoding="UTF-8"?>
<map version="1.10" tiledversion="1.11.2" orientation="orthogonal" renderorder="right-down" width="25" height="18" tilewidth="16" tileheight="16" infinite="0" nextlayerid="5" nextobjectid="1">
 <tileset firstgid="1" name="0E000F10" tilewidth="16" tileheight="16" tilecount="1024" columns="32">
  <image source="0E000F10.png" trans="ffffff" width="512" height="512"/>
 </tileset>
 <layer id="1" name="Tile Layer 1" width="25" height="18">
  <properties>
   <property name="Anims1" value="0xE0"/>
   <property name="Anims2" value="0x0"/>
   <property name="ChapterID" value="10"/>
   <property name="Main" value=""/>
   <property name="MapChangesID" value="0x37"/>
   <property name="MapID" value="0x36"/>
   <property name="ObjectType" value="0x4"/>
   <property name="PaletteID" value="0x8"/>
   <property name="TileConfig" value="0x4"/>
  </properties>
  <data>
   <tile gid="972"/>
   <tile gid="802"/>
   <tile gid="866"/>
   <tile gid="931"/>
   <tile gid="966"/>
   <tile gid="966"/>
   <tile gid="963"/>
   <tile gid="966"/>
   <tile gid="933"/>
   <tile gid="933"/>
   <tile gid="803"/>
   <tile gid="97"/>
   <tile gid="354"/>
   <tile gid="482"/>
   <tile gid="387"/>
   <tile gid="851"/>
   <tile gid="130"/>
   <tile gid="33"/>
   <tile gid="666"/>
   <tile gid="353"/>
   <tile gid="323"/>
   <tile gid="130"/>
   <tile gid="193"/>
   <tile gid="614"/>
   <tile gid="133"/>
   <tile gid="851"/>
   <tile gid="801"/>
   <tile gid="962"/>
   <tile gid="866"/>
   <tile gid="995"/>
   <tile gid="966"/>
   <tile gid="900"/>
   <tile gid="867"/>
   <tile gid="966"/>
   <tile gid="808"/>
   <tile gid="141"/>
   <tile gid="353"/>
   <tile gid="482"/>
   <tile gid="482"/>
   <tile gid="354"/>
   <tile gid="387"/>
   <tile gid="68"/>
   <tile gid="193"/>
   <tile gid="385"/>
   <tile gid="482"/>
   <tile gid="482"/>
   <tile gid="355"/>
   <tile gid="161"/>
   <tile gid="100"/>
   <tile gid="297"/>
   <tile gid="130"/>
   <tile gid="97"/>
   <tile gid="801"/>
   <tile gid="962"/>
   <tile gid="866"/>
   <tile gid="995"/>
   <tile gid="964"/>
   <tile gid="931"/>
   <tile gid="933"/>
   <tile gid="803"/>
   <tile gid="304"/>
   <tile gid="353"/>
   <tile gid="482"/>
   <tile gid="354"/>
   <tile gid="387"/>
   <tile gid="615"/>
   <tile gid="353"/>
   <tile gid="322"/>
   <tile gid="482"/>
   <tile gid="482"/>
   <tile gid="354"/>
   <tile gid="387"/>
   <tile gid="193"/>
   <tile gid="133"/>
   <tile gid="272"/>
   <tile gid="129"/>
   <tile gid="851"/>
   <tile gid="97"/>
   <tile gid="801"/>
   <tile gid="962"/>
   <tile gid="1002"/>
   <tile gid="805"/>
   <tile gid="876"/>
   <tile gid="803"/>
   <tile gid="133"/>
   <tile gid="166"/>
   <tile gid="353"/>
   <tile gid="482"/>
   <tile gid="387"/>
   <tile gid="226"/>
   <tile gid="322"/>
   <tile gid="226"/>
   <tile gid="353"/>
   <tile gid="482"/>
   <tile gid="482"/>
   <tile gid="355"/>
   <tile gid="193"/>
   <tile gid="419"/>
   <tile gid="297"/>
   <tile gid="272"/>
   <tile gid="274"/>
   <tile gid="851"/>
   <tile gid="354"/>
   <tile gid="482"/>
   <tile gid="354"/>
   <tile gid="165"/>
   <tile gid="305"/>
   <tile gid="305"/>
   <tile gid="305"/>
   <tile gid="166"/>
   <tile gid="321"/>
   <tile gid="354"/>
   <tile gid="387"/>
   <tile gid="851"/>
   <tile gid="668"/>
   <tile gid="385"/>
   <tile gid="322"/>
   <tile gid="354"/>
   <tile gid="482"/>
   <tile gid="386"/>
   <tile gid="387"/>
   <tile gid="130"/>
   <tile gid="193"/>
   <tile gid="165"/>
   <tile gid="166"/>
   <tile gid="355"/>
   <tile gid="354"/>
   <tile gid="482"/>
   <tile gid="482"/>
   <tile gid="482"/>
   <tile gid="387"/>
   <tile gid="129"/>
   <tile gid="161"/>
   <tile gid="321"/>
   <tile gid="321"/>
   <tile gid="354"/>
   <tile gid="355"/>
   <tile gid="851"/>
   <tile gid="851"/>
   <tile gid="130"/>
   <tile gid="274"/>
   <tile gid="385"/>
   <tile gid="354"/>
   <tile gid="355"/>
   <tile gid="161"/>
   <tile gid="667"/>
   <tile gid="323"/>
   <tile gid="161"/>
   <tile gid="193"/>
   <tile gid="193"/>
   <tile gid="387"/>
   <tile gid="354"/>
   <tile gid="482"/>
   <tile gid="482"/>
   <tile gid="354"/>
   <tile gid="323"/>
   <tile gid="323"/>
   <tile gid="323"/>
   <tile gid="354"/>
   <tile gid="482"/>
   <tile gid="482"/>
   <tile gid="354"/>
   <tile gid="355"/>
   <tile gid="667"/>
   <tile gid="35"/>
   <tile gid="306"/>
   <tile gid="354"/>
   <tile gid="354"/>
   <tile gid="386"/>
   <tile gid="420"/>
   <tile gid="323"/>
   <tile gid="354"/>
   <tile gid="323"/>
   <tile gid="161"/>
   <tile gid="100"/>
   <tile gid="354"/>
   <tile gid="355"/>
   <tile gid="482"/>
   <tile gid="386"/>
   <tile gid="354"/>
   <tile gid="355"/>
   <tile gid="482"/>
   <tile gid="482"/>
   <tile gid="482"/>
   <tile gid="482"/>
   <tile gid="482"/>
   <tile gid="354"/>
   <tile gid="354"/>
   <tile gid="226"/>
   <tile gid="353"/>
   <tile gid="354"/>
   <tile gid="482"/>
   <tile gid="482"/>
   <tile gid="193"/>
   <tile gid="417"/>
   <tile gid="193"/>
   <tile gid="481"/>
   <tile gid="354"/>
   <tile gid="323"/>
   <tile gid="130"/>
   <tile gid="355"/>
   <tile gid="387"/>
   <tile gid="851"/>
   <tile gid="851"/>
   <tile gid="386"/>
   <tile gid="354"/>
   <tile gid="482"/>
   <tile gid="482"/>
   <tile gid="482"/>
   <tile gid="482"/>
   <tile gid="386"/>
   <tile gid="386"/>
   <tile gid="386"/>
   <tile gid="355"/>
   <tile gid="162"/>
   <tile gid="354"/>
   <tile gid="482"/>
   <tile gid="387"/>
   <tile gid="129"/>
   <tile gid="353"/>
   <tile gid="450"/>
   <tile gid="323"/>
   <tile gid="354"/>
   <tile gid="323"/>
   <tile gid="322"/>
   <tile gid="355"/>
   <tile gid="635"/>
   <tile gid="33"/>
   <tile gid="274"/>
   <tile gid="851"/>
   <tile gid="353"/>
   <tile gid="482"/>
   <tile gid="482"/>
   <tile gid="482"/>
   <tile gid="355"/>
   <tile gid="851"/>
   <tile gid="274"/>
   <tile gid="40"/>
   <tile gid="129"/>
   <tile gid="226"/>
   <tile gid="226"/>
   <tile gid="386"/>
   <tile gid="851"/>
   <tile gid="130"/>
   <tile gid="353"/>
   <tile gid="387"/>
   <tile gid="668"/>
   <tile gid="323"/>
   <tile gid="130"/>
   <tile gid="354"/>
   <tile gid="354"/>
   <tile gid="323"/>
   <tile gid="666"/>
   <tile gid="306"/>
   <tile gid="274"/>
   <tile gid="353"/>
   <tile gid="354"/>
   <tile gid="482"/>
   <tile gid="354"/>
   <tile gid="387"/>
   <tile gid="79"/>
   <tile gid="306"/>
   <tile gid="226"/>
   <tile gid="614"/>
   <tile gid="781"/>
   <tile gid="322"/>
   <tile gid="226"/>
   <tile gid="67"/>
   <tile gid="851"/>
   <tile gid="355"/>
   <tile gid="194"/>
   <tile gid="161"/>
   <tile gid="385"/>
   <tile gid="323"/>
   <tile gid="194"/>
   <tile gid="482"/>
   <tile gid="354"/>
   <tile gid="323"/>
   <tile gid="129"/>
   <tile gid="306"/>
   <tile gid="353"/>
   <tile gid="386"/>
   <tile gid="354"/>
   <tile gid="355"/>
   <tile gid="851"/>
   <tile gid="71"/>
   <tile gid="635"/>
   <tile gid="226"/>
   <tile gid="193"/>
   <tile gid="813"/>
   <tile gid="353"/>
   <tile gid="354"/>
   <tile gid="322"/>
   <tile gid="322"/>
   <tile gid="354"/>
   <tile gid="161"/>
   <tile gid="100"/>
   <tile gid="667"/>
   <tile gid="385"/>
   <tile gid="355"/>
   <tile gid="482"/>
   <tile gid="482"/>
   <tile gid="354"/>
   <tile gid="322"/>
   <tile gid="322"/>
   <tile gid="387"/>
   <tile gid="130"/>
   <tile gid="353"/>
   <tile gid="387"/>
   <tile gid="108"/>
   <tile gid="274"/>
   <tile gid="161"/>
   <tile gid="616"/>
   <tile gid="851"/>
   <tile gid="162"/>
   <tile gid="385"/>
   <tile gid="353"/>
   <tile gid="354"/>
   <tile gid="482"/>
   <tile gid="354"/>
   <tile gid="387"/>
   <tile gid="130"/>
   <tile gid="226"/>
   <tile gid="386"/>
   <tile gid="40"/>
   <tile gid="482"/>
   <tile gid="386"/>
   <tile gid="387"/>
   <tile gid="385"/>
   <tile gid="387"/>
   <tile gid="226"/>
   <tile gid="321"/>
   <tile gid="387"/>
   <tile gid="162"/>
   <tile gid="417"/>
   <tile gid="306"/>
   <tile gid="322"/>
   <tile gid="851"/>
   <tile gid="449"/>
   <tile gid="387"/>
   <tile gid="162"/>
   <tile gid="353"/>
   <tile gid="386"/>
   <tile gid="482"/>
   <tile gid="482"/>
   <tile gid="354"/>
   <tile gid="354"/>
   <tile gid="355"/>
   <tile gid="40"/>
   <tile gid="226"/>
   <tile gid="387"/>
   <tile gid="274"/>
   <tile gid="40"/>
   <tile gid="161"/>
   <tile gid="699"/>
   <tile gid="385"/>
   <tile gid="355"/>
   <tile gid="226"/>
   <tile gid="417"/>
   <tile gid="162"/>
   <tile gid="321"/>
   <tile gid="354"/>
   <tile gid="482"/>
   <tile gid="356"/>
   <tile gid="40"/>
   <tile gid="194"/>
   <tile gid="385"/>
   <tile gid="851"/>
   <tile gid="33"/>
   <tile gid="482"/>
   <tile gid="354"/>
   <tile gid="387"/>
   <tile gid="40"/>
   <tile gid="161"/>
   <tile gid="616"/>
   <tile gid="274"/>
   <tile gid="306"/>
   <tile gid="161"/>
   <tile gid="193"/>
   <tile gid="193"/>
   <tile gid="129"/>
   <tile gid="355"/>
   <tile gid="130"/>
   <tile gid="667"/>
   <tile gid="321"/>
   <tile gid="354"/>
   <tile gid="354"/>
   <tile gid="354"/>
   <tile gid="356"/>
   <tile gid="130"/>
   <tile gid="420"/>
   <tile gid="194"/>
   <tile gid="781"/>
   <tile gid="851"/>
   <tile gid="353"/>
   <tile gid="387"/>
   <tile gid="584"/>
   <tile gid="193"/>
   <tile gid="226"/>
   <tile gid="226"/>
   <tile gid="306"/>
   <tile gid="667"/>
   <tile gid="193"/>
   <tile gid="193"/>
   <tile gid="274"/>
   <tile gid="851"/>
   <tile gid="385"/>
   <tile gid="321"/>
   <tile gid="322"/>
   <tile gid="482"/>
   <tile gid="482"/>
   <tile gid="354"/>
   <tile gid="354"/>
   <tile gid="354"/>
   <tile gid="452"/>
   <tile gid="194"/>
   <tile gid="161"/>
   <tile gid="813"/>
   <tile gid="667"/>
   <tile gid="353"/>
   <tile gid="387"/>
   <tile gid="226"/>
   <tile gid="226"/>
   <tile gid="130"/>
   <tile gid="321"/>
   <tile gid="354"/>
   <tile gid="851"/>
   <tile gid="130"/>
   <tile gid="616"/>
   <tile gid="851"/>
   <tile gid="321"/>
   <tile gid="354"/>
   <tile gid="482"/>
   <tile gid="482"/>
   <tile gid="482"/>
   <tile gid="482"/>
   <tile gid="482"/>
   <tile gid="482"/>
   <tile gid="354"/>
   <tile gid="484"/>
   <tile gid="161"/>
   <tile gid="226"/>
   <tile gid="130"/>
   <tile gid="321"/>
   <tile gid="387"/>
   <tile gid="130"/>
   <tile gid="226"/>
   <tile gid="667"/>
   <tile gid="321"/>
   <tile gid="482"/>
  </data>
 </layer>
 <layer id="2" name="Map Change 0" width="25" height="18">
  <properties>
   <property name="Height" value="1"/>
   <property name="ID" value="0"/>
   <property name="Width" value="1"/>
   <property name="X" value="17"/>
   <property name="Y" value="0"/>
  </properties>
  <data>
   <tile/>
   <tile/>
   <tile/>
   <tile/>
   <tile/>
   <tile/>
   <tile/>
   <tile/>
   <tile/>
   <tile/>
   <tile/>
   <tile/>
   <tile/>
   <tile/>
   <tile/>
   <tile/>
   <tile/>
   <tile gid="65"/>
   <tile/>
   <tile/>
   <tile/>
   <tile/>
   <tile/>
   <tile/>
   <tile/>
   <tile/>
   <tile/>
   <tile/>
   <tile/>
   <tile/>
   <tile/>
   <tile/>
   <tile/>
   <tile/>
   <tile/>
   <tile/>
   <tile/>
   <tile/>
   <tile/>
   <tile/>
   <tile/>
   <tile/>
   <tile/>
   <tile/>
   <tile/>
   <tile/>
   <tile/>
   <tile/>
   <tile/>
   <tile/>
   <tile/>
   <tile/>
   <tile/>
   <tile/>
   <tile/>
   <tile/>
   <tile/>
   <tile/>
   <tile/>
   <tile/>
   <tile/>
   <tile/>
   <tile/>
   <tile/>
   <tile/>
   <tile/>
   <tile/>
   <tile/>
   <tile/>
   <tile/>
   <tile/>
   <tile/>
   <tile/>
   <tile/>
   <tile/>
   <tile/>
   <tile/>
   <tile/>
   <tile/>
   <tile/>
   <tile/>
   <tile/>
   <tile/>
   <tile/>
   <tile/>
   <tile/>
   <tile/>
   <tile/>
   <tile/>
   <tile/>
   <tile/>
   <tile/>
   <tile/>
   <tile/>
   <tile/>
   <tile/>
   <tile/>
   <tile/>
   <tile/>
   <tile/>
   <tile/>
   <tile/>
   <tile/>
   <tile/>
   <tile/>
   <tile/>
   <tile/>
   <tile/>
   <tile/>
   <tile/>
   <tile/>
   <tile/>
   <tile/>
   <tile/>
   <tile/>
   <tile/>
   <tile/>
   <tile/>
   <tile/>
   <tile/>
   <tile/>
   <tile/>
   <tile/>
   <tile/>
   <tile/>
   <tile/>
   <tile/>
   <tile/>
   <tile/>
   <tile/>
   <tile/>
   <tile/>
   <tile/>
   <tile/>
   <tile/>
   <tile/>
   <tile/>
   <tile/>
   <tile/>
   <tile/>
   <tile/>
   <tile/>
   <tile/>
   <tile/>
   <tile/>
   <tile/>
   <tile/>
   <tile/>
   <tile/>
   <tile/>
   <tile/>
   <tile/>
   <tile/>
   <tile/>
   <tile/>
   <tile/>
   <tile/>
   <tile/>
   <tile/>
   <tile/>
   <tile/>
   <tile/>
   <tile/>
   <tile/>
   <tile/>
   <tile/>
   <tile/>
   <tile/>
   <tile/>
   <tile/>
   <tile/>
   <tile/>
   <tile/>
   <tile/>
   <tile/>
   <tile/>
   <tile/>
   <tile/>
   <tile/>
   <tile/>
   <tile/>
   <tile/>
   <tile/>
   <tile/>
   <tile/>
   <tile/>
   <tile/>
   <tile/>
   <tile/>
   <tile/>
   <tile/>
   <tile/>
   <tile/>
   <tile/>
   <tile/>
   <tile/>
   <tile/>
   <tile/>
   <tile/>
   <tile/>
   <tile/>
   <tile/>
   <tile/>
   <tile/>
   <tile/>
   <tile/>
   <tile/>
   <tile/>
   <tile/>
   <tile/>
   <tile/>
   <tile/>
   <tile/>
   <tile/>
   <tile/>
   <tile/>
   <tile/>
   <tile/>
   <tile/>
   <tile/>
   <tile/>
   <tile/>
   <tile/>
   <tile/>
   <tile/>
   <tile/>
   <tile/>
   <tile/>
   <tile/>
   <tile/>
   <tile/>
   <tile/>
   <tile/>
   <tile/>
   <tile/>
   <tile/>
   <tile/>
   <tile/>
   <tile/>
   <tile/>
   <tile/>
   <tile/>
   <tile/>
   <tile/>
   <tile/>
   <tile/>
   <tile/>
   <tile/>
   <tile/>
   <tile/>
   <tile/>
   <tile/>
   <tile/>
   <tile/>
   <tile/>
   <tile/>
   <tile/>
   <tile/>
   <tile/>
   <tile/>
   <tile/>
   <tile/>
   <tile/>
   <tile/>
   <tile/>
   <tile/>
   <tile/>
   <tile/>
   <tile/>
   <tile/>
   <tile/>
   <tile/>
   <tile/>
   <tile/>
   <tile/>
   <tile/>
   <tile/>
   <tile/>
   <tile/>
   <tile/>
   <tile/>
   <tile/>
   <tile/>
   <tile/>
   <tile/>
   <tile/>
   <tile/>
   <tile/>
   <tile/>
   <tile/>
   <tile/>
   <tile/>
   <tile/>
   <tile/>
   <tile/>
   <tile/>
   <tile/>
   <tile/>
   <tile/>
   <tile/>
   <tile/>
   <tile/>
   <tile/>
   <tile/>
   <tile/>
   <tile/>
   <tile/>
   <tile/>
   <tile/>
   <tile/>
   <tile/>
   <tile/>
   <tile/>
   <tile/>
   <tile/>
   <tile/>
   <tile/>
   <tile/>
   <tile/>
   <tile/>
   <tile/>
   <tile/>
   <tile/>
   <tile/>
   <tile/>
   <tile/>
   <tile/>
   <tile/>
   <tile/>
   <tile/>
   <tile/>
   <tile/>
   <tile/>
   <tile/>
   <tile/>
   <tile/>
   <tile/>
   <tile/>
   <tile/>
   <tile/>
   <tile/>
   <tile/>
   <tile/>
   <tile/>
   <tile/>
   <tile/>
   <tile/>
   <tile/>
   <tile/>
   <tile/>
   <tile/>
   <tile/>
   <tile/>
   <tile/>
   <tile/>
   <tile/>
   <tile/>
   <tile/>
   <tile/>
   <tile/>
   <tile/>
   <tile/>
   <tile/>
   <tile/>
   <tile/>
   <tile/>
   <tile/>
   <tile/>
   <tile/>
   <tile/>
   <tile/>
   <tile/>
   <tile/>
   <tile/>
   <tile/>
   <tile/>
   <tile/>
   <tile/>
   <tile/>
   <tile/>
   <tile/>
   <tile/>
   <tile/>
   <tile/>
   <tile/>
   <tile/>
   <tile/>
   <tile/>
   <tile/>
   <tile/>
   <tile/>
   <tile/>
   <tile/>
   <tile/>
   <tile/>
   <tile/>
   <tile/>
   <tile/>
   <tile/>
   <tile/>
   <tile/>
   <tile/>
   <tile/>
   <tile/>
   <tile/>
   <tile/>
   <tile/>
   <tile/>
   <tile/>
   <tile/>
   <tile/>
   <tile/>
   <tile/>
   <tile/>
   <tile/>
   <tile/>
   <tile/>
   <tile/>
   <tile/>
   <tile/>
   <tile/>
   <tile/>
   <tile/>
   <tile/>
   <tile/>
   <tile/>
   <tile/>
   <tile/>
   <tile/>
   <tile/>
   <tile/>
   <tile/>
   <tile/>
   <tile/>
   <tile/>
   <tile/>
   <tile/>
   <tile/>
   <tile/>
   <tile/>
   <tile/>
   <tile/>
   <tile/>
   <tile/>
   <tile/>
   <tile/>
   <tile/>
   <tile/>
   <tile/>
   <tile/>
  </data>
 </layer>
 <layer id="3" name="Map Change 1" width="25" height="18">
  <properties>
   <property name="Height" value="1"/>
   <property name="ID" value="1"/>
   <property name="Width" value="1"/>
   <property name="X" value="2"/>
   <property name="Y" value="9"/>
  </properties>
  <data>
   <tile/>
   <tile/>
   <tile/>
   <tile/>
   <tile/>
   <tile/>
   <tile/>
   <tile/>
   <tile/>
   <tile/>
   <tile/>
   <tile/>
   <tile/>
   <tile/>
   <tile/>
   <tile/>
   <tile/>
   <tile/>
   <tile/>
   <tile/>
   <tile/>
   <tile/>
   <tile/>
   <tile/>
   <tile/>
   <tile/>
   <tile/>
   <tile/>
   <tile/>
   <tile/>
   <tile/>
   <tile/>
   <tile/>
   <tile/>
   <tile/>
   <tile/>
   <tile/>
   <tile/>
   <tile/>
   <tile/>
   <tile/>
   <tile/>
   <tile/>
   <tile/>
   <tile/>
   <tile/>
   <tile/>
   <tile/>
   <tile/>
   <tile/>
   <tile/>
   <tile/>
   <tile/>
   <tile/>
   <tile/>
   <tile/>
   <tile/>
   <tile/>
   <tile/>
   <tile/>
   <tile/>
   <tile/>
   <tile/>
   <tile/>
   <tile/>
   <tile/>
   <tile/>
   <tile/>
   <tile/>
   <tile/>
   <tile/>
   <tile/>
   <tile/>
   <tile/>
   <tile/>
   <tile/>
   <tile/>
   <tile/>
   <tile/>
   <tile/>
   <tile/>
   <tile/>
   <tile/>
   <tile/>
   <tile/>
   <tile/>
   <tile/>
   <tile/>
   <tile/>
   <tile/>
   <tile/>
   <tile/>
   <tile/>
   <tile/>
   <tile/>
   <tile/>
   <tile/>
   <tile/>
   <tile/>
   <tile/>
   <tile/>
   <tile/>
   <tile/>
   <tile/>
   <tile/>
   <tile/>
   <tile/>
   <tile/>
   <tile/>
   <tile/>
   <tile/>
   <tile/>
   <tile/>
   <tile/>
   <tile/>
   <tile/>
   <tile/>
   <tile/>
   <tile/>
   <tile/>
   <tile/>
   <tile/>
   <tile/>
   <tile/>
   <tile/>
   <tile/>
   <tile/>
   <tile/>
   <tile/>
   <tile/>
   <tile/>
   <tile/>
   <tile/>
   <tile/>
   <tile/>
   <tile/>
   <tile/>
   <tile/>
   <tile/>
   <tile/>
   <tile/>
   <tile/>
   <tile/>
   <tile/>
   <tile/>
   <tile/>
   <tile/>
   <tile/>
   <tile/>
   <tile/>
   <tile/>
   <tile/>
   <tile/>
   <tile/>
   <tile/>
   <tile/>
   <tile/>
   <tile/>
   <tile/>
   <tile/>
   <tile/>
   <tile/>
   <tile/>
   <tile/>
   <tile/>
   <tile/>
   <tile/>
   <tile/>
   <tile/>
   <tile/>
   <tile/>
   <tile/>
   <tile/>
   <tile/>
   <tile/>
   <tile/>
   <tile/>
   <tile/>
   <tile/>
   <tile/>
   <tile/>
   <tile/>
   <tile/>
   <tile/>
   <tile/>
   <tile/>
   <tile/>
   <tile/>
   <tile/>
   <tile/>
   <tile/>
   <tile/>
   <tile/>
   <tile/>
   <tile/>
   <tile/>
   <tile/>
   <tile/>
   <tile/>
   <tile/>
   <tile/>
   <tile/>
   <tile/>
   <tile/>
   <tile/>
   <tile/>
   <tile/>
   <tile/>
   <tile/>
   <tile/>
   <tile/>
   <tile/>
   <tile/>
   <tile/>
   <tile/>
   <tile/>
   <tile/>
   <tile/>
   <tile/>
   <tile/>
   <tile/>
   <tile/>
   <tile/>
   <tile/>
   <tile/>
   <tile/>
   <tile/>
   <tile gid="65"/>
   <tile/>
   <tile/>
   <tile/>
   <tile/>
   <tile/>
   <tile/>
   <tile/>
   <tile/>
   <tile/>
   <tile/>
   <tile/>
   <tile/>
   <tile/>
   <tile/>
   <tile/>
   <tile/>
   <tile/>
   <tile/>
   <tile/>
   <tile/>
   <tile/>
   <tile/>
   <tile/>
   <tile/>
   <tile/>
   <tile/>
   <tile/>
   <tile/>
   <tile/>
   <tile/>
   <tile/>
   <tile/>
   <tile/>
   <tile/>
   <tile/>
   <tile/>
   <tile/>
   <tile/>
   <tile/>
   <tile/>
   <tile/>
   <tile/>
   <tile/>
   <tile/>
   <tile/>
   <tile/>
   <tile/>
   <tile/>
   <tile/>
   <tile/>
   <tile/>
   <tile/>
   <tile/>
   <tile/>
   <tile/>
   <tile/>
   <tile/>
   <tile/>
   <tile/>
   <tile/>
   <tile/>
   <tile/>
   <tile/>
   <tile/>
   <tile/>
   <tile/>
   <tile/>
   <tile/>
   <tile/>
   <tile/>
   <tile/>
   <tile/>
   <tile/>
   <tile/>
   <tile/>
   <tile/>
   <tile/>
   <tile/>
   <tile/>
   <tile/>
   <tile/>
   <tile/>
   <tile/>
   <tile/>
   <tile/>
   <tile/>
   <tile/>
   <tile/>
   <tile/>
   <tile/>
   <tile/>
   <tile/>
   <tile/>
   <tile/>
   <tile/>
   <tile/>
   <tile/>
   <tile/>
   <tile/>
   <tile/>
   <tile/>
   <tile/>
   <tile/>
   <tile/>
   <tile/>
   <tile/>
   <tile/>
   <tile/>
   <tile/>
   <tile/>
   <tile/>
   <tile/>
   <tile/>
   <tile/>
   <tile/>
   <tile/>
   <tile/>
   <tile/>
   <tile/>
   <tile/>
   <tile/>
   <tile/>
   <tile/>
   <tile/>
   <tile/>
   <tile/>
   <tile/>
   <tile/>
   <tile/>
   <tile/>
   <tile/>
   <tile/>
   <tile/>
   <tile/>
   <tile/>
   <tile/>
   <tile/>
   <tile/>
   <tile/>
   <tile/>
   <tile/>
   <tile/>
   <tile/>
   <tile/>
   <tile/>
   <tile/>
   <tile/>
   <tile/>
   <tile/>
   <tile/>
   <tile/>
   <tile/>
   <tile/>
   <tile/>
   <tile/>
   <tile/>
   <tile/>
   <tile/>
   <tile/>
   <tile/>
   <tile/>
   <tile/>
   <tile/>
   <tile/>
   <tile/>
   <tile/>
   <tile/>
   <tile/>
   <tile/>
   <tile/>
   <tile/>
   <tile/>
   <tile/>
   <tile/>
   <tile/>
   <tile/>
   <tile/>
   <tile/>
   <tile/>
   <tile/>
   <tile/>
   <tile/>
   <tile/>
   <tile/>
   <tile/>
   <tile/>
   <tile/>
   <tile/>
   <tile/>
   <tile/>
   <tile/>
   <tile/>
   <tile/>
   <tile/>
   <tile/>
   <tile/>
   <tile/>
   <tile/>
   <tile/>
   <tile/>
   <tile/>
   <tile/>
   <tile/>
   <tile/>
   <tile/>
   <tile/>
   <tile/>
   <tile/>
   <tile/>
   <tile/>
   <tile/>
   <tile/>
   <tile/>
   <tile/>
   <tile/>
   <tile/>
   <tile/>
   <tile/>
   <tile/>
   <tile/>
   <tile/>
   <tile/>
  </data>
 </layer>
 <layer id="4" name="Map Change 2" width="25" height="18">
  <properties>
   <property name="Height" value="1"/>
   <property name="ID" value="2"/>
   <property name="Width" value="1"/>
   <property name="X" value="18"/>
   <property name="Y" value="14"/>
  </properties>
  <data>
   <tile/>
   <tile/>
   <tile/>
   <tile/>
   <tile/>
   <tile/>
   <tile/>
   <tile/>
   <tile/>
   <tile/>
   <tile/>
   <tile/>
   <tile/>
   <tile/>
   <tile/>
   <tile/>
   <tile/>
   <tile/>
   <tile/>
   <tile/>
   <tile/>
   <tile/>
   <tile/>
   <tile/>
   <tile/>
   <tile/>
   <tile/>
   <tile/>
   <tile/>
   <tile/>
   <tile/>
   <tile/>
   <tile/>
   <tile/>
   <tile/>
   <tile/>
   <tile/>
   <tile/>
   <tile/>
   <tile/>
   <tile/>
   <tile/>
   <tile/>
   <tile/>
   <tile/>
   <tile/>
   <tile/>
   <tile/>
   <tile/>
   <tile/>
   <tile/>
   <tile/>
   <tile/>
   <tile/>
   <tile/>
   <tile/>
   <tile/>
   <tile/>
   <tile/>
   <tile/>
   <tile/>
   <tile/>
   <tile/>
   <tile/>
   <tile/>
   <tile/>
   <tile/>
   <tile/>
   <tile/>
   <tile/>
   <tile/>
   <tile/>
   <tile/>
   <tile/>
   <tile/>
   <tile/>
   <tile/>
   <tile/>
   <tile/>
   <tile/>
   <tile/>
   <tile/>
   <tile/>
   <tile/>
   <tile/>
   <tile/>
   <tile/>
   <tile/>
   <tile/>
   <tile/>
   <tile/>
   <tile/>
   <tile/>
   <tile/>
   <tile/>
   <tile/>
   <tile/>
   <tile/>
   <tile/>
   <tile/>
   <tile/>
   <tile/>
   <tile/>
   <tile/>
   <tile/>
   <tile/>
   <tile/>
   <tile/>
   <tile/>
   <tile/>
   <tile/>
   <tile/>
   <tile/>
   <tile/>
   <tile/>
   <tile/>
   <tile/>
   <tile/>
   <tile/>
   <tile/>
   <tile/>
   <tile/>
   <tile/>
   <tile/>
   <tile/>
   <tile/>
   <tile/>
   <tile/>
   <tile/>
   <tile/>
   <tile/>
   <tile/>
   <tile/>
   <tile/>
   <tile/>
   <tile/>
   <tile/>
   <tile/>
   <tile/>
   <tile/>
   <tile/>
   <tile/>
   <tile/>
   <tile/>
   <tile/>
   <tile/>
   <tile/>
   <tile/>
   <tile/>
   <tile/>
   <tile/>
   <tile/>
   <tile/>
   <tile/>
   <tile/>
   <tile/>
   <tile/>
   <tile/>
   <tile/>
   <tile/>
   <tile/>
   <tile/>
   <tile/>
   <tile/>
   <tile/>
   <tile/>
   <tile/>
   <tile/>
   <tile/>
   <tile/>
   <tile/>
   <tile/>
   <tile/>
   <tile/>
   <tile/>
   <tile/>
   <tile/>
   <tile/>
   <tile/>
   <tile/>
   <tile/>
   <tile/>
   <tile/>
   <tile/>
   <tile/>
   <tile/>
   <tile/>
   <tile/>
   <tile/>
   <tile/>
   <tile/>
   <tile/>
   <tile/>
   <tile/>
   <tile/>
   <tile/>
   <tile/>
   <tile/>
   <tile/>
   <tile/>
   <tile/>
   <tile/>
   <tile/>
   <tile/>
   <tile/>
   <tile/>
   <tile/>
   <tile/>
   <tile/>
   <tile/>
   <tile/>
   <tile/>
   <tile/>
   <tile/>
   <tile/>
   <tile/>
   <tile/>
   <tile/>
   <tile/>
   <tile/>
   <tile/>
   <tile/>
   <tile/>
   <tile/>
   <tile/>
   <tile/>
   <tile/>
   <tile/>
   <tile/>
   <tile/>
   <tile/>
   <tile/>
   <tile/>
   <tile/>
   <tile/>
   <tile/>
   <tile/>
   <tile/>
   <tile/>
   <tile/>
   <tile/>
   <tile/>
   <tile/>
   <tile/>
   <tile/>
   <tile/>
   <tile/>
   <tile/>
   <tile/>
   <tile/>
   <tile/>
   <tile/>
   <tile/>
   <tile/>
   <tile/>
   <tile/>
   <tile/>
   <tile/>
   <tile/>
   <tile/>
   <tile/>
   <tile/>
   <tile/>
   <tile/>
   <tile/>
   <tile/>
   <tile/>
   <tile/>
   <tile/>
   <tile/>
   <tile/>
   <tile/>
   <tile/>
   <tile/>
   <tile/>
   <tile/>
   <tile/>
   <tile/>
   <tile/>
   <tile/>
   <tile/>
   <tile/>
   <tile/>
   <tile/>
   <tile/>
   <tile/>
   <tile/>
   <tile/>
   <tile/>
   <tile/>
   <tile/>
   <tile/>
   <tile/>
   <tile/>
   <tile/>
   <tile/>
   <tile/>
   <tile/>
   <tile/>
   <tile/>
   <tile/>
   <tile/>
   <tile/>
   <tile/>
   <tile/>
   <tile/>
   <tile/>
   <tile/>
   <tile/>
   <tile/>
   <tile/>
   <tile/>
   <tile/>
   <tile/>
   <tile/>
   <tile/>
   <tile/>
   <tile/>
   <tile/>
   <tile/>
   <tile/>
   <tile/>
   <tile/>
   <tile/>
   <tile/>
   <tile/>
   <tile/>
   <tile/>
   <tile/>
   <tile/>
   <tile/>
   <tile/>
   <tile/>
   <tile/>
   <tile/>
   <tile/>
   <tile/>
   <tile/>
   <tile/>
   <tile/>
   <tile/>
   <tile/>
   <tile/>
   <tile/>
   <tile/>
   <tile/>
   <tile/>
   <tile/>
   <tile/>
   <tile/>
   <tile/>
   <tile/>
   <tile/>
   <tile/>
   <tile/>
   <tile/>
   <tile/>
   <tile/>
   <tile/>
   <tile/>
   <tile/>
   <tile/>
   <tile/>
   <tile/>
   <tile/>
   <tile/>
   <tile/>
   <tile/>
   <tile gid="65"/>
   <tile/>
   <tile/>
   <tile/>
   <tile/>
   <tile/>
   <tile/>
   <tile/>
   <tile/>
   <tile/>
   <tile/>
   <tile/>
   <tile/>
   <tile/>
   <tile/>
   <tile/>
   <tile/>
   <tile/>
   <tile/>
   <tile/>
   <tile/>
   <tile/>
   <tile/>
   <tile/>
   <tile/>
   <tile/>
   <tile/>
   <tile/>
   <tile/>
   <tile/>
   <tile/>
   <tile/>
   <tile/>
   <tile/>
   <tile/>
   <tile/>
   <tile/>
   <tile/>
   <tile/>
   <tile/>
   <tile/>
   <tile/>
   <tile/>
   <tile/>
   <tile/>
   <tile/>
   <tile/>
   <tile/>
   <tile/>
   <tile/>
   <tile/>
   <tile/>
   <tile/>
   <tile/>
   <tile/>
   <tile/>
   <tile/>
   <tile/>
   <tile/>
   <tile/>
   <tile/>
   <tile/>
   <tile/>
   <tile/>
   <tile/>
   <tile/>
   <tile/>
   <tile/>
   <tile/>
   <tile/>
   <tile/>
   <tile/>
   <tile/>
   <tile/>
   <tile/>
   <tile/>
   <tile/>
   <tile/>
   <tile/>
   <tile/>
   <tile/>
   <tile/>
  </data>
 </layer>
</map>
