<?xml version="1.0" encoding="UTF-8"?>
<map version="1.10" tiledversion="1.11.2" orientation="orthogonal" renderorder="right-down" width="21" height="18" tilewidth="16" tileheight="16" infinite="0" nextlayerid="2" nextobjectid="1">
 <tileset firstgid="1" name="04000304" tilewidth="16" tileheight="16" tilecount="1024" columns="32">
  <image source="04000304" trans="ffffff" width="512" height="512"/>
 </tileset>
 <layer id="1" name="Tile Layer 1" width="21" height="18">
  <properties>
   <property name="Anims1" value="0x30"/>
   <property name="Anims2" value="0"/>
   <property name="ChapterID" value="0x4e"/>
   <property name="Main" value=""/>
   <property name="MapChangesID" value="0"/>
   <property name="MapID" value="0xd6"/>
   <property name="ObjectType" value="3"/>
   <property name="PaletteID" value="6"/>
   <property name="TileConfig" value="3"/>
  </properties>
  <data>
   <tile gid="20"/>
   <tile gid="18"/>
   <tile gid="21"/>
   <tile gid="21"/>
   <tile gid="18"/>
   <tile gid="22"/>
   <tile gid="20"/>
   <tile gid="21"/>
   <tile gid="21"/>
   <tile gid="18"/>
   <tile gid="21"/>
   <tile gid="21"/>
   <tile gid="22"/>
   <tile gid="20"/>
   <tile gid="18"/>
   <tile gid="21"/>
   <tile gid="21"/>
   <tile gid="18"/>
   <tile gid="22"/>
   <tile gid="20"/>
   <tile gid="21"/>
   <tile gid="52"/>
   <tile gid="50"/>
   <tile gid="53"/>
   <tile gid="53"/>
   <tile gid="50"/>
   <tile gid="54"/>
   <tile gid="52"/>
   <tile gid="53"/>
   <tile gid="53"/>
   <tile gid="50"/>
   <tile gid="53"/>
   <tile gid="53"/>
   <tile gid="54"/>
   <tile gid="52"/>
   <tile gid="50"/>
   <tile gid="53"/>
   <tile gid="53"/>
   <tile gid="50"/>
   <tile gid="54"/>
   <tile gid="52"/>
   <tile gid="53"/>
   <tile gid="422"/>
   <tile gid="419"/>
   <tile gid="422"/>
   <tile gid="419"/>
   <tile gid="422"/>
   <tile gid="419"/>
   <tile gid="422"/>
   <tile gid="419"/>
   <tile gid="422"/>
   <tile gid="419"/>
   <tile gid="422"/>
   <tile gid="419"/>
   <tile gid="422"/>
   <tile gid="419"/>
   <tile gid="422"/>
   <tile gid="419"/>
   <tile gid="422"/>
   <tile gid="419"/>
   <tile gid="422"/>
   <tile gid="419"/>
   <tile gid="422"/>
   <tile gid="418"/>
   <tile gid="421"/>
   <tile gid="13"/>
   <tile gid="420"/>
   <tile gid="418"/>
   <tile gid="421"/>
   <tile gid="13"/>
   <tile gid="420"/>
   <tile gid="418"/>
   <tile gid="421"/>
   <tile gid="418"/>
   <tile gid="421"/>
   <tile gid="13"/>
   <tile gid="420"/>
   <tile gid="418"/>
   <tile gid="421"/>
   <tile gid="418"/>
   <tile gid="421"/>
   <tile gid="13"/>
   <tile gid="420"/>
   <tile gid="418"/>
   <tile gid="421"/>
   <tile gid="418"/>
   <tile gid="45"/>
   <tile gid="451"/>
   <tile gid="421"/>
   <tile gid="418"/>
   <tile gid="45"/>
   <tile gid="451"/>
   <tile gid="421"/>
   <tile gid="418"/>
   <tile gid="421"/>
   <tile gid="418"/>
   <tile gid="45"/>
   <tile gid="451"/>
   <tile gid="421"/>
   <tile gid="418"/>
   <tile gid="421"/>
   <tile gid="418"/>
   <tile gid="45"/>
   <tile gid="451"/>
   <tile gid="421"/>
   <tile gid="418"/>
   <tile gid="421"/>
   <tile gid="418"/>
   <tile gid="421"/>
   <tile gid="418"/>
   <tile gid="421"/>
   <tile gid="418"/>
   <tile gid="421"/>
   <tile gid="418"/>
   <tile gid="421"/>
   <tile gid="418"/>
   <tile gid="421"/>
   <tile gid="418"/>
   <tile gid="421"/>
   <tile gid="418"/>
   <tile gid="421"/>
   <tile gid="418"/>
   <tile gid="421"/>
   <tile gid="418"/>
   <tile gid="421"/>
   <tile gid="418"/>
   <tile gid="421"/>
   <tile gid="418"/>
   <tile gid="421"/>
   <tile gid="418"/>
   <tile gid="353"/>
   <tile gid="279"/>
   <tile gid="279"/>
   <tile gid="6"/>
   <tile gid="420"/>
   <tile gid="418"/>
   <tile gid="421"/>
   <tile gid="6"/>
   <tile gid="279"/>
   <tile gid="279"/>
   <tile gid="279"/>
   <tile gid="326"/>
   <tile gid="420"/>
   <tile gid="418"/>
   <tile gid="421"/>
   <tile gid="418"/>
   <tile gid="421"/>
   <tile gid="418"/>
   <tile gid="421"/>
   <tile gid="418"/>
   <tile gid="421"/>
   <tile gid="292"/>
   <tile gid="311"/>
   <tile gid="80"/>
   <tile gid="566"/>
   <tile gid="417"/>
   <tile gid="421"/>
   <tile gid="418"/>
   <tile gid="566"/>
   <tile gid="80"/>
   <tile gid="311"/>
   <tile gid="311"/>
   <tile gid="292"/>
   <tile gid="417"/>
   <tile gid="421"/>
   <tile gid="13"/>
   <tile gid="420"/>
   <tile gid="418"/>
   <tile gid="421"/>
   <tile gid="13"/>
   <tile gid="420"/>
   <tile gid="418"/>
   <tile gid="292"/>
   <tile gid="450"/>
   <tile gid="112"/>
   <tile gid="450"/>
   <tile gid="421"/>
   <tile gid="418"/>
   <tile gid="421"/>
   <tile gid="419"/>
   <tile gid="112"/>
   <tile gid="450"/>
   <tile gid="422"/>
   <tile gid="292"/>
   <tile gid="420"/>
   <tile gid="418"/>
   <tile gid="45"/>
   <tile gid="451"/>
   <tile gid="421"/>
   <tile gid="418"/>
   <tile gid="45"/>
   <tile gid="451"/>
   <tile gid="421"/>
   <tile gid="292"/>
   <tile gid="420"/>
   <tile gid="418"/>
   <tile gid="421"/>
   <tile gid="418"/>
   <tile gid="421"/>
   <tile gid="418"/>
   <tile gid="421"/>
   <tile gid="418"/>
   <tile gid="421"/>
   <tile gid="418"/>
   <tile gid="278"/>
   <tile gid="279"/>
   <tile gid="279"/>
   <tile gid="279"/>
   <tile gid="279"/>
   <tile gid="279"/>
   <tile gid="421"/>
   <tile gid="418"/>
   <tile gid="421"/>
   <tile gid="418"/>
   <tile gid="292"/>
   <tile gid="417"/>
   <tile gid="421"/>
   <tile gid="418"/>
   <tile gid="421"/>
   <tile gid="418"/>
   <tile gid="421"/>
   <tile gid="418"/>
   <tile gid="421"/>
   <tile gid="418"/>
   <tile gid="421"/>
   <tile gid="597"/>
   <tile gid="311"/>
   <tile gid="311"/>
   <tile gid="311"/>
   <tile gid="311"/>
   <tile gid="311"/>
   <tile gid="418"/>
   <tile gid="421"/>
   <tile gid="418"/>
   <tile gid="353"/>
   <tile gid="386"/>
   <tile gid="420"/>
   <tile gid="418"/>
   <tile gid="30"/>
   <tile gid="31"/>
   <tile gid="420"/>
   <tile gid="418"/>
   <tile gid="421"/>
   <tile gid="418"/>
   <tile gid="421"/>
   <tile gid="418"/>
   <tile gid="629"/>
   <tile gid="597"/>
   <tile gid="311"/>
   <tile gid="311"/>
   <tile gid="311"/>
   <tile gid="311"/>
   <tile gid="421"/>
   <tile gid="418"/>
   <tile gid="421"/>
   <tile gid="292"/>
   <tile gid="141"/>
   <tile gid="417"/>
   <tile gid="421"/>
   <tile gid="62"/>
   <tile gid="63"/>
   <tile gid="417"/>
   <tile gid="421"/>
   <tile gid="418"/>
   <tile gid="421"/>
   <tile gid="418"/>
   <tile gid="421"/>
   <tile gid="629"/>
   <tile gid="629"/>
   <tile gid="597"/>
   <tile gid="311"/>
   <tile gid="311"/>
   <tile gid="311"/>
   <tile gid="418"/>
   <tile gid="421"/>
   <tile gid="418"/>
   <tile gid="292"/>
   <tile gid="450"/>
   <tile gid="421"/>
   <tile gid="418"/>
   <tile gid="94"/>
   <tile gid="95"/>
   <tile gid="420"/>
   <tile gid="418"/>
   <tile gid="421"/>
   <tile gid="418"/>
   <tile gid="421"/>
   <tile gid="418"/>
   <tile gid="629"/>
   <tile gid="629"/>
   <tile gid="629"/>
   <tile gid="597"/>
   <tile gid="311"/>
   <tile gid="311"/>
   <tile gid="421"/>
   <tile gid="13"/>
   <tile gid="420"/>
   <tile gid="292"/>
   <tile gid="420"/>
   <tile gid="418"/>
   <tile gid="421"/>
   <tile gid="419"/>
   <tile gid="235"/>
   <tile gid="418"/>
   <tile gid="421"/>
   <tile gid="418"/>
   <tile gid="421"/>
   <tile gid="418"/>
   <tile gid="421"/>
   <tile gid="629"/>
   <tile gid="629"/>
   <tile gid="629"/>
   <tile gid="629"/>
   <tile gid="597"/>
   <tile gid="311"/>
   <tile gid="418"/>
   <tile gid="45"/>
   <tile gid="451"/>
   <tile gid="292"/>
   <tile gid="417"/>
   <tile gid="421"/>
   <tile gid="418"/>
   <tile gid="421"/>
   <tile gid="418"/>
   <tile gid="421"/>
   <tile gid="418"/>
   <tile gid="421"/>
   <tile gid="418"/>
   <tile gid="421"/>
   <tile gid="418"/>
   <tile gid="629"/>
   <tile gid="629"/>
   <tile gid="629"/>
   <tile gid="629"/>
   <tile gid="629"/>
   <tile gid="597"/>
   <tile gid="421"/>
   <tile gid="418"/>
   <tile gid="421"/>
   <tile gid="292"/>
   <tile gid="420"/>
   <tile gid="418"/>
   <tile gid="421"/>
   <tile gid="418"/>
   <tile gid="421"/>
   <tile gid="418"/>
   <tile gid="421"/>
   <tile gid="418"/>
   <tile gid="421"/>
   <tile gid="418"/>
   <tile gid="421"/>
   <tile gid="629"/>
   <tile gid="629"/>
   <tile gid="629"/>
   <tile gid="629"/>
   <tile gid="629"/>
   <tile gid="629"/>
   <tile gid="418"/>
   <tile gid="421"/>
   <tile gid="418"/>
   <tile gid="292"/>
   <tile gid="417"/>
   <tile gid="421"/>
   <tile gid="418"/>
   <tile gid="421"/>
   <tile gid="418"/>
   <tile gid="421"/>
   <tile gid="418"/>
   <tile gid="421"/>
   <tile gid="418"/>
   <tile gid="421"/>
   <tile gid="418"/>
   <tile gid="629"/>
   <tile gid="629"/>
   <tile gid="629"/>
   <tile gid="629"/>
   <tile gid="629"/>
   <tile gid="629"/>
  </data>
 </layer>
</map>
