<?xml version="1.0" encoding="UTF-8"?>
<map version="1.10" tiledversion="1.11.2" orientation="orthogonal" renderorder="right-down" width="20" height="17" tilewidth="16" tileheight="16" infinite="0" nextlayerid="2" nextobjectid="1">
 <tileset firstgid="1" name="SuperFields" tilewidth="16" tileheight="16" tilecount="1024" columns="32">
  <image source="SuperFields" trans="ffffff" width="512" height="512"/>
 </tileset>
 <layer id="1" name="Tile Layer 1" width="20" height="17">
  <properties>
   <property name="Anims1" value="0"/>
   <property name="Anims2" value="0"/>
   <property name="ChapterID" value="0x1"/>
   <property name="Main" value=""/>
   <property name="MapChangesID" value="0x9"/>
   <property name="MapID" value="0x8"/>
   <property name="ObjectType" value="0x1"/>
   <property name="PaletteID" value="0x3"/>
   <property name="TileConfig" value="0x1"/>
  </properties>
  <data>
   <tile gid="724"/>
   <tile gid="724"/>
   <tile gid="724"/>
   <tile gid="724"/>
   <tile gid="724"/>
   <tile gid="737"/>
   <tile gid="721"/>
   <tile gid="99"/>
   <tile gid="99"/>
   <tile gid="721"/>
   <tile gid="99"/>
   <tile gid="99"/>
   <tile gid="99"/>
   <tile gid="99"/>
   <tile gid="194"/>
   <tile gid="99"/>
   <tile gid="721"/>
   <tile gid="99"/>
   <tile gid="99"/>
   <tile gid="99"/>
   <tile gid="724"/>
   <tile gid="808"/>
   <tile gid="809"/>
   <tile gid="810"/>
   <tile gid="882"/>
   <tile gid="673"/>
   <tile gid="837"/>
   <tile gid="99"/>
   <tile gid="99"/>
   <tile gid="99"/>
   <tile gid="99"/>
   <tile gid="721"/>
   <tile gid="99"/>
   <tile gid="99"/>
   <tile gid="258"/>
   <tile gid="99"/>
   <tile gid="99"/>
   <tile gid="99"/>
   <tile gid="141"/>
   <tile gid="721"/>
   <tile gid="722"/>
   <tile gid="840"/>
   <tile gid="841"/>
   <tile gid="842"/>
   <tile gid="914"/>
   <tile gid="883"/>
   <tile gid="737"/>
   <tile gid="933"/>
   <tile gid="71"/>
   <tile gid="72"/>
   <tile gid="641"/>
   <tile gid="933"/>
   <tile gid="742"/>
   <tile gid="674"/>
   <tile gid="565"/>
   <tile gid="769"/>
   <tile gid="741"/>
   <tile gid="141"/>
   <tile gid="143"/>
   <tile gid="674"/>
   <tile gid="915"/>
   <tile gid="872"/>
   <tile gid="873"/>
   <tile gid="874"/>
   <tile gid="913"/>
   <tile gid="915"/>
   <tile gid="673"/>
   <tile gid="674"/>
   <tile gid="143"/>
   <tile gid="104"/>
   <tile gid="673"/>
   <tile gid="674"/>
   <tile gid="209"/>
   <tile gid="932"/>
   <tile gid="605"/>
   <tile gid="536"/>
   <tile gid="71"/>
   <tile gid="7"/>
   <tile gid="104"/>
   <tile gid="901"/>
   <tile gid="946"/>
   <tile gid="947"/>
   <tile gid="332"/>
   <tile gid="99"/>
   <tile gid="945"/>
   <tile gid="946"/>
   <tile gid="947"/>
   <tile gid="71"/>
   <tile gid="7"/>
   <tile gid="144"/>
   <tile gid="99"/>
   <tile gid="721"/>
   <tile gid="99"/>
   <tile gid="597"/>
   <tile gid="635"/>
   <tile gid="599"/>
   <tile gid="143"/>
   <tile gid="144"/>
   <tile gid="721"/>
   <tile gid="332"/>
   <tile gid="99"/>
   <tile gid="99"/>
   <tile gid="99"/>
   <tile gid="99"/>
   <tile gid="99"/>
   <tile gid="99"/>
   <tile gid="71"/>
   <tile gid="7"/>
   <tile gid="112"/>
   <tile gid="104"/>
   <tile gid="99"/>
   <tile gid="632"/>
   <tile gid="603"/>
   <tile gid="606"/>
   <tile gid="721"/>
   <tile gid="142"/>
   <tile gid="103"/>
   <tile gid="144"/>
   <tile gid="99"/>
   <tile gid="99"/>
   <tile gid="99"/>
   <tile gid="721"/>
   <tile gid="199"/>
   <tile gid="200"/>
   <tile gid="721"/>
   <tile gid="99"/>
   <tile gid="103"/>
   <tile gid="104"/>
   <tile gid="99"/>
   <tile gid="99"/>
   <tile gid="721"/>
   <tile gid="605"/>
   <tile gid="704"/>
   <tile gid="630"/>
   <tile gid="99"/>
   <tile gid="142"/>
   <tile gid="99"/>
   <tile gid="174"/>
   <tile gid="99"/>
   <tile gid="721"/>
   <tile gid="99"/>
   <tile gid="99"/>
   <tile gid="231"/>
   <tile gid="306"/>
   <tile gid="200"/>
   <tile gid="99"/>
   <tile gid="99"/>
   <tile gid="99"/>
   <tile gid="721"/>
   <tile gid="597"/>
   <tile gid="603"/>
   <tile gid="704"/>
   <tile gid="599"/>
   <tile gid="721"/>
   <tile gid="71"/>
   <tile gid="144"/>
   <tile gid="99"/>
   <tile gid="721"/>
   <tile gid="99"/>
   <tile gid="849"/>
   <tile gid="99"/>
   <tile gid="99"/>
   <tile gid="99"/>
   <tile gid="721"/>
   <tile gid="231"/>
   <tile gid="274"/>
   <tile gid="200"/>
   <tile gid="597"/>
   <tile gid="603"/>
   <tile gid="636"/>
   <tile gid="636"/>
   <tile gid="630"/>
   <tile gid="641"/>
   <tile gid="99"/>
   <tile gid="103"/>
   <tile gid="104"/>
   <tile gid="99"/>
   <tile gid="99"/>
   <tile gid="849"/>
   <tile gid="883"/>
   <tile gid="721"/>
   <tile gid="99"/>
   <tile gid="99"/>
   <tile gid="99"/>
   <tile gid="99"/>
   <tile gid="897"/>
   <tile gid="899"/>
   <tile gid="704"/>
   <tile gid="630"/>
   <tile gid="721"/>
   <tile gid="932"/>
   <tile gid="641"/>
   <tile gid="197"/>
   <tile gid="198"/>
   <tile gid="99"/>
   <tile gid="99"/>
   <tile gid="721"/>
   <tile gid="849"/>
   <tile gid="882"/>
   <tile gid="883"/>
   <tile gid="99"/>
   <tile gid="99"/>
   <tile gid="99"/>
   <tile gid="597"/>
   <tile gid="603"/>
   <tile gid="929"/>
   <tile gid="931"/>
   <tile gid="630"/>
   <tile gid="99"/>
   <tile gid="99"/>
   <tile gid="332"/>
   <tile gid="737"/>
   <tile gid="229"/>
   <tile gid="230"/>
   <tile gid="99"/>
   <tile gid="99"/>
   <tile gid="849"/>
   <tile gid="815"/>
   <tile gid="882"/>
   <tile gid="883"/>
   <tile gid="979"/>
   <tile gid="980"/>
   <tile gid="981"/>
   <tile gid="605"/>
   <tile gid="704"/>
   <tile gid="961"/>
   <tile gid="963"/>
   <tile gid="721"/>
   <tile gid="99"/>
   <tile gid="99"/>
   <tile gid="132"/>
   <tile gid="673"/>
   <tile gid="99"/>
   <tile gid="721"/>
   <tile gid="99"/>
   <tile gid="849"/>
   <tile gid="882"/>
   <tile gid="882"/>
   <tile gid="946"/>
   <tile gid="947"/>
   <tile gid="981"/>
   <tile gid="632"/>
   <tile gid="603"/>
   <tile gid="704"/>
   <tile gid="599"/>
   <tile gid="271"/>
   <tile gid="272"/>
   <tile gid="99"/>
   <tile gid="99"/>
   <tile gid="99"/>
   <tile gid="132"/>
   <tile gid="805"/>
   <tile gid="705"/>
   <tile gid="721"/>
   <tile gid="849"/>
   <tile gid="913"/>
   <tile gid="914"/>
   <tile gid="882"/>
   <tile gid="946"/>
   <tile gid="947"/>
   <tile gid="632"/>
   <tile gid="704"/>
   <tile gid="636"/>
   <tile gid="599"/>
   <tile gid="199"/>
   <tile gid="402"/>
   <tile gid="232"/>
   <tile gid="99"/>
   <tile gid="99"/>
   <tile gid="721"/>
   <tile gid="71"/>
   <tile gid="7"/>
   <tile gid="673"/>
   <tile gid="741"/>
   <tile gid="770"/>
   <tile gid="945"/>
   <tile gid="946"/>
   <tile gid="914"/>
   <tile gid="914"/>
   <tile gid="915"/>
   <tile gid="635"/>
   <tile gid="599"/>
   <tile gid="99"/>
   <tile gid="721"/>
   <tile gid="271"/>
   <tile gid="272"/>
   <tile gid="99"/>
   <tile gid="99"/>
   <tile gid="99"/>
   <tile gid="99"/>
   <tile gid="114"/>
   <tile gid="7"/>
   <tile gid="80"/>
   <tile gid="80"/>
   <tile gid="72"/>
   <tile gid="99"/>
   <tile gid="721"/>
   <tile gid="945"/>
   <tile gid="946"/>
   <tile gid="947"/>
   <tile gid="721"/>
   <tile gid="99"/>
   <tile gid="203"/>
   <tile gid="263"/>
   <tile gid="402"/>
   <tile gid="232"/>
   <tile gid="99"/>
   <tile gid="99"/>
   <tile gid="99"/>
   <tile gid="99"/>
   <tile gid="173"/>
   <tile gid="173"/>
   <tile gid="174"/>
   <tile gid="103"/>
   <tile gid="7"/>
   <tile gid="80"/>
   <tile gid="72"/>
   <tile gid="99"/>
   <tile gid="99"/>
   <tile gid="721"/>
   <tile gid="99"/>
   <tile gid="99"/>
   <tile gid="237"/>
   <tile gid="402"/>
   <tile gid="232"/>
   <tile gid="99"/>
   <tile gid="721"/>
   <tile gid="99"/>
   <tile gid="99"/>
   <tile gid="99"/>
   <tile gid="99"/>
   <tile gid="132"/>
   <tile gid="132"/>
   <tile gid="721"/>
   <tile gid="103"/>
   <tile gid="115"/>
   <tile gid="104"/>
   <tile gid="99"/>
   <tile gid="99"/>
   <tile gid="99"/>
  </data>
 </layer>
</map>
