<?xml version="1.0" encoding="UTF-8"?>
<map version="1.10" tiledversion="1.11.2" orientation="orthogonal" renderorder="right-down" width="30" height="23" tilewidth="16" tileheight="16" infinite="0" nextlayerid="4" nextobjectid="1">
 <tileset firstgid="1" name="04000304" tilewidth="16" tileheight="16" tilecount="1024" columns="32">
  <image source="04000304.png" trans="ffffff" width="512" height="512"/>
 </tileset>
 <layer id="1" name="Tile Layer 1" width="30" height="23">
  <properties>
   <property name="Anims1" value="0xE0"/>
   <property name="Anims2" value="0x0"/>
   <property name="ChapterID" value="8"/>
   <property name="Main" value=""/>
   <property name="MapChangesID" value="0x26"/>
   <property name="MapID" value="0x25"/>
   <property name="ObjectType" value="0x4"/>
   <property name="PaletteID" value="0x8"/>
   <property name="TileConfig" value="0x4"/>
  </properties>
  <data>
   <tile gid="929"/>
   <tile gid="930"/>
   <tile gid="931"/>
   <tile gid="902"/>
   <tile gid="931"/>
   <tile gid="933"/>
   <tile gid="903"/>
   <tile gid="697"/>
   <tile gid="298"/>
   <tile gid="225"/>
   <tile gid="35"/>
   <tile gid="225"/>
   <tile gid="100"/>
   <tile gid="193"/>
   <tile gid="616"/>
   <tile gid="500"/>
   <tile gid="915"/>
   <tile gid="915"/>
   <tile gid="420"/>
   <tile gid="97"/>
   <tile gid="194"/>
   <tile gid="67"/>
   <tile gid="194"/>
   <tile gid="194"/>
   <tile gid="739"/>
   <tile gid="644"/>
   <tile gid="644"/>
   <tile gid="820"/>
   <tile gid="644"/>
   <tile gid="644"/>
   <tile gid="961"/>
   <tile gid="962"/>
   <tile gid="963"/>
   <tile gid="902"/>
   <tile gid="963"/>
   <tile gid="933"/>
   <tile gid="933"/>
   <tile gid="872"/>
   <tile gid="272"/>
   <tile gid="134"/>
   <tile gid="225"/>
   <tile gid="193"/>
   <tile gid="193"/>
   <tile gid="162"/>
   <tile gid="500"/>
   <tile gid="532"/>
   <tile gid="915"/>
   <tile gid="915"/>
   <tile gid="499"/>
   <tile gid="8"/>
   <tile gid="130"/>
   <tile gid="194"/>
   <tile gid="35"/>
   <tile gid="36"/>
   <tile gid="679"/>
   <tile gid="845"/>
   <tile gid="815"/>
   <tile gid="852"/>
   <tile gid="845"/>
   <tile gid="851"/>
   <tile gid="1004"/>
   <tile gid="929"/>
   <tile gid="930"/>
   <tile gid="874"/>
   <tile gid="938"/>
   <tile gid="931"/>
   <tile gid="933"/>
   <tile gid="903"/>
   <tile gid="272"/>
   <tile gid="298"/>
   <tile gid="225"/>
   <tile gid="193"/>
   <tile gid="193"/>
   <tile gid="500"/>
   <tile gid="532"/>
   <tile gid="858"/>
   <tile gid="915"/>
   <tile gid="915"/>
   <tile gid="857"/>
   <tile gid="499"/>
   <tile gid="194"/>
   <tile gid="614"/>
   <tile gid="67"/>
   <tile gid="68"/>
   <tile gid="679"/>
   <tile gid="877"/>
   <tile gid="847"/>
   <tile gid="846"/>
   <tile gid="878"/>
   <tile gid="851"/>
   <tile gid="272"/>
   <tile gid="961"/>
   <tile gid="962"/>
   <tile gid="963"/>
   <tile gid="902"/>
   <tile gid="931"/>
   <tile gid="933"/>
   <tile gid="936"/>
   <tile gid="1000"/>
   <tile gid="298"/>
   <tile gid="225"/>
   <tile gid="615"/>
   <tile gid="193"/>
   <tile gid="406"/>
   <tile gid="858"/>
   <tile gid="853"/>
   <tile gid="854"/>
   <tile gid="856"/>
   <tile gid="853"/>
   <tile gid="887"/>
   <tile gid="194"/>
   <tile gid="225"/>
   <tile gid="194"/>
   <tile gid="194"/>
   <tile gid="679"/>
   <tile gid="877"/>
   <tile gid="878"/>
   <tile gid="878"/>
   <tile gid="878"/>
   <tile gid="846"/>
   <tile gid="165"/>
   <tile gid="272"/>
   <tile gid="929"/>
   <tile gid="962"/>
   <tile gid="874"/>
   <tile gid="963"/>
   <tile gid="903"/>
   <tile gid="1003"/>
   <tile gid="272"/>
   <tile gid="166"/>
   <tile gid="193"/>
   <tile gid="193"/>
   <tile gid="193"/>
   <tile gid="500"/>
   <tile gid="853"/>
   <tile gid="854"/>
   <tile gid="885"/>
   <tile gid="885"/>
   <tile gid="729"/>
   <tile gid="40"/>
   <tile gid="194"/>
   <tile gid="225"/>
   <tile gid="194"/>
   <tile gid="162"/>
   <tile gid="679"/>
   <tile gid="877"/>
   <tile gid="878"/>
   <tile gid="878"/>
   <tile gid="878"/>
   <tile gid="786"/>
   <tile gid="193"/>
   <tile gid="297"/>
   <tile gid="961"/>
   <tile gid="994"/>
   <tile gid="996"/>
   <tile gid="994"/>
   <tile gid="867"/>
   <tile gid="872"/>
   <tile gid="298"/>
   <tile gid="130"/>
   <tile gid="193"/>
   <tile gid="35"/>
   <tile gid="500"/>
   <tile gid="532"/>
   <tile gid="854"/>
   <tile gid="885"/>
   <tile gid="885"/>
   <tile gid="885"/>
   <tile gid="499"/>
   <tile gid="100"/>
   <tile gid="194"/>
   <tile gid="130"/>
   <tile gid="194"/>
   <tile gid="194"/>
   <tile gid="769"/>
   <tile gid="645"/>
   <tile gid="877"/>
   <tile gid="878"/>
   <tile gid="878"/>
   <tile gid="643"/>
   <tile gid="193"/>
   <tile gid="165"/>
   <tile gid="303"/>
   <tile gid="303"/>
   <tile gid="697"/>
   <tile gid="929"/>
   <tile gid="996"/>
   <tile gid="933"/>
   <tile gid="872"/>
   <tile gid="134"/>
   <tile gid="193"/>
   <tile gid="500"/>
   <tile gid="532"/>
   <tile gid="858"/>
   <tile gid="885"/>
   <tile gid="885"/>
   <tile gid="885"/>
   <tile gid="888"/>
   <tile gid="887"/>
   <tile gid="225"/>
   <tile gid="194"/>
   <tile gid="225"/>
   <tile gid="194"/>
   <tile gid="194"/>
   <tile gid="6"/>
   <tile gid="6"/>
   <tile gid="194"/>
   <tile gid="225"/>
   <tile gid="225"/>
   <tile gid="6"/>
   <tile gid="193"/>
   <tile gid="130"/>
   <tile gid="193"/>
   <tile gid="161"/>
   <tile gid="165"/>
   <tile gid="961"/>
   <tile gid="994"/>
   <tile gid="998"/>
   <tile gid="999"/>
   <tile gid="298"/>
   <tile gid="225"/>
   <tile gid="406"/>
   <tile gid="858"/>
   <tile gid="853"/>
   <tile gid="885"/>
   <tile gid="885"/>
   <tile gid="888"/>
   <tile gid="725"/>
   <tile gid="130"/>
   <tile gid="225"/>
   <tile gid="129"/>
   <tile gid="194"/>
   <tile gid="577"/>
   <tile gid="578"/>
   <tile gid="615"/>
   <tile gid="194"/>
   <tile gid="194"/>
   <tile gid="225"/>
   <tile gid="225"/>
   <tile gid="129"/>
   <tile gid="225"/>
   <tile gid="193"/>
   <tile gid="193"/>
   <tile gid="161"/>
   <tile gid="194"/>
   <tile gid="165"/>
   <tile gid="303"/>
   <tile gid="272"/>
   <tile gid="697"/>
   <tile gid="298"/>
   <tile gid="225"/>
   <tile gid="500"/>
   <tile gid="853"/>
   <tile gid="854"/>
   <tile gid="885"/>
   <tile gid="885"/>
   <tile gid="727"/>
   <tile gid="420"/>
   <tile gid="667"/>
   <tile gid="225"/>
   <tile gid="194"/>
   <tile gid="194"/>
   <tile gid="609"/>
   <tile gid="610"/>
   <tile gid="194"/>
   <tile gid="194"/>
   <tile gid="225"/>
   <tile gid="258"/>
   <tile gid="129"/>
   <tile gid="420"/>
   <tile gid="193"/>
   <tile gid="193"/>
   <tile gid="193"/>
   <tile gid="194"/>
   <tile gid="194"/>
   <tile gid="194"/>
   <tile gid="161"/>
   <tile gid="165"/>
   <tile gid="303"/>
   <tile gid="166"/>
   <tile gid="420"/>
   <tile gid="406"/>
   <tile gid="854"/>
   <tile gid="885"/>
   <tile gid="885"/>
   <tile gid="888"/>
   <tile gid="499"/>
   <tile gid="129"/>
   <tile gid="225"/>
   <tile gid="225"/>
   <tile gid="225"/>
   <tile gid="130"/>
   <tile gid="225"/>
   <tile gid="194"/>
   <tile gid="194"/>
   <tile gid="194"/>
   <tile gid="635"/>
   <tile gid="419"/>
   <tile gid="435"/>
   <tile gid="436"/>
   <tile gid="193"/>
   <tile gid="225"/>
   <tile gid="225"/>
   <tile gid="133"/>
   <tile gid="271"/>
   <tile gid="134"/>
   <tile gid="225"/>
   <tile gid="225"/>
   <tile gid="225"/>
   <tile gid="225"/>
   <tile gid="334"/>
   <tile gid="335"/>
   <tile gid="335"/>
   <tile gid="335"/>
   <tile gid="335"/>
   <tile gid="335"/>
   <tile gid="335"/>
   <tile gid="336"/>
   <tile gid="577"/>
   <tile gid="578"/>
   <tile gid="225"/>
   <tile gid="225"/>
   <tile gid="225"/>
   <tile gid="225"/>
   <tile gid="225"/>
   <tile gid="435"/>
   <tile gid="436"/>
   <tile gid="534"/>
   <tile gid="667"/>
   <tile gid="129"/>
   <tile gid="100"/>
   <tile gid="225"/>
   <tile gid="133"/>
   <tile gid="272"/>
   <tile gid="939"/>
   <tile gid="298"/>
   <tile gid="225"/>
   <tile gid="225"/>
   <tile gid="225"/>
   <tile gid="161"/>
   <tile gid="225"/>
   <tile gid="366"/>
   <tile gid="367"/>
   <tile gid="367"/>
   <tile gid="367"/>
   <tile gid="367"/>
   <tile gid="367"/>
   <tile gid="37"/>
   <tile gid="609"/>
   <tile gid="610"/>
   <tile gid="225"/>
   <tile gid="226"/>
   <tile gid="194"/>
   <tile gid="129"/>
   <tile gid="504"/>
   <tile gid="29"/>
   <tile gid="30"/>
   <tile gid="31"/>
   <tile gid="225"/>
   <tile gid="225"/>
   <tile gid="133"/>
   <tile gid="271"/>
   <tile gid="939"/>
   <tile gid="865"/>
   <tile gid="931"/>
   <tile gid="872"/>
   <tile gid="134"/>
   <tile gid="100"/>
   <tile gid="130"/>
   <tile gid="225"/>
   <tile gid="225"/>
   <tile gid="398"/>
   <tile gid="399"/>
   <tile gid="399"/>
   <tile gid="399"/>
   <tile gid="399"/>
   <tile gid="367"/>
   <tile gid="37"/>
   <tile gid="225"/>
   <tile gid="161"/>
   <tile gid="162"/>
   <tile gid="226"/>
   <tile gid="225"/>
   <tile gid="419"/>
   <tile gid="502"/>
   <tile gid="61"/>
   <tile gid="62"/>
   <tile gid="63"/>
   <tile gid="225"/>
   <tile gid="161"/>
   <tile gid="697"/>
   <tile gid="865"/>
   <tile gid="867"/>
   <tile gid="900"/>
   <tile gid="931"/>
   <tile gid="903"/>
   <tile gid="272"/>
   <tile gid="134"/>
   <tile gid="225"/>
   <tile gid="225"/>
   <tile gid="334"/>
   <tile gid="335"/>
   <tile gid="335"/>
   <tile gid="335"/>
   <tile gid="335"/>
   <tile gid="335"/>
   <tile gid="335"/>
   <tile gid="336"/>
   <tile gid="225"/>
   <tile gid="226"/>
   <tile gid="226"/>
   <tile gid="226"/>
   <tile gid="226"/>
   <tile gid="533"/>
   <tile gid="534"/>
   <tile gid="130"/>
   <tile gid="296"/>
   <tile gid="225"/>
   <tile gid="225"/>
   <tile gid="225"/>
   <tile gid="865"/>
   <tile gid="866"/>
   <tile gid="931"/>
   <tile gid="932"/>
   <tile gid="898"/>
   <tile gid="933"/>
   <tile gid="872"/>
   <tile gid="272"/>
   <tile gid="134"/>
   <tile gid="161"/>
   <tile gid="225"/>
   <tile gid="500"/>
   <tile gid="853"/>
   <tile gid="885"/>
   <tile gid="885"/>
   <tile gid="856"/>
   <tile gid="499"/>
   <tile gid="130"/>
   <tile gid="225"/>
   <tile gid="226"/>
   <tile gid="577"/>
   <tile gid="578"/>
   <tile gid="225"/>
   <tile gid="226"/>
   <tile gid="615"/>
   <tile gid="225"/>
   <tile gid="162"/>
   <tile gid="225"/>
   <tile gid="225"/>
   <tile gid="225"/>
   <tile gid="929"/>
   <tile gid="930"/>
   <tile gid="963"/>
   <tile gid="902"/>
   <tile gid="901"/>
   <tile gid="965"/>
   <tile gid="936"/>
   <tile gid="272"/>
   <tile gid="166"/>
   <tile gid="225"/>
   <tile gid="500"/>
   <tile gid="532"/>
   <tile gid="853"/>
   <tile gid="885"/>
   <tile gid="885"/>
   <tile gid="888"/>
   <tile gid="887"/>
   <tile gid="130"/>
   <tile gid="225"/>
   <tile gid="129"/>
   <tile gid="609"/>
   <tile gid="610"/>
   <tile gid="225"/>
   <tile gid="225"/>
   <tile gid="194"/>
   <tile gid="194"/>
   <tile gid="225"/>
   <tile gid="225"/>
   <tile gid="161"/>
   <tile gid="321"/>
   <tile gid="961"/>
   <tile gid="962"/>
   <tile gid="930"/>
   <tile gid="874"/>
   <tile gid="901"/>
   <tile gid="936"/>
   <tile gid="1003"/>
   <tile gid="298"/>
   <tile gid="225"/>
   <tile gid="584"/>
   <tile gid="406"/>
   <tile gid="532"/>
   <tile gid="854"/>
   <tile gid="885"/>
   <tile gid="888"/>
   <tile gid="725"/>
   <tile gid="420"/>
   <tile gid="225"/>
   <tile gid="225"/>
   <tile gid="225"/>
   <tile gid="225"/>
   <tile gid="635"/>
   <tile gid="502"/>
   <tile gid="225"/>
   <tile gid="194"/>
   <tile gid="194"/>
   <tile gid="225"/>
   <tile gid="225"/>
   <tile gid="321"/>
   <tile gid="354"/>
   <tile gid="1004"/>
   <tile gid="961"/>
   <tile gid="994"/>
   <tile gid="996"/>
   <tile gid="936"/>
   <tile gid="272"/>
   <tile gid="272"/>
   <tile gid="166"/>
   <tile gid="225"/>
   <tile gid="419"/>
   <tile gid="500"/>
   <tile gid="858"/>
   <tile gid="885"/>
   <tile gid="885"/>
   <tile gid="793"/>
   <tile gid="668"/>
   <tile gid="225"/>
   <tile gid="161"/>
   <tile gid="225"/>
   <tile gid="225"/>
   <tile gid="225"/>
   <tile gid="161"/>
   <tile gid="504"/>
   <tile gid="162"/>
   <tile gid="194"/>
   <tile gid="225"/>
   <tile gid="225"/>
   <tile gid="129"/>
   <tile gid="353"/>
   <tile gid="354"/>
   <tile gid="272"/>
   <tile gid="303"/>
   <tile gid="303"/>
   <tile gid="303"/>
   <tile gid="272"/>
   <tile gid="272"/>
   <tile gid="298"/>
   <tile gid="225"/>
   <tile gid="130"/>
   <tile gid="500"/>
   <tile gid="532"/>
   <tile gid="854"/>
   <tile gid="885"/>
   <tile gid="888"/>
   <tile gid="725"/>
   <tile gid="67"/>
   <tile gid="161"/>
   <tile gid="225"/>
   <tile gid="225"/>
   <tile gid="225"/>
   <tile gid="161"/>
   <tile gid="419"/>
   <tile gid="502"/>
   <tile gid="225"/>
   <tile gid="225"/>
   <tile gid="225"/>
   <tile gid="353"/>
   <tile gid="354"/>
   <tile gid="354"/>
   <tile gid="354"/>
   <tile gid="166"/>
   <tile gid="225"/>
   <tile gid="419"/>
   <tile gid="225"/>
   <tile gid="165"/>
   <tile gid="303"/>
   <tile gid="166"/>
   <tile gid="334"/>
   <tile gid="335"/>
   <tile gid="335"/>
   <tile gid="335"/>
   <tile gid="335"/>
   <tile gid="335"/>
   <tile gid="335"/>
   <tile gid="335"/>
   <tile gid="336"/>
   <tile gid="225"/>
   <tile gid="225"/>
   <tile gid="584"/>
   <tile gid="435"/>
   <tile gid="436"/>
   <tile gid="437"/>
   <tile gid="534"/>
   <tile gid="225"/>
   <tile gid="225"/>
   <tile gid="321"/>
   <tile gid="354"/>
   <tile gid="354"/>
   <tile gid="354"/>
   <tile gid="354"/>
   <tile gid="225"/>
   <tile gid="130"/>
   <tile gid="225"/>
   <tile gid="68"/>
   <tile gid="161"/>
   <tile gid="225"/>
   <tile gid="225"/>
   <tile gid="225"/>
   <tile gid="366"/>
   <tile gid="399"/>
   <tile gid="367"/>
   <tile gid="367"/>
   <tile gid="367"/>
   <tile gid="367"/>
   <tile gid="367"/>
   <tile gid="37"/>
   <tile gid="225"/>
   <tile gid="225"/>
   <tile gid="534"/>
   <tile gid="149"/>
   <tile gid="95"/>
   <tile gid="96"/>
   <tile gid="584"/>
   <tile gid="225"/>
   <tile gid="225"/>
   <tile gid="353"/>
   <tile gid="354"/>
   <tile gid="354"/>
   <tile gid="354"/>
   <tile gid="354"/>
   <tile gid="225"/>
   <tile gid="615"/>
   <tile gid="225"/>
   <tile gid="225"/>
   <tile gid="161"/>
   <tile gid="225"/>
   <tile gid="225"/>
   <tile gid="225"/>
   <tile gid="366"/>
   <tile gid="399"/>
   <tile gid="399"/>
   <tile gid="399"/>
   <tile gid="399"/>
   <tile gid="399"/>
   <tile gid="367"/>
   <tile gid="37"/>
   <tile gid="162"/>
   <tile gid="225"/>
   <tile gid="502"/>
   <tile gid="89"/>
   <tile gid="127"/>
   <tile gid="128"/>
   <tile gid="225"/>
   <tile gid="193"/>
   <tile gid="162"/>
   <tile gid="385"/>
   <tile gid="354"/>
   <tile gid="354"/>
   <tile gid="354"/>
   <tile gid="354"/>
   <tile gid="419"/>
   <tile gid="225"/>
   <tile gid="225"/>
   <tile gid="161"/>
   <tile gid="161"/>
   <tile gid="419"/>
   <tile gid="67"/>
   <tile gid="334"/>
   <tile gid="335"/>
   <tile gid="335"/>
   <tile gid="335"/>
   <tile gid="335"/>
   <tile gid="335"/>
   <tile gid="335"/>
   <tile gid="335"/>
   <tile gid="336"/>
   <tile gid="129"/>
   <tile gid="419"/>
   <tile gid="534"/>
   <tile gid="162"/>
   <tile gid="296"/>
   <tile gid="225"/>
   <tile gid="129"/>
   <tile gid="193"/>
   <tile gid="193"/>
   <tile gid="162"/>
   <tile gid="385"/>
   <tile gid="386"/>
   <tile gid="386"/>
   <tile gid="387"/>
  </data>
 </layer>
 <layer id="2" name="Map Change 0" width="30" height="23">
  <properties>
   <property name="Height" value="2"/>
   <property name="ID" value="0"/>
   <property name="Width" value="3"/>
   <property name="X" value="19"/>
   <property name="Y" value="20"/>
  </properties>
  <data>
   <tile/>
   <tile/>
   <tile/>
   <tile/>
   <tile/>
   <tile/>
   <tile/>
   <tile/>
   <tile/>
   <tile/>
   <tile/>
   <tile/>
   <tile/>
   <tile/>
   <tile/>
   <tile/>
   <tile/>
   <tile/>
   <tile/>
   <tile/>
   <tile/>
   <tile/>
   <tile/>
   <tile/>
   <tile/>
   <tile/>
   <tile/>
   <tile/>
   <tile/>
   <tile/>
   <tile/>
   <tile/>
   <tile/>
   <tile/>
   <tile/>
   <tile/>
   <tile/>
   <tile/>
   <tile/>
   <tile/>
   <tile/>
   <tile/>
   <tile/>
   <tile/>
   <tile/>
   <tile/>
   <tile/>
   <tile/>
   <tile/>
   <tile/>
   <tile/>
   <tile/>
   <tile/>
   <tile/>
   <tile/>
   <tile/>
   <tile/>
   <tile/>
   <tile/>
   <tile/>
   <tile/>
   <tile/>
   <tile/>
   <tile/>
   <tile/>
   <tile/>
   <tile/>
   <tile/>
   <tile/>
   <tile/>
   <tile/>
   <tile/>
   <tile/>
   <tile/>
   <tile/>
   <tile/>
   <tile/>
   <tile/>
   <tile/>
   <tile/>
   <tile/>
   <tile/>
   <tile/>
   <tile/>
   <tile/>
   <tile/>
   <tile/>
   <tile/>
   <tile/>
   <tile/>
   <tile/>
   <tile/>
   <tile/>
   <tile/>
   <tile/>
   <tile/>
   <tile/>
   <tile/>
   <tile/>
   <tile/>
   <tile/>
   <tile/>
   <tile/>
   <tile/>
   <tile/>
   <tile/>
   <tile/>
   <tile/>
   <tile/>
   <tile/>
   <tile/>
   <tile/>
   <tile/>
   <tile/>
   <tile/>
   <tile/>
   <tile/>
   <tile/>
   <tile/>
   <tile/>
   <tile/>
   <tile/>
   <tile/>
   <tile/>
   <tile/>
   <tile/>
   <tile/>
   <tile/>
   <tile/>
   <tile/>
   <tile/>
   <tile/>
   <tile/>
   <tile/>
   <tile/>
   <tile/>
   <tile/>
   <tile/>
   <tile/>
   <tile/>
   <tile/>
   <tile/>
   <tile/>
   <tile/>
   <tile/>
   <tile/>
   <tile/>
   <tile/>
   <tile/>
   <tile/>
   <tile/>
   <tile/>
   <tile/>
   <tile/>
   <tile/>
   <tile/>
   <tile/>
   <tile/>
   <tile/>
   <tile/>
   <tile/>
   <tile/>
   <tile/>
   <tile/>
   <tile/>
   <tile/>
   <tile/>
   <tile/>
   <tile/>
   <tile/>
   <tile/>
   <tile/>
   <tile/>
   <tile/>
   <tile/>
   <tile/>
   <tile/>
   <tile/>
   <tile/>
   <tile/>
   <tile/>
   <tile/>
   <tile/>
   <tile/>
   <tile/>
   <tile/>
   <tile/>
   <tile/>
   <tile/>
   <tile/>
   <tile/>
   <tile/>
   <tile/>
   <tile/>
   <tile/>
   <tile/>
   <tile/>
   <tile/>
   <tile/>
   <tile/>
   <tile/>
   <tile/>
   <tile/>
   <tile/>
   <tile/>
   <tile/>
   <tile/>
   <tile/>
   <tile/>
   <tile/>
   <tile/>
   <tile/>
   <tile/>
   <tile/>
   <tile/>
   <tile/>
   <tile/>
   <tile/>
   <tile/>
   <tile/>
   <tile/>
   <tile/>
   <tile/>
   <tile/>
   <tile/>
   <tile/>
   <tile/>
   <tile/>
   <tile/>
   <tile/>
   <tile/>
   <tile/>
   <tile/>
   <tile/>
   <tile/>
   <tile/>
   <tile/>
   <tile/>
   <tile/>
   <tile/>
   <tile/>
   <tile/>
   <tile/>
   <tile/>
   <tile/>
   <tile/>
   <tile/>
   <tile/>
   <tile/>
   <tile/>
   <tile/>
   <tile/>
   <tile/>
   <tile/>
   <tile/>
   <tile/>
   <tile/>
   <tile/>
   <tile/>
   <tile/>
   <tile/>
   <tile/>
   <tile/>
   <tile/>
   <tile/>
   <tile/>
   <tile/>
   <tile/>
   <tile/>
   <tile/>
   <tile/>
   <tile/>
   <tile/>
   <tile/>
   <tile/>
   <tile/>
   <tile/>
   <tile/>
   <tile/>
   <tile/>
   <tile/>
   <tile/>
   <tile/>
   <tile/>
   <tile/>
   <tile/>
   <tile/>
   <tile/>
   <tile/>
   <tile/>
   <tile/>
   <tile/>
   <tile/>
   <tile/>
   <tile/>
   <tile/>
   <tile/>
   <tile/>
   <tile/>
   <tile/>
   <tile/>
   <tile/>
   <tile/>
   <tile/>
   <tile/>
   <tile/>
   <tile/>
   <tile/>
   <tile/>
   <tile/>
   <tile/>
   <tile/>
   <tile/>
   <tile/>
   <tile/>
   <tile/>
   <tile/>
   <tile/>
   <tile/>
   <tile/>
   <tile/>
   <tile/>
   <tile/>
   <tile/>
   <tile/>
   <tile/>
   <tile/>
   <tile/>
   <tile/>
   <tile/>
   <tile/>
   <tile/>
   <tile/>
   <tile/>
   <tile/>
   <tile/>
   <tile/>
   <tile/>
   <tile/>
   <tile/>
   <tile/>
   <tile/>
   <tile/>
   <tile/>
   <tile/>
   <tile/>
   <tile/>
   <tile/>
   <tile/>
   <tile/>
   <tile/>
   <tile/>
   <tile/>
   <tile/>
   <tile/>
   <tile/>
   <tile/>
   <tile/>
   <tile/>
   <tile/>
   <tile/>
   <tile/>
   <tile/>
   <tile/>
   <tile/>
   <tile/>
   <tile/>
   <tile/>
   <tile/>
   <tile/>
   <tile/>
   <tile/>
   <tile/>
   <tile/>
   <tile/>
   <tile/>
   <tile/>
   <tile/>
   <tile/>
   <tile/>
   <tile/>
   <tile/>
   <tile/>
   <tile/>
   <tile/>
   <tile/>
   <tile/>
   <tile/>
   <tile/>
   <tile/>
   <tile/>
   <tile/>
   <tile/>
   <tile/>
   <tile/>
   <tile/>
   <tile/>
   <tile/>
   <tile/>
   <tile/>
   <tile/>
   <tile/>
   <tile/>
   <tile/>
   <tile/>
   <tile/>
   <tile/>
   <tile/>
   <tile/>
   <tile/>
   <tile/>
   <tile/>
   <tile/>
   <tile/>
   <tile/>
   <tile/>
   <tile/>
   <tile/>
   <tile/>
   <tile/>
   <tile/>
   <tile/>
   <tile/>
   <tile/>
   <tile/>
   <tile/>
   <tile/>
   <tile/>
   <tile/>
   <tile/>
   <tile/>
   <tile/>
   <tile/>
   <tile/>
   <tile/>
   <tile/>
   <tile/>
   <tile/>
   <tile/>
   <tile/>
   <tile/>
   <tile/>
   <tile/>
   <tile/>
   <tile/>
   <tile/>
   <tile/>
   <tile/>
   <tile/>
   <tile/>
   <tile/>
   <tile/>
   <tile/>
   <tile/>
   <tile/>
   <tile/>
   <tile/>
   <tile/>
   <tile/>
   <tile/>
   <tile/>
   <tile/>
   <tile/>
   <tile/>
   <tile/>
   <tile/>
   <tile/>
   <tile/>
   <tile/>
   <tile/>
   <tile/>
   <tile/>
   <tile/>
   <tile/>
   <tile/>
   <tile/>
   <tile/>
   <tile/>
   <tile/>
   <tile/>
   <tile/>
   <tile/>
   <tile/>
   <tile/>
   <tile/>
   <tile/>
   <tile/>
   <tile/>
   <tile/>
   <tile/>
   <tile/>
   <tile/>
   <tile/>
   <tile/>
   <tile/>
   <tile/>
   <tile/>
   <tile/>
   <tile/>
   <tile/>
   <tile/>
   <tile/>
   <tile/>
   <tile/>
   <tile/>
   <tile/>
   <tile/>
   <tile/>
   <tile/>
   <tile/>
   <tile/>
   <tile/>
   <tile/>
   <tile/>
   <tile/>
   <tile/>
   <tile/>
   <tile/>
   <tile/>
   <tile/>
   <tile/>
   <tile/>
   <tile/>
   <tile/>
   <tile/>
   <tile/>
   <tile/>
   <tile/>
   <tile/>
   <tile/>
   <tile/>
   <tile/>
   <tile/>
   <tile/>
   <tile/>
   <tile/>
   <tile/>
   <tile/>
   <tile/>
   <tile/>
   <tile/>
   <tile/>
   <tile/>
   <tile/>
   <tile/>
   <tile/>
   <tile/>
   <tile/>
   <tile/>
   <tile/>
   <tile/>
   <tile/>
   <tile/>
   <tile/>
   <tile/>
   <tile/>
   <tile/>
   <tile/>
   <tile/>
   <tile/>
   <tile/>
   <tile/>
   <tile/>
   <tile/>
   <tile/>
   <tile/>
   <tile/>
   <tile/>
   <tile/>
   <tile/>
   <tile/>
   <tile/>
   <tile/>
   <tile/>
   <tile/>
   <tile/>
   <tile/>
   <tile/>
   <tile/>
   <tile/>
   <tile/>
   <tile/>
   <tile/>
   <tile/>
   <tile/>
   <tile/>
   <tile/>
   <tile/>
   <tile/>
   <tile/>
   <tile/>
   <tile/>
   <tile/>
   <tile/>
   <tile/>
   <tile/>
   <tile/>
   <tile/>
   <tile/>
   <tile/>
   <tile/>
   <tile/>
   <tile/>
   <tile/>
   <tile/>
   <tile/>
   <tile/>
   <tile/>
   <tile/>
   <tile/>
   <tile/>
   <tile/>
   <tile/>
   <tile/>
   <tile/>
   <tile/>
   <tile/>
   <tile/>
   <tile/>
   <tile gid="29"/>
   <tile gid="30"/>
   <tile gid="31"/>
   <tile/>
   <tile/>
   <tile/>
   <tile/>
   <tile/>
   <tile/>
   <tile/>
   <tile/>
   <tile/>
   <tile/>
   <tile/>
   <tile/>
   <tile/>
   <tile/>
   <tile/>
   <tile/>
   <tile/>
   <tile/>
   <tile/>
   <tile/>
   <tile/>
   <tile/>
   <tile/>
   <tile/>
   <tile/>
   <tile/>
   <tile/>
   <tile gid="61"/>
   <tile gid="62"/>
   <tile gid="63"/>
   <tile/>
   <tile/>
   <tile/>
   <tile/>
   <tile/>
   <tile/>
   <tile/>
   <tile/>
   <tile/>
   <tile/>
   <tile/>
   <tile/>
   <tile/>
   <tile/>
   <tile/>
   <tile/>
   <tile/>
   <tile/>
   <tile/>
   <tile/>
   <tile/>
   <tile/>
   <tile/>
   <tile/>
   <tile/>
   <tile/>
   <tile/>
   <tile/>
   <tile/>
   <tile/>
   <tile/>
   <tile/>
   <tile/>
   <tile/>
   <tile/>
   <tile/>
   <tile/>
   <tile/>
  </data>
 </layer>
 <layer id="3" name="Map Change 1" width="30" height="23">
  <properties>
   <property name="Height" value="1"/>
   <property name="ID" value="1"/>
   <property name="Width" value="1"/>
   <property name="X" value="20"/>
   <property name="Y" value="21"/>
  </properties>
  <data>
   <tile/>
   <tile/>
   <tile/>
   <tile/>
   <tile/>
   <tile/>
   <tile/>
   <tile/>
   <tile/>
   <tile/>
   <tile/>
   <tile/>
   <tile/>
   <tile/>
   <tile/>
   <tile/>
   <tile/>
   <tile/>
   <tile/>
   <tile/>
   <tile/>
   <tile/>
   <tile/>
   <tile/>
   <tile/>
   <tile/>
   <tile/>
   <tile/>
   <tile/>
   <tile/>
   <tile/>
   <tile/>
   <tile/>
   <tile/>
   <tile/>
   <tile/>
   <tile/>
   <tile/>
   <tile/>
   <tile/>
   <tile/>
   <tile/>
   <tile/>
   <tile/>
   <tile/>
   <tile/>
   <tile/>
   <tile/>
   <tile/>
   <tile/>
   <tile/>
   <tile/>
   <tile/>
   <tile/>
   <tile/>
   <tile/>
   <tile/>
   <tile/>
   <tile/>
   <tile/>
   <tile/>
   <tile/>
   <tile/>
   <tile/>
   <tile/>
   <tile/>
   <tile/>
   <tile/>
   <tile/>
   <tile/>
   <tile/>
   <tile/>
   <tile/>
   <tile/>
   <tile/>
   <tile/>
   <tile/>
   <tile/>
   <tile/>
   <tile/>
   <tile/>
   <tile/>
   <tile/>
   <tile/>
   <tile/>
   <tile/>
   <tile/>
   <tile/>
   <tile/>
   <tile/>
   <tile/>
   <tile/>
   <tile/>
   <tile/>
   <tile/>
   <tile/>
   <tile/>
   <tile/>
   <tile/>
   <tile/>
   <tile/>
   <tile/>
   <tile/>
   <tile/>
   <tile/>
   <tile/>
   <tile/>
   <tile/>
   <tile/>
   <tile/>
   <tile/>
   <tile/>
   <tile/>
   <tile/>
   <tile/>
   <tile/>
   <tile/>
   <tile/>
   <tile/>
   <tile/>
   <tile/>
   <tile/>
   <tile/>
   <tile/>
   <tile/>
   <tile/>
   <tile/>
   <tile/>
   <tile/>
   <tile/>
   <tile/>
   <tile/>
   <tile/>
   <tile/>
   <tile/>
   <tile/>
   <tile/>
   <tile/>
   <tile/>
   <tile/>
   <tile/>
   <tile/>
   <tile/>
   <tile/>
   <tile/>
   <tile/>
   <tile/>
   <tile/>
   <tile/>
   <tile/>
   <tile/>
   <tile/>
   <tile/>
   <tile/>
   <tile/>
   <tile/>
   <tile/>
   <tile/>
   <tile/>
   <tile/>
   <tile/>
   <tile/>
   <tile/>
   <tile/>
   <tile/>
   <tile/>
   <tile/>
   <tile/>
   <tile/>
   <tile/>
   <tile/>
   <tile/>
   <tile/>
   <tile/>
   <tile/>
   <tile/>
   <tile/>
   <tile/>
   <tile/>
   <tile/>
   <tile/>
   <tile/>
   <tile/>
   <tile/>
   <tile/>
   <tile/>
   <tile/>
   <tile/>
   <tile/>
   <tile/>
   <tile/>
   <tile/>
   <tile/>
   <tile/>
   <tile/>
   <tile/>
   <tile/>
   <tile/>
   <tile/>
   <tile/>
   <tile/>
   <tile/>
   <tile/>
   <tile/>
   <tile/>
   <tile/>
   <tile/>
   <tile/>
   <tile/>
   <tile/>
   <tile/>
   <tile/>
   <tile/>
   <tile/>
   <tile/>
   <tile/>
   <tile/>
   <tile/>
   <tile/>
   <tile/>
   <tile/>
   <tile/>
   <tile/>
   <tile/>
   <tile/>
   <tile/>
   <tile/>
   <tile/>
   <tile/>
   <tile/>
   <tile/>
   <tile/>
   <tile/>
   <tile/>
   <tile/>
   <tile/>
   <tile/>
   <tile/>
   <tile/>
   <tile/>
   <tile/>
   <tile/>
   <tile/>
   <tile/>
   <tile/>
   <tile/>
   <tile/>
   <tile/>
   <tile/>
   <tile/>
   <tile/>
   <tile/>
   <tile/>
   <tile/>
   <tile/>
   <tile/>
   <tile/>
   <tile/>
   <tile/>
   <tile/>
   <tile/>
   <tile/>
   <tile/>
   <tile/>
   <tile/>
   <tile/>
   <tile/>
   <tile/>
   <tile/>
   <tile/>
   <tile/>
   <tile/>
   <tile/>
   <tile/>
   <tile/>
   <tile/>
   <tile/>
   <tile/>
   <tile/>
   <tile/>
   <tile/>
   <tile/>
   <tile/>
   <tile/>
   <tile/>
   <tile/>
   <tile/>
   <tile/>
   <tile/>
   <tile/>
   <tile/>
   <tile/>
   <tile/>
   <tile/>
   <tile/>
   <tile/>
   <tile/>
   <tile/>
   <tile/>
   <tile/>
   <tile/>
   <tile/>
   <tile/>
   <tile/>
   <tile/>
   <tile/>
   <tile/>
   <tile/>
   <tile/>
   <tile/>
   <tile/>
   <tile/>
   <tile/>
   <tile/>
   <tile/>
   <tile/>
   <tile/>
   <tile/>
   <tile/>
   <tile/>
   <tile/>
   <tile/>
   <tile/>
   <tile/>
   <tile/>
   <tile/>
   <tile/>
   <tile/>
   <tile/>
   <tile/>
   <tile/>
   <tile/>
   <tile/>
   <tile/>
   <tile/>
   <tile/>
   <tile/>
   <tile/>
   <tile/>
   <tile/>
   <tile/>
   <tile/>
   <tile/>
   <tile/>
   <tile/>
   <tile/>
   <tile/>
   <tile/>
   <tile/>
   <tile/>
   <tile/>
   <tile/>
   <tile/>
   <tile/>
   <tile/>
   <tile/>
   <tile/>
   <tile/>
   <tile/>
   <tile/>
   <tile/>
   <tile/>
   <tile/>
   <tile/>
   <tile/>
   <tile/>
   <tile/>
   <tile/>
   <tile/>
   <tile/>
   <tile/>
   <tile/>
   <tile/>
   <tile/>
   <tile/>
   <tile/>
   <tile/>
   <tile/>
   <tile/>
   <tile/>
   <tile/>
   <tile/>
   <tile/>
   <tile/>
   <tile/>
   <tile/>
   <tile/>
   <tile/>
   <tile/>
   <tile/>
   <tile/>
   <tile/>
   <tile/>
   <tile/>
   <tile/>
   <tile/>
   <tile/>
   <tile/>
   <tile/>
   <tile/>
   <tile/>
   <tile/>
   <tile/>
   <tile/>
   <tile/>
   <tile/>
   <tile/>
   <tile/>
   <tile/>
   <tile/>
   <tile/>
   <tile/>
   <tile/>
   <tile/>
   <tile/>
   <tile/>
   <tile/>
   <tile/>
   <tile/>
   <tile/>
   <tile/>
   <tile/>
   <tile/>
   <tile/>
   <tile/>
   <tile/>
   <tile/>
   <tile/>
   <tile/>
   <tile/>
   <tile/>
   <tile/>
   <tile/>
   <tile/>
   <tile/>
   <tile/>
   <tile/>
   <tile/>
   <tile/>
   <tile/>
   <tile/>
   <tile/>
   <tile/>
   <tile/>
   <tile/>
   <tile/>
   <tile/>
   <tile/>
   <tile/>
   <tile/>
   <tile/>
   <tile/>
   <tile/>
   <tile/>
   <tile/>
   <tile/>
   <tile/>
   <tile/>
   <tile/>
   <tile/>
   <tile/>
   <tile/>
   <tile/>
   <tile/>
   <tile/>
   <tile/>
   <tile/>
   <tile/>
   <tile/>
   <tile/>
   <tile/>
   <tile/>
   <tile/>
   <tile/>
   <tile/>
   <tile/>
   <tile/>
   <tile/>
   <tile/>
   <tile/>
   <tile/>
   <tile/>
   <tile/>
   <tile/>
   <tile/>
   <tile/>
   <tile/>
   <tile/>
   <tile/>
   <tile/>
   <tile/>
   <tile/>
   <tile/>
   <tile/>
   <tile/>
   <tile/>
   <tile/>
   <tile/>
   <tile/>
   <tile/>
   <tile/>
   <tile/>
   <tile/>
   <tile/>
   <tile/>
   <tile/>
   <tile/>
   <tile/>
   <tile/>
   <tile/>
   <tile/>
   <tile/>
   <tile/>
   <tile/>
   <tile/>
   <tile/>
   <tile/>
   <tile/>
   <tile/>
   <tile/>
   <tile/>
   <tile/>
   <tile/>
   <tile/>
   <tile/>
   <tile/>
   <tile/>
   <tile/>
   <tile/>
   <tile/>
   <tile/>
   <tile/>
   <tile/>
   <tile/>
   <tile/>
   <tile/>
   <tile/>
   <tile/>
   <tile/>
   <tile/>
   <tile/>
   <tile/>
   <tile/>
   <tile/>
   <tile/>
   <tile/>
   <tile/>
   <tile/>
   <tile/>
   <tile/>
   <tile/>
   <tile/>
   <tile/>
   <tile/>
   <tile/>
   <tile/>
   <tile/>
   <tile/>
   <tile/>
   <tile/>
   <tile/>
   <tile/>
   <tile/>
   <tile/>
   <tile/>
   <tile/>
   <tile/>
   <tile/>
   <tile/>
   <tile/>
   <tile/>
   <tile/>
   <tile/>
   <tile/>
   <tile/>
   <tile/>
   <tile/>
   <tile/>
   <tile/>
   <tile/>
   <tile/>
   <tile/>
   <tile/>
   <tile/>
   <tile/>
   <tile/>
   <tile/>
   <tile/>
   <tile/>
   <tile/>
   <tile/>
   <tile/>
   <tile/>
   <tile/>
   <tile/>
   <tile/>
   <tile/>
   <tile/>
   <tile/>
   <tile/>
   <tile/>
   <tile/>
   <tile/>
   <tile/>
   <tile/>
   <tile/>
   <tile/>
   <tile/>
   <tile/>
   <tile/>
   <tile/>
   <tile/>
   <tile/>
   <tile/>
   <tile/>
   <tile/>
   <tile/>
   <tile/>
   <tile/>
   <tile/>
   <tile/>
   <tile/>
   <tile/>
   <tile/>
   <tile/>
   <tile/>
   <tile/>
   <tile/>
   <tile/>
   <tile/>
   <tile/>
   <tile/>
   <tile/>
   <tile/>
   <tile/>
   <tile/>
   <tile/>
   <tile/>
   <tile/>
   <tile/>
   <tile/>
   <tile/>
   <tile/>
   <tile/>
   <tile/>
   <tile/>
   <tile/>
   <tile/>
   <tile/>
   <tile/>
   <tile gid="32"/>
   <tile/>
   <tile/>
   <tile/>
   <tile/>
   <tile/>
   <tile/>
   <tile/>
   <tile/>
   <tile/>
   <tile/>
   <tile/>
   <tile/>
   <tile/>
   <tile/>
   <tile/>
   <tile/>
   <tile/>
   <tile/>
   <tile/>
   <tile/>
   <tile/>
   <tile/>
   <tile/>
   <tile/>
   <tile/>
   <tile/>
   <tile/>
   <tile/>
   <tile/>
   <tile/>
   <tile/>
   <tile/>
   <tile/>
   <tile/>
   <tile/>
   <tile/>
   <tile/>
   <tile/>
   <tile/>
  </data>
 </layer>
</map>
