<?xml version="1.0" encoding="UTF-8"?>
<map version="1.10" tiledversion="1.11.2" orientation="orthogonal" renderorder="right-down" width="21" height="12" tilewidth="16" tileheight="16" infinite="0" nextlayerid="5" nextobjectid="1">
 <tileset firstgid="1" name="05001205" tilewidth="16" tileheight="16" tilecount="1024" columns="32">
  <image source="05001205.png" trans="ffffff" width="512" height="512"/>
 </tileset>
 <layer id="1" name="Tile Layer 1" width="21" height="12">
  <properties>
   <property name="Anims1" value="0xDB"/>
   <property name="Anims2" value="0"/>
   <property name="ChapterID" value="0x49"/>
   <property name="Main" value=""/>
   <property name="MapChangesID" value="0"/>
   <property name="MapID" value="0xE4"/>
   <property name="ObjectType" value="9"/>
   <property name="PaletteID" value="0xD"/>
   <property name="TileConfig" value="9"/>
  </properties>
  <data>
   <tile gid="848"/>
   <tile gid="849"/>
   <tile gid="881"/>
   <tile gid="882"/>
   <tile gid="914"/>
   <tile gid="260"/>
   <tile gid="94"/>
   <tile gid="245"/>
   <tile gid="278"/>
   <tile gid="214"/>
   <tile gid="214"/>
   <tile gid="214"/>
   <tile gid="214"/>
   <tile gid="214"/>
   <tile gid="214"/>
   <tile gid="312"/>
   <tile gid="23"/>
   <tile gid="101"/>
   <tile gid="101"/>
   <tile gid="721"/>
   <tile gid="101"/>
   <tile gid="880"/>
   <tile gid="881"/>
   <tile gid="882"/>
   <tile gid="914"/>
   <tile gid="195"/>
   <tile gid="101"/>
   <tile gid="124"/>
   <tile gid="311"/>
   <tile gid="214"/>
   <tile gid="214"/>
   <tile gid="214"/>
   <tile gid="214"/>
   <tile gid="214"/>
   <tile gid="214"/>
   <tile gid="214"/>
   <tile gid="312"/>
   <tile gid="55"/>
   <tile gid="196"/>
   <tile gid="101"/>
   <tile gid="101"/>
   <tile gid="101"/>
   <tile gid="881"/>
   <tile gid="882"/>
   <tile gid="914"/>
   <tile gid="101"/>
   <tile gid="101"/>
   <tile gid="101"/>
   <tile gid="22"/>
   <tile gid="311"/>
   <tile gid="214"/>
   <tile gid="214"/>
   <tile gid="278"/>
   <tile gid="214"/>
   <tile gid="214"/>
   <tile gid="214"/>
   <tile gid="214"/>
   <tile gid="312"/>
   <tile gid="21"/>
   <tile gid="101"/>
   <tile gid="260"/>
   <tile gid="199"/>
   <tile gid="146"/>
   <tile gid="913"/>
   <tile gid="914"/>
   <tile gid="67"/>
   <tile gid="67"/>
   <tile gid="101"/>
   <tile gid="721"/>
   <tile gid="118"/>
   <tile gid="311"/>
   <tile gid="214"/>
   <tile gid="278"/>
   <tile gid="214"/>
   <tile gid="214"/>
   <tile gid="214"/>
   <tile gid="214"/>
   <tile gid="214"/>
   <tile gid="312"/>
   <tile gid="215"/>
   <tile gid="721"/>
   <tile gid="199"/>
   <tile gid="338"/>
   <tile gid="338"/>
   <tile gid="67"/>
   <tile gid="67"/>
   <tile gid="196"/>
   <tile gid="199"/>
   <tile gid="274"/>
   <tile gid="951"/>
   <tile gid="952"/>
   <tile gid="952"/>
   <tile gid="952"/>
   <tile gid="952"/>
   <tile gid="952"/>
   <tile gid="952"/>
   <tile gid="952"/>
   <tile gid="952"/>
   <tile gid="952"/>
   <tile gid="952"/>
   <tile gid="952"/>
   <tile gid="953"/>
   <tile gid="338"/>
   <tile gid="338"/>
   <tile gid="338"/>
   <tile gid="67"/>
   <tile gid="199"/>
   <tile gid="274"/>
   <tile gid="338"/>
   <tile gid="338"/>
   <tile gid="983"/>
   <tile gid="984"/>
   <tile gid="984"/>
   <tile gid="984"/>
   <tile gid="984"/>
   <tile gid="984"/>
   <tile gid="984"/>
   <tile gid="984"/>
   <tile gid="984"/>
   <tile gid="984"/>
   <tile gid="984"/>
   <tile gid="984"/>
   <tile gid="985"/>
   <tile gid="338"/>
   <tile gid="338"/>
   <tile gid="338"/>
   <tile gid="199"/>
   <tile gid="338"/>
   <tile gid="338"/>
   <tile gid="338"/>
   <tile gid="338"/>
   <tile gid="983"/>
   <tile gid="984"/>
   <tile gid="984"/>
   <tile gid="984"/>
   <tile gid="984"/>
   <tile gid="984"/>
   <tile gid="984"/>
   <tile gid="984"/>
   <tile gid="984"/>
   <tile gid="984"/>
   <tile gid="984"/>
   <tile gid="984"/>
   <tile gid="985"/>
   <tile gid="338"/>
   <tile gid="306"/>
   <tile gid="232"/>
   <tile gid="338"/>
   <tile gid="338"/>
   <tile gid="338"/>
   <tile gid="306"/>
   <tile gid="232"/>
   <tile gid="1015"/>
   <tile gid="1016"/>
   <tile gid="1016"/>
   <tile gid="1016"/>
   <tile gid="1016"/>
   <tile gid="1016"/>
   <tile gid="1016"/>
   <tile gid="1016"/>
   <tile gid="1016"/>
   <tile gid="1016"/>
   <tile gid="1016"/>
   <tile gid="1016"/>
   <tile gid="1017"/>
   <tile gid="232"/>
   <tile gid="721"/>
   <tile gid="101"/>
   <tile gid="338"/>
   <tile gid="338"/>
   <tile gid="232"/>
   <tile gid="67"/>
   <tile gid="67"/>
   <tile gid="195"/>
   <tile gid="56"/>
   <tile gid="245"/>
   <tile gid="214"/>
   <tile gid="214"/>
   <tile gid="278"/>
   <tile gid="214"/>
   <tile gid="214"/>
   <tile gid="214"/>
   <tile gid="214"/>
   <tile gid="246"/>
   <tile gid="287"/>
   <tile gid="292"/>
   <tile gid="101"/>
   <tile gid="101"/>
   <tile gid="101"/>
   <tile gid="306"/>
   <tile gid="232"/>
   <tile gid="67"/>
   <tile gid="67"/>
   <tile gid="67"/>
   <tile gid="54"/>
   <tile gid="191"/>
   <tile gid="214"/>
   <tile gid="214"/>
   <tile gid="214"/>
   <tile gid="214"/>
   <tile gid="248"/>
   <tile gid="248"/>
   <tile gid="248"/>
   <tile gid="248"/>
   <tile gid="213"/>
   <tile gid="55"/>
   <tile gid="319"/>
   <tile gid="198"/>
   <tile gid="848"/>
   <tile gid="849"/>
   <tile gid="196"/>
   <tile gid="67"/>
   <tile gid="720"/>
   <tile gid="67"/>
   <tile gid="67"/>
   <tile gid="22"/>
   <tile gid="213"/>
   <tile gid="214"/>
   <tile gid="214"/>
   <tile gid="278"/>
   <tile gid="214"/>
   <tile gid="214"/>
   <tile gid="214"/>
   <tile gid="214"/>
   <tile gid="278"/>
   <tile gid="213"/>
   <tile gid="190"/>
   <tile gid="246"/>
   <tile gid="55"/>
   <tile gid="880"/>
   <tile gid="881"/>
   <tile gid="67"/>
   <tile gid="67"/>
   <tile gid="67"/>
   <tile gid="292"/>
   <tile gid="67"/>
   <tile gid="260"/>
   <tile gid="62"/>
   <tile gid="214"/>
   <tile gid="214"/>
   <tile gid="214"/>
   <tile gid="278"/>
   <tile gid="214"/>
   <tile gid="214"/>
   <tile gid="214"/>
   <tile gid="214"/>
   <tile gid="214"/>
   <tile gid="213"/>
   <tile gid="278"/>
   <tile gid="23"/>
   <tile gid="912"/>
   <tile gid="913"/>
  </data>
 </layer>
 <layer id="2" name="Map Change 0" width="21" height="12">
  <properties>
   <property name="Height" value="4"/>
   <property name="ID" value="0"/>
   <property name="Width" value="13"/>
   <property name="X" value="5"/>
   <property name="Y" value="4"/>
  </properties>
  <data>
   <tile/>
   <tile/>
   <tile/>
   <tile/>
   <tile/>
   <tile/>
   <tile/>
   <tile/>
   <tile/>
   <tile/>
   <tile/>
   <tile/>
   <tile/>
   <tile/>
   <tile/>
   <tile/>
   <tile/>
   <tile/>
   <tile/>
   <tile/>
   <tile/>
   <tile/>
   <tile/>
   <tile/>
   <tile/>
   <tile/>
   <tile/>
   <tile/>
   <tile/>
   <tile/>
   <tile/>
   <tile/>
   <tile/>
   <tile/>
   <tile/>
   <tile/>
   <tile/>
   <tile/>
   <tile/>
   <tile/>
   <tile/>
   <tile/>
   <tile/>
   <tile/>
   <tile/>
   <tile/>
   <tile/>
   <tile/>
   <tile/>
   <tile/>
   <tile/>
   <tile/>
   <tile/>
   <tile/>
   <tile/>
   <tile/>
   <tile/>
   <tile/>
   <tile/>
   <tile/>
   <tile/>
   <tile/>
   <tile/>
   <tile/>
   <tile/>
   <tile/>
   <tile/>
   <tile/>
   <tile/>
   <tile/>
   <tile/>
   <tile/>
   <tile/>
   <tile/>
   <tile/>
   <tile/>
   <tile/>
   <tile/>
   <tile/>
   <tile/>
   <tile/>
   <tile/>
   <tile/>
   <tile/>
   <tile/>
   <tile/>
   <tile/>
   <tile/>
   <tile/>
   <tile gid="951"/>
   <tile gid="952"/>
   <tile gid="953"/>
   <tile gid="214"/>
   <tile gid="951"/>
   <tile gid="953"/>
   <tile gid="214"/>
   <tile gid="951"/>
   <tile gid="952"/>
   <tile gid="952"/>
   <tile gid="952"/>
   <tile gid="952"/>
   <tile gid="953"/>
   <tile/>
   <tile/>
   <tile/>
   <tile/>
   <tile/>
   <tile/>
   <tile/>
   <tile/>
   <tile gid="983"/>
   <tile gid="984"/>
   <tile gid="984"/>
   <tile gid="984"/>
   <tile gid="984"/>
   <tile gid="985"/>
   <tile gid="214"/>
   <tile gid="983"/>
   <tile gid="984"/>
   <tile gid="1016"/>
   <tile gid="984"/>
   <tile gid="984"/>
   <tile gid="985"/>
   <tile/>
   <tile/>
   <tile/>
   <tile/>
   <tile/>
   <tile/>
   <tile/>
   <tile/>
   <tile gid="983"/>
   <tile gid="984"/>
   <tile gid="984"/>
   <tile gid="984"/>
   <tile gid="1016"/>
   <tile gid="984"/>
   <tile gid="984"/>
   <tile gid="984"/>
   <tile gid="985"/>
   <tile gid="214"/>
   <tile gid="983"/>
   <tile gid="984"/>
   <tile gid="985"/>
   <tile/>
   <tile/>
   <tile/>
   <tile/>
   <tile/>
   <tile/>
   <tile/>
   <tile/>
   <tile gid="1015"/>
   <tile gid="1016"/>
   <tile gid="1016"/>
   <tile gid="1017"/>
   <tile gid="214"/>
   <tile gid="1015"/>
   <tile gid="1016"/>
   <tile gid="1016"/>
   <tile gid="1017"/>
   <tile gid="214"/>
   <tile gid="1015"/>
   <tile gid="1016"/>
   <tile gid="1017"/>
   <tile/>
   <tile/>
   <tile/>
   <tile/>
   <tile/>
   <tile/>
   <tile/>
   <tile/>
   <tile/>
   <tile/>
   <tile/>
   <tile/>
   <tile/>
   <tile/>
   <tile/>
   <tile/>
   <tile/>
   <tile/>
   <tile/>
   <tile/>
   <tile/>
   <tile/>
   <tile/>
   <tile/>
   <tile/>
   <tile/>
   <tile/>
   <tile/>
   <tile/>
   <tile/>
   <tile/>
   <tile/>
   <tile/>
   <tile/>
   <tile/>
   <tile/>
   <tile/>
   <tile/>
   <tile/>
   <tile/>
   <tile/>
   <tile/>
   <tile/>
   <tile/>
   <tile/>
   <tile/>
   <tile/>
   <tile/>
   <tile/>
   <tile/>
   <tile/>
   <tile/>
   <tile/>
   <tile/>
   <tile/>
   <tile/>
   <tile/>
   <tile/>
   <tile/>
   <tile/>
   <tile/>
   <tile/>
   <tile/>
   <tile/>
   <tile/>
   <tile/>
   <tile/>
   <tile/>
   <tile/>
   <tile/>
   <tile/>
   <tile/>
   <tile/>
   <tile/>
   <tile/>
   <tile/>
   <tile/>
   <tile/>
   <tile/>
   <tile/>
   <tile/>
   <tile/>
   <tile/>
   <tile/>
   <tile/>
   <tile/>
   <tile/>
  </data>
 </layer>
 <layer id="3" name="Map Change 1" width="21" height="12">
  <properties>
   <property name="Height" value="4"/>
   <property name="ID" value="1"/>
   <property name="Width" value="9"/>
   <property name="X" value="7"/>
   <property name="Y" value="4"/>
  </properties>
  <data>
   <tile/>
   <tile/>
   <tile/>
   <tile/>
   <tile/>
   <tile/>
   <tile/>
   <tile/>
   <tile/>
   <tile/>
   <tile/>
   <tile/>
   <tile/>
   <tile/>
   <tile/>
   <tile/>
   <tile/>
   <tile/>
   <tile/>
   <tile/>
   <tile/>
   <tile/>
   <tile/>
   <tile/>
   <tile/>
   <tile/>
   <tile/>
   <tile/>
   <tile/>
   <tile/>
   <tile/>
   <tile/>
   <tile/>
   <tile/>
   <tile/>
   <tile/>
   <tile/>
   <tile/>
   <tile/>
   <tile/>
   <tile/>
   <tile/>
   <tile/>
   <tile/>
   <tile/>
   <tile/>
   <tile/>
   <tile/>
   <tile/>
   <tile/>
   <tile/>
   <tile/>
   <tile/>
   <tile/>
   <tile/>
   <tile/>
   <tile/>
   <tile/>
   <tile/>
   <tile/>
   <tile/>
   <tile/>
   <tile/>
   <tile/>
   <tile/>
   <tile/>
   <tile/>
   <tile/>
   <tile/>
   <tile/>
   <tile/>
   <tile/>
   <tile/>
   <tile/>
   <tile/>
   <tile/>
   <tile/>
   <tile/>
   <tile/>
   <tile/>
   <tile/>
   <tile/>
   <tile/>
   <tile/>
   <tile/>
   <tile/>
   <tile/>
   <tile/>
   <tile/>
   <tile/>
   <tile/>
   <tile gid="953"/>
   <tile gid="214"/>
   <tile gid="214"/>
   <tile gid="214"/>
   <tile gid="214"/>
   <tile gid="951"/>
   <tile gid="1013"/>
   <tile gid="952"/>
   <tile gid="952"/>
   <tile/>
   <tile/>
   <tile/>
   <tile/>
   <tile/>
   <tile/>
   <tile/>
   <tile/>
   <tile/>
   <tile/>
   <tile/>
   <tile/>
   <tile gid="985"/>
   <tile gid="214"/>
   <tile gid="214"/>
   <tile gid="214"/>
   <tile gid="214"/>
   <tile gid="214"/>
   <tile gid="214"/>
   <tile gid="983"/>
   <tile gid="984"/>
   <tile/>
   <tile/>
   <tile/>
   <tile/>
   <tile/>
   <tile/>
   <tile/>
   <tile/>
   <tile/>
   <tile/>
   <tile/>
   <tile/>
   <tile gid="984"/>
   <tile gid="953"/>
   <tile gid="214"/>
   <tile gid="214"/>
   <tile gid="214"/>
   <tile gid="214"/>
   <tile gid="1015"/>
   <tile gid="1016"/>
   <tile gid="984"/>
   <tile/>
   <tile/>
   <tile/>
   <tile/>
   <tile/>
   <tile/>
   <tile/>
   <tile/>
   <tile/>
   <tile/>
   <tile/>
   <tile/>
   <tile gid="1016"/>
   <tile gid="1016"/>
   <tile gid="1017"/>
   <tile gid="214"/>
   <tile gid="214"/>
   <tile gid="214"/>
   <tile gid="214"/>
   <tile gid="214"/>
   <tile gid="1015"/>
   <tile/>
   <tile/>
   <tile/>
   <tile/>
   <tile/>
   <tile/>
   <tile/>
   <tile/>
   <tile/>
   <tile/>
   <tile/>
   <tile/>
   <tile/>
   <tile/>
   <tile/>
   <tile/>
   <tile/>
   <tile/>
   <tile/>
   <tile/>
   <tile/>
   <tile/>
   <tile/>
   <tile/>
   <tile/>
   <tile/>
   <tile/>
   <tile/>
   <tile/>
   <tile/>
   <tile/>
   <tile/>
   <tile/>
   <tile/>
   <tile/>
   <tile/>
   <tile/>
   <tile/>
   <tile/>
   <tile/>
   <tile/>
   <tile/>
   <tile/>
   <tile/>
   <tile/>
   <tile/>
   <tile/>
   <tile/>
   <tile/>
   <tile/>
   <tile/>
   <tile/>
   <tile/>
   <tile/>
   <tile/>
   <tile/>
   <tile/>
   <tile/>
   <tile/>
   <tile/>
   <tile/>
   <tile/>
   <tile/>
   <tile/>
   <tile/>
   <tile/>
   <tile/>
   <tile/>
   <tile/>
   <tile/>
   <tile/>
   <tile/>
   <tile/>
   <tile/>
   <tile/>
   <tile/>
   <tile/>
   <tile/>
   <tile/>
   <tile/>
   <tile/>
   <tile/>
   <tile/>
   <tile/>
   <tile/>
   <tile/>
   <tile/>
   <tile/>
   <tile/>
  </data>
 </layer>
 <layer id="4" name="Map Change 2" width="21" height="12">
  <properties>
   <property name="Height" value="4"/>
   <property name="ID" value="2"/>
   <property name="Width" value="10"/>
   <property name="X" value="6"/>
   <property name="Y" value="4"/>
  </properties>
  <data>
   <tile/>
   <tile/>
   <tile/>
   <tile/>
   <tile/>
   <tile/>
   <tile/>
   <tile/>
   <tile/>
   <tile/>
   <tile/>
   <tile/>
   <tile/>
   <tile/>
   <tile/>
   <tile/>
   <tile/>
   <tile/>
   <tile/>
   <tile/>
   <tile/>
   <tile/>
   <tile/>
   <tile/>
   <tile/>
   <tile/>
   <tile/>
   <tile/>
   <tile/>
   <tile/>
   <tile/>
   <tile/>
   <tile/>
   <tile/>
   <tile/>
   <tile/>
   <tile/>
   <tile/>
   <tile/>
   <tile/>
   <tile/>
   <tile/>
   <tile/>
   <tile/>
   <tile/>
   <tile/>
   <tile/>
   <tile/>
   <tile/>
   <tile/>
   <tile/>
   <tile/>
   <tile/>
   <tile/>
   <tile/>
   <tile/>
   <tile/>
   <tile/>
   <tile/>
   <tile/>
   <tile/>
   <tile/>
   <tile/>
   <tile/>
   <tile/>
   <tile/>
   <tile/>
   <tile/>
   <tile/>
   <tile/>
   <tile/>
   <tile/>
   <tile/>
   <tile/>
   <tile/>
   <tile/>
   <tile/>
   <tile/>
   <tile/>
   <tile/>
   <tile/>
   <tile/>
   <tile/>
   <tile/>
   <tile/>
   <tile/>
   <tile/>
   <tile/>
   <tile/>
   <tile/>
   <tile gid="953"/>
   <tile gid="214"/>
   <tile gid="214"/>
   <tile gid="214"/>
   <tile gid="250"/>
   <tile gid="214"/>
   <tile gid="214"/>
   <tile gid="250"/>
   <tile gid="214"/>
   <tile gid="951"/>
   <tile/>
   <tile/>
   <tile/>
   <tile/>
   <tile/>
   <tile/>
   <tile/>
   <tile/>
   <tile/>
   <tile/>
   <tile/>
   <tile gid="985"/>
   <tile gid="214"/>
   <tile gid="250"/>
   <tile gid="214"/>
   <tile gid="214"/>
   <tile gid="214"/>
   <tile gid="214"/>
   <tile gid="214"/>
   <tile gid="214"/>
   <tile gid="983"/>
   <tile/>
   <tile/>
   <tile/>
   <tile/>
   <tile/>
   <tile/>
   <tile/>
   <tile/>
   <tile/>
   <tile/>
   <tile/>
   <tile gid="984"/>
   <tile gid="953"/>
   <tile gid="214"/>
   <tile gid="214"/>
   <tile gid="250"/>
   <tile gid="214"/>
   <tile gid="250"/>
   <tile gid="214"/>
   <tile gid="278"/>
   <tile gid="983"/>
   <tile/>
   <tile/>
   <tile/>
   <tile/>
   <tile/>
   <tile/>
   <tile/>
   <tile/>
   <tile/>
   <tile/>
   <tile/>
   <tile gid="1016"/>
   <tile gid="1017"/>
   <tile gid="214"/>
   <tile gid="250"/>
   <tile gid="214"/>
   <tile gid="250"/>
   <tile gid="214"/>
   <tile gid="214"/>
   <tile gid="250"/>
   <tile gid="1015"/>
   <tile/>
   <tile/>
   <tile/>
   <tile/>
   <tile/>
   <tile/>
   <tile/>
   <tile/>
   <tile/>
   <tile/>
   <tile/>
   <tile/>
   <tile/>
   <tile/>
   <tile/>
   <tile/>
   <tile/>
   <tile/>
   <tile/>
   <tile/>
   <tile/>
   <tile/>
   <tile/>
   <tile/>
   <tile/>
   <tile/>
   <tile/>
   <tile/>
   <tile/>
   <tile/>
   <tile/>
   <tile/>
   <tile/>
   <tile/>
   <tile/>
   <tile/>
   <tile/>
   <tile/>
   <tile/>
   <tile/>
   <tile/>
   <tile/>
   <tile/>
   <tile/>
   <tile/>
   <tile/>
   <tile/>
   <tile/>
   <tile/>
   <tile/>
   <tile/>
   <tile/>
   <tile/>
   <tile/>
   <tile/>
   <tile/>
   <tile/>
   <tile/>
   <tile/>
   <tile/>
   <tile/>
   <tile/>
   <tile/>
   <tile/>
   <tile/>
   <tile/>
   <tile/>
   <tile/>
   <tile/>
   <tile/>
   <tile/>
   <tile/>
   <tile/>
   <tile/>
   <tile/>
   <tile/>
   <tile/>
   <tile/>
   <tile/>
   <tile/>
   <tile/>
   <tile/>
   <tile/>
   <tile/>
   <tile/>
   <tile/>
   <tile/>
   <tile/>
   <tile/>
  </data>
 </layer>
</map>
