<?xml version="1.0" encoding="UTF-8"?>
<map version="1.10" tiledversion="1.11.2" orientation="orthogonal" renderorder="right-down" width="19" height="33" tilewidth="16" tileheight="16" infinite="0" nextlayerid="4" nextobjectid="1">
 <tileset firstgid="1" name="0D001011" tilewidth="16" tileheight="16" tilecount="1024" columns="32">
  <image source="0D001011.png" trans="ffffff" width="512" height="512"/>
 </tileset>
 <layer id="1" name="Tile Layer 1" width="19" height="33">
  <properties>
   <property name="Anims1" value="0x1"/>
   <property name="Anims2" value="0x0"/>
   <property name="ChapterID" value="8"/>
   <property name="Main" value=""/>
   <property name="MapChangesID" value="0x26"/>
   <property name="MapID" value="0x25"/>
   <property name="ObjectType" value="0x7"/>
   <property name="PaletteID" value="0xB"/>
   <property name="TileConfig" value="0x7"/>
  </properties>
  <data>
   <tile gid="13"/>
   <tile gid="14"/>
   <tile gid="131"/>
   <tile gid="131"/>
   <tile gid="131"/>
   <tile gid="131"/>
   <tile gid="194"/>
   <tile gid="786"/>
   <tile gid="724"/>
   <tile gid="756"/>
   <tile gid="131"/>
   <tile gid="131"/>
   <tile gid="131"/>
   <tile gid="194"/>
   <tile gid="131"/>
   <tile gid="131"/>
   <tile gid="131"/>
   <tile gid="131"/>
   <tile gid="131"/>
   <tile gid="45"/>
   <tile gid="46"/>
   <tile gid="131"/>
   <tile gid="13"/>
   <tile gid="14"/>
   <tile gid="131"/>
   <tile gid="131"/>
   <tile gid="787"/>
   <tile gid="853"/>
   <tile gid="788"/>
   <tile gid="131"/>
   <tile gid="131"/>
   <tile gid="131"/>
   <tile gid="131"/>
   <tile gid="131"/>
   <tile gid="131"/>
   <tile gid="131"/>
   <tile gid="131"/>
   <tile gid="13"/>
   <tile gid="786"/>
   <tile gid="724"/>
   <tile gid="756"/>
   <tile gid="45"/>
   <tile gid="46"/>
   <tile gid="131"/>
   <tile gid="13"/>
   <tile gid="14"/>
   <tile gid="307"/>
   <tile gid="200"/>
   <tile gid="131"/>
   <tile gid="260"/>
   <tile gid="131"/>
   <tile gid="131"/>
   <tile gid="131"/>
   <tile gid="131"/>
   <tile gid="194"/>
   <tile gid="131"/>
   <tile gid="45"/>
   <tile gid="787"/>
   <tile gid="853"/>
   <tile gid="788"/>
   <tile gid="131"/>
   <tile gid="199"/>
   <tile gid="276"/>
   <tile gid="45"/>
   <tile gid="46"/>
   <tile gid="131"/>
   <tile gid="231"/>
   <tile gid="276"/>
   <tile gid="292"/>
   <tile gid="131"/>
   <tile gid="131"/>
   <tile gid="131"/>
   <tile gid="786"/>
   <tile gid="724"/>
   <tile gid="756"/>
   <tile gid="131"/>
   <tile gid="131"/>
   <tile gid="332"/>
   <tile gid="199"/>
   <tile gid="274"/>
   <tile gid="402"/>
   <tile gid="402"/>
   <tile gid="264"/>
   <tile gid="263"/>
   <tile gid="274"/>
   <tile gid="274"/>
   <tile gid="402"/>
   <tile gid="200"/>
   <tile gid="131"/>
   <tile gid="13"/>
   <tile gid="14"/>
   <tile gid="787"/>
   <tile gid="853"/>
   <tile gid="788"/>
   <tile gid="194"/>
   <tile gid="455"/>
   <tile gid="274"/>
   <tile gid="402"/>
   <tile gid="253"/>
   <tile gid="454"/>
   <tile gid="453"/>
   <tile gid="487"/>
   <tile gid="254"/>
   <tile gid="422"/>
   <tile gid="402"/>
   <tile gid="338"/>
   <tile gid="272"/>
   <tile gid="131"/>
   <tile gid="45"/>
   <tile gid="46"/>
   <tile gid="131"/>
   <tile gid="271"/>
   <tile gid="276"/>
   <tile gid="131"/>
   <tile gid="285"/>
   <tile gid="453"/>
   <tile gid="485"/>
   <tile gid="454"/>
   <tile gid="561"/>
   <tile gid="560"/>
   <tile gid="659"/>
   <tile gid="455"/>
   <tile gid="454"/>
   <tile gid="339"/>
   <tile gid="338"/>
   <tile gid="402"/>
   <tile gid="200"/>
   <tile gid="269"/>
   <tile gid="270"/>
   <tile gid="199"/>
   <tile gid="402"/>
   <tile gid="232"/>
   <tile gid="131"/>
   <tile gid="528"/>
   <tile gid="561"/>
   <tile gid="691"/>
   <tile gid="402"/>
   <tile gid="402"/>
   <tile gid="402"/>
   <tile gid="691"/>
   <tile gid="691"/>
   <tile gid="691"/>
   <tile gid="338"/>
   <tile gid="402"/>
   <tile gid="421"/>
   <tile gid="402"/>
   <tile gid="402"/>
   <tile gid="402"/>
   <tile gid="402"/>
   <tile gid="200"/>
   <tile gid="194"/>
   <tile gid="131"/>
   <tile gid="561"/>
   <tile gid="338"/>
   <tile gid="193"/>
   <tile gid="338"/>
   <tile gid="338"/>
   <tile gid="402"/>
   <tile gid="528"/>
   <tile gid="659"/>
   <tile gid="529"/>
   <tile gid="338"/>
   <tile gid="436"/>
   <tile gid="455"/>
   <tile gid="402"/>
   <tile gid="402"/>
   <tile gid="454"/>
   <tile gid="455"/>
   <tile gid="402"/>
   <tile gid="274"/>
   <tile gid="274"/>
   <tile gid="627"/>
   <tile gid="627"/>
   <tile gid="338"/>
   <tile gid="338"/>
   <tile gid="402"/>
   <tile gid="528"/>
   <tile gid="659"/>
   <tile gid="421"/>
   <tile gid="521"/>
   <tile gid="402"/>
   <tile gid="528"/>
   <tile gid="421"/>
   <tile gid="193"/>
   <tile gid="402"/>
   <tile gid="424"/>
   <tile gid="285"/>
   <tile gid="455"/>
   <tile gid="485"/>
   <tile gid="454"/>
   <tile gid="659"/>
   <tile gid="659"/>
   <tile gid="529"/>
   <tile gid="402"/>
   <tile gid="658"/>
   <tile gid="659"/>
   <tile gid="421"/>
   <tile gid="456"/>
   <tile gid="286"/>
   <tile gid="402"/>
   <tile gid="423"/>
   <tile gid="402"/>
   <tile gid="487"/>
   <tile gid="402"/>
   <tile gid="193"/>
   <tile gid="424"/>
   <tile gid="659"/>
   <tile gid="878"/>
   <tile gid="879"/>
   <tile gid="426"/>
   <tile gid="423"/>
   <tile gid="424"/>
   <tile gid="529"/>
   <tile gid="658"/>
   <tile gid="519"/>
   <tile gid="193"/>
   <tile gid="426"/>
   <tile gid="660"/>
   <tile gid="193"/>
   <tile gid="453"/>
   <tile gid="454"/>
   <tile gid="387"/>
   <tile gid="453"/>
   <tile gid="485"/>
   <tile gid="454"/>
   <tile gid="659"/>
   <tile gid="490"/>
   <tile gid="491"/>
   <tile gid="756"/>
   <tile gid="402"/>
   <tile gid="402"/>
   <tile gid="520"/>
   <tile gid="402"/>
   <tile gid="285"/>
   <tile gid="453"/>
   <tile gid="454"/>
   <tile gid="692"/>
   <tile gid="626"/>
   <tile gid="627"/>
   <tile gid="628"/>
   <tile gid="560"/>
   <tile gid="878"/>
   <tile gid="878"/>
   <tile gid="878"/>
   <tile gid="659"/>
   <tile gid="455"/>
   <tile gid="193"/>
   <tile gid="788"/>
   <tile gid="421"/>
   <tile gid="193"/>
   <tile gid="458"/>
   <tile gid="402"/>
   <tile gid="402"/>
   <tile gid="402"/>
   <tile gid="402"/>
   <tile gid="434"/>
   <tile gid="690"/>
   <tile gid="490"/>
   <tile gid="491"/>
   <tile gid="529"/>
   <tile gid="560"/>
   <tile gid="879"/>
   <tile gid="878"/>
   <tile gid="879"/>
   <tile gid="423"/>
   <tile gid="402"/>
   <tile gid="402"/>
   <tile gid="453"/>
   <tile gid="456"/>
   <tile gid="286"/>
   <tile gid="402"/>
   <tile gid="528"/>
   <tile gid="488"/>
   <tile gid="402"/>
   <tile gid="402"/>
   <tile gid="402"/>
   <tile gid="402"/>
   <tile gid="193"/>
   <tile gid="521"/>
   <tile gid="658"/>
   <tile gid="421"/>
   <tile gid="424"/>
   <tile gid="421"/>
   <tile gid="786"/>
   <tile gid="724"/>
   <tile gid="402"/>
   <tile gid="402"/>
   <tile gid="402"/>
   <tile gid="402"/>
   <tile gid="193"/>
   <tile gid="421"/>
   <tile gid="193"/>
   <tile gid="402"/>
   <tile gid="513"/>
   <tile gid="484"/>
   <tile gid="514"/>
   <tile gid="458"/>
   <tile gid="286"/>
   <tile gid="528"/>
   <tile gid="453"/>
   <tile gid="402"/>
   <tile gid="402"/>
   <tile gid="787"/>
   <tile gid="853"/>
   <tile gid="306"/>
   <tile gid="402"/>
   <tile gid="627"/>
   <tile gid="402"/>
   <tile gid="402"/>
   <tile gid="453"/>
   <tile gid="487"/>
   <tile gid="456"/>
   <tile gid="513"/>
   <tile gid="484"/>
   <tile gid="514"/>
   <tile gid="286"/>
   <tile gid="628"/>
   <tile gid="847"/>
   <tile gid="423"/>
   <tile gid="193"/>
   <tile gid="402"/>
   <tile gid="402"/>
   <tile gid="402"/>
   <tile gid="194"/>
   <tile gid="231"/>
   <tile gid="424"/>
   <tile gid="529"/>
   <tile gid="628"/>
   <tile gid="560"/>
   <tile gid="659"/>
   <tile gid="387"/>
   <tile gid="513"/>
   <tile gid="484"/>
   <tile gid="514"/>
   <tile gid="878"/>
   <tile gid="660"/>
   <tile gid="560"/>
   <tile gid="453"/>
   <tile gid="454"/>
   <tile gid="402"/>
   <tile gid="402"/>
   <tile gid="193"/>
   <tile gid="199"/>
   <tile gid="274"/>
   <tile gid="193"/>
   <tile gid="422"/>
   <tile gid="660"/>
   <tile gid="658"/>
   <tile gid="659"/>
   <tile gid="659"/>
   <tile gid="513"/>
   <tile gid="484"/>
   <tile gid="514"/>
   <tile gid="561"/>
   <tile gid="402"/>
   <tile gid="402"/>
   <tile gid="627"/>
   <tile gid="627"/>
   <tile gid="338"/>
   <tile gid="402"/>
   <tile gid="421"/>
   <tile gid="402"/>
   <tile gid="458"/>
   <tile gid="453"/>
   <tile gid="454"/>
   <tile gid="692"/>
   <tile gid="658"/>
   <tile gid="659"/>
   <tile gid="659"/>
   <tile gid="513"/>
   <tile gid="484"/>
   <tile gid="514"/>
   <tile gid="627"/>
   <tile gid="627"/>
   <tile gid="402"/>
   <tile gid="519"/>
   <tile gid="422"/>
   <tile gid="529"/>
   <tile gid="402"/>
   <tile gid="453"/>
   <tile gid="454"/>
   <tile gid="286"/>
   <tile gid="402"/>
   <tile gid="193"/>
   <tile gid="528"/>
   <tile gid="490"/>
   <tile gid="491"/>
   <tile gid="421"/>
   <tile gid="481"/>
   <tile gid="482"/>
   <tile gid="483"/>
   <tile gid="424"/>
   <tile gid="814"/>
   <tile gid="660"/>
   <tile gid="425"/>
   <tile gid="193"/>
   <tile gid="424"/>
   <tile gid="402"/>
   <tile gid="402"/>
   <tile gid="402"/>
   <tile gid="402"/>
   <tile gid="402"/>
   <tile gid="626"/>
   <tile gid="421"/>
   <tile gid="34"/>
   <tile gid="402"/>
   <tile gid="402"/>
   <tile gid="19"/>
   <tile gid="20"/>
   <tile gid="402"/>
   <tile gid="458"/>
   <tile gid="561"/>
   <tile gid="402"/>
   <tile gid="455"/>
   <tile gid="402"/>
   <tile gid="588"/>
   <tile gid="402"/>
   <tile gid="424"/>
   <tile gid="402"/>
   <tile gid="402"/>
   <tile gid="402"/>
   <tile gid="658"/>
   <tile gid="453"/>
   <tile gid="489"/>
   <tile gid="459"/>
   <tile gid="529"/>
   <tile gid="51"/>
   <tile gid="52"/>
   <tile gid="458"/>
   <tile gid="659"/>
   <tile gid="660"/>
   <tile gid="528"/>
   <tile gid="423"/>
   <tile gid="588"/>
   <tile gid="1004"/>
   <tile gid="589"/>
   <tile gid="402"/>
   <tile gid="402"/>
   <tile gid="626"/>
   <tile gid="528"/>
   <tile gid="690"/>
   <tile gid="560"/>
   <tile gid="659"/>
   <tile gid="453"/>
   <tile gid="659"/>
   <tile gid="625"/>
   <tile gid="402"/>
   <tile gid="424"/>
   <tile gid="561"/>
   <tile gid="528"/>
   <tile gid="423"/>
   <tile gid="554"/>
   <tile gid="1004"/>
   <tile gid="902"/>
   <tile gid="1004"/>
   <tile gid="553"/>
   <tile gid="402"/>
   <tile gid="402"/>
   <tile gid="424"/>
   <tile gid="529"/>
   <tile gid="402"/>
   <tile gid="560"/>
   <tile gid="421"/>
   <tile gid="691"/>
   <tile gid="454"/>
   <tile gid="453"/>
   <tile gid="456"/>
   <tile gid="660"/>
   <tile gid="560"/>
   <tile gid="453"/>
   <tile gid="402"/>
   <tile gid="556"/>
   <tile gid="934"/>
   <tile gid="557"/>
   <tile gid="402"/>
   <tile gid="402"/>
   <tile gid="402"/>
   <tile gid="193"/>
   <tile gid="424"/>
   <tile gid="529"/>
   <tile gid="560"/>
   <tile gid="455"/>
   <tile gid="34"/>
   <tile gid="422"/>
   <tile gid="402"/>
   <tile gid="560"/>
   <tile gid="561"/>
   <tile gid="528"/>
   <tile gid="421"/>
   <tile gid="402"/>
   <tile gid="402"/>
   <tile gid="423"/>
   <tile gid="193"/>
   <tile gid="402"/>
   <tile gid="402"/>
   <tile gid="402"/>
   <tile gid="402"/>
   <tile gid="454"/>
   <tile gid="659"/>
   <tile gid="660"/>
   <tile gid="560"/>
   <tile gid="455"/>
   <tile gid="454"/>
   <tile gid="402"/>
   <tile gid="402"/>
   <tile gid="658"/>
   <tile gid="425"/>
   <tile gid="193"/>
   <tile gid="402"/>
   <tile gid="626"/>
   <tile gid="455"/>
   <tile gid="489"/>
   <tile gid="458"/>
   <tile gid="404"/>
   <tile gid="434"/>
   <tile gid="402"/>
   <tile gid="422"/>
   <tile gid="459"/>
   <tile gid="561"/>
   <tile gid="402"/>
   <tile gid="402"/>
   <tile gid="627"/>
   <tile gid="627"/>
   <tile gid="402"/>
   <tile gid="402"/>
   <tile gid="453"/>
   <tile gid="454"/>
   <tile gid="435"/>
   <tile gid="658"/>
   <tile gid="879"/>
   <tile gid="879"/>
   <tile gid="879"/>
   <tile gid="338"/>
   <tile gid="404"/>
   <tile gid="402"/>
   <tile gid="387"/>
   <tile gid="424"/>
   <tile gid="660"/>
   <tile gid="402"/>
   <tile gid="528"/>
   <tile gid="490"/>
   <tile gid="491"/>
   <tile gid="529"/>
   <tile gid="628"/>
   <tile gid="402"/>
   <tile gid="434"/>
   <tile gid="434"/>
   <tile gid="690"/>
   <tile gid="490"/>
   <tile gid="491"/>
   <tile gid="387"/>
   <tile gid="338"/>
   <tile gid="338"/>
   <tile gid="404"/>
   <tile gid="453"/>
   <tile gid="456"/>
   <tile gid="692"/>
   <tile gid="528"/>
   <tile gid="423"/>
   <tile gid="402"/>
   <tile gid="193"/>
   <tile gid="424"/>
   <tile gid="660"/>
   <tile gid="338"/>
   <tile gid="434"/>
   <tile gid="434"/>
   <tile gid="528"/>
   <tile gid="453"/>
   <tile gid="402"/>
   <tile gid="424"/>
   <tile gid="338"/>
   <tile gid="193"/>
   <tile gid="338"/>
   <tile gid="402"/>
   <tile gid="434"/>
   <tile gid="658"/>
   <tile gid="519"/>
   <tile gid="402"/>
   <tile gid="402"/>
   <tile gid="402"/>
   <tile gid="454"/>
   <tile gid="692"/>
   <tile gid="626"/>
   <tile gid="627"/>
   <tile gid="627"/>
   <tile gid="560"/>
   <tile gid="879"/>
   <tile gid="453"/>
   <tile gid="402"/>
   <tile gid="435"/>
   <tile gid="338"/>
   <tile gid="402"/>
   <tile gid="402"/>
   <tile gid="402"/>
   <tile gid="690"/>
   <tile gid="423"/>
   <tile gid="402"/>
   <tile gid="434"/>
   <tile gid="402"/>
   <tile gid="434"/>
   <tile gid="402"/>
   <tile gid="528"/>
   <tile gid="423"/>
   <tile gid="422"/>
   <tile gid="529"/>
   <tile gid="560"/>
   <tile gid="518"/>
   <tile gid="402"/>
   <tile gid="434"/>
   <tile gid="435"/>
   <tile gid="338"/>
   <tile gid="434"/>
   <tile gid="434"/>
   <tile gid="402"/>
   <tile gid="402"/>
   <tile gid="402"/>
   <tile gid="434"/>
   <tile gid="434"/>
   <tile gid="402"/>
   <tile gid="528"/>
   <tile gid="879"/>
   <tile gid="455"/>
   <tile gid="193"/>
   <tile gid="422"/>
   <tile gid="529"/>
   <tile gid="560"/>
   <tile gid="453"/>
  </data>
 </layer>
 <layer id="2" name="Map Change 0" width="19" height="33">
  <properties>
   <property name="Height" value="1"/>
   <property name="ID" value="0"/>
   <property name="Width" value="1"/>
   <property name="X" value="5"/>
   <property name="Y" value="21"/>
  </properties>
  <data>
   <tile/>
   <tile/>
   <tile/>
   <tile/>
   <tile/>
   <tile/>
   <tile/>
   <tile/>
   <tile/>
   <tile/>
   <tile/>
   <tile/>
   <tile/>
   <tile/>
   <tile/>
   <tile/>
   <tile/>
   <tile/>
   <tile/>
   <tile/>
   <tile/>
   <tile/>
   <tile/>
   <tile/>
   <tile/>
   <tile/>
   <tile/>
   <tile/>
   <tile/>
   <tile/>
   <tile/>
   <tile/>
   <tile/>
   <tile/>
   <tile/>
   <tile/>
   <tile/>
   <tile/>
   <tile/>
   <tile/>
   <tile/>
   <tile/>
   <tile/>
   <tile/>
   <tile/>
   <tile/>
   <tile/>
   <tile/>
   <tile/>
   <tile/>
   <tile/>
   <tile/>
   <tile/>
   <tile/>
   <tile/>
   <tile/>
   <tile/>
   <tile/>
   <tile/>
   <tile/>
   <tile/>
   <tile/>
   <tile/>
   <tile/>
   <tile/>
   <tile/>
   <tile/>
   <tile/>
   <tile/>
   <tile/>
   <tile/>
   <tile/>
   <tile/>
   <tile/>
   <tile/>
   <tile/>
   <tile/>
   <tile/>
   <tile/>
   <tile/>
   <tile/>
   <tile/>
   <tile/>
   <tile/>
   <tile/>
   <tile/>
   <tile/>
   <tile/>
   <tile/>
   <tile/>
   <tile/>
   <tile/>
   <tile/>
   <tile/>
   <tile/>
   <tile/>
   <tile/>
   <tile/>
   <tile/>
   <tile/>
   <tile/>
   <tile/>
   <tile/>
   <tile/>
   <tile/>
   <tile/>
   <tile/>
   <tile/>
   <tile/>
   <tile/>
   <tile/>
   <tile/>
   <tile/>
   <tile/>
   <tile/>
   <tile/>
   <tile/>
   <tile/>
   <tile/>
   <tile/>
   <tile/>
   <tile/>
   <tile/>
   <tile/>
   <tile/>
   <tile/>
   <tile/>
   <tile/>
   <tile/>
   <tile/>
   <tile/>
   <tile/>
   <tile/>
   <tile/>
   <tile/>
   <tile/>
   <tile/>
   <tile/>
   <tile/>
   <tile/>
   <tile/>
   <tile/>
   <tile/>
   <tile/>
   <tile/>
   <tile/>
   <tile/>
   <tile/>
   <tile/>
   <tile/>
   <tile/>
   <tile/>
   <tile/>
   <tile/>
   <tile/>
   <tile/>
   <tile/>
   <tile/>
   <tile/>
   <tile/>
   <tile/>
   <tile/>
   <tile/>
   <tile/>
   <tile/>
   <tile/>
   <tile/>
   <tile/>
   <tile/>
   <tile/>
   <tile/>
   <tile/>
   <tile/>
   <tile/>
   <tile/>
   <tile/>
   <tile/>
   <tile/>
   <tile/>
   <tile/>
   <tile/>
   <tile/>
   <tile/>
   <tile/>
   <tile/>
   <tile/>
   <tile/>
   <tile/>
   <tile/>
   <tile/>
   <tile/>
   <tile/>
   <tile/>
   <tile/>
   <tile/>
   <tile/>
   <tile/>
   <tile/>
   <tile/>
   <tile/>
   <tile/>
   <tile/>
   <tile/>
   <tile/>
   <tile/>
   <tile/>
   <tile/>
   <tile/>
   <tile/>
   <tile/>
   <tile/>
   <tile/>
   <tile/>
   <tile/>
   <tile/>
   <tile/>
   <tile/>
   <tile/>
   <tile/>
   <tile/>
   <tile/>
   <tile/>
   <tile/>
   <tile/>
   <tile/>
   <tile/>
   <tile/>
   <tile/>
   <tile/>
   <tile/>
   <tile/>
   <tile/>
   <tile/>
   <tile/>
   <tile/>
   <tile/>
   <tile/>
   <tile/>
   <tile/>
   <tile/>
   <tile/>
   <tile/>
   <tile/>
   <tile/>
   <tile/>
   <tile/>
   <tile/>
   <tile/>
   <tile/>
   <tile/>
   <tile/>
   <tile/>
   <tile/>
   <tile/>
   <tile/>
   <tile/>
   <tile/>
   <tile/>
   <tile/>
   <tile/>
   <tile/>
   <tile/>
   <tile/>
   <tile/>
   <tile/>
   <tile/>
   <tile/>
   <tile/>
   <tile/>
   <tile/>
   <tile/>
   <tile/>
   <tile/>
   <tile/>
   <tile/>
   <tile/>
   <tile/>
   <tile/>
   <tile/>
   <tile/>
   <tile/>
   <tile/>
   <tile/>
   <tile/>
   <tile/>
   <tile/>
   <tile/>
   <tile/>
   <tile/>
   <tile/>
   <tile/>
   <tile/>
   <tile/>
   <tile/>
   <tile/>
   <tile/>
   <tile/>
   <tile/>
   <tile/>
   <tile/>
   <tile/>
   <tile/>
   <tile/>
   <tile/>
   <tile/>
   <tile/>
   <tile/>
   <tile/>
   <tile/>
   <tile/>
   <tile/>
   <tile/>
   <tile/>
   <tile/>
   <tile/>
   <tile/>
   <tile/>
   <tile/>
   <tile/>
   <tile/>
   <tile/>
   <tile/>
   <tile/>
   <tile/>
   <tile/>
   <tile/>
   <tile/>
   <tile/>
   <tile/>
   <tile/>
   <tile/>
   <tile/>
   <tile/>
   <tile/>
   <tile/>
   <tile/>
   <tile/>
   <tile/>
   <tile/>
   <tile/>
   <tile/>
   <tile/>
   <tile/>
   <tile/>
   <tile/>
   <tile/>
   <tile/>
   <tile/>
   <tile/>
   <tile/>
   <tile/>
   <tile/>
   <tile/>
   <tile/>
   <tile/>
   <tile/>
   <tile/>
   <tile/>
   <tile/>
   <tile/>
   <tile/>
   <tile/>
   <tile/>
   <tile/>
   <tile/>
   <tile/>
   <tile/>
   <tile/>
   <tile/>
   <tile/>
   <tile/>
   <tile/>
   <tile/>
   <tile/>
   <tile/>
   <tile/>
   <tile/>
   <tile/>
   <tile/>
   <tile/>
   <tile/>
   <tile/>
   <tile/>
   <tile/>
   <tile/>
   <tile/>
   <tile/>
   <tile/>
   <tile/>
   <tile/>
   <tile/>
   <tile/>
   <tile/>
   <tile/>
   <tile/>
   <tile/>
   <tile/>
   <tile/>
   <tile/>
   <tile/>
   <tile/>
   <tile/>
   <tile/>
   <tile/>
   <tile gid="2"/>
   <tile/>
   <tile/>
   <tile/>
   <tile/>
   <tile/>
   <tile/>
   <tile/>
   <tile/>
   <tile/>
   <tile/>
   <tile/>
   <tile/>
   <tile/>
   <tile/>
   <tile/>
   <tile/>
   <tile/>
   <tile/>
   <tile/>
   <tile/>
   <tile/>
   <tile/>
   <tile/>
   <tile/>
   <tile/>
   <tile/>
   <tile/>
   <tile/>
   <tile/>
   <tile/>
   <tile/>
   <tile/>
   <tile/>
   <tile/>
   <tile/>
   <tile/>
   <tile/>
   <tile/>
   <tile/>
   <tile/>
   <tile/>
   <tile/>
   <tile/>
   <tile/>
   <tile/>
   <tile/>
   <tile/>
   <tile/>
   <tile/>
   <tile/>
   <tile/>
   <tile/>
   <tile/>
   <tile/>
   <tile/>
   <tile/>
   <tile/>
   <tile/>
   <tile/>
   <tile/>
   <tile/>
   <tile/>
   <tile/>
   <tile/>
   <tile/>
   <tile/>
   <tile/>
   <tile/>
   <tile/>
   <tile/>
   <tile/>
   <tile/>
   <tile/>
   <tile/>
   <tile/>
   <tile/>
   <tile/>
   <tile/>
   <tile/>
   <tile/>
   <tile/>
   <tile/>
   <tile/>
   <tile/>
   <tile/>
   <tile/>
   <tile/>
   <tile/>
   <tile/>
   <tile/>
   <tile/>
   <tile/>
   <tile/>
   <tile/>
   <tile/>
   <tile/>
   <tile/>
   <tile/>
   <tile/>
   <tile/>
   <tile/>
   <tile/>
   <tile/>
   <tile/>
   <tile/>
   <tile/>
   <tile/>
   <tile/>
   <tile/>
   <tile/>
   <tile/>
   <tile/>
   <tile/>
   <tile/>
   <tile/>
   <tile/>
   <tile/>
   <tile/>
   <tile/>
   <tile/>
   <tile/>
   <tile/>
   <tile/>
   <tile/>
   <tile/>
   <tile/>
   <tile/>
   <tile/>
   <tile/>
   <tile/>
   <tile/>
   <tile/>
   <tile/>
   <tile/>
   <tile/>
   <tile/>
   <tile/>
   <tile/>
   <tile/>
   <tile/>
   <tile/>
   <tile/>
   <tile/>
   <tile/>
   <tile/>
   <tile/>
   <tile/>
   <tile/>
   <tile/>
   <tile/>
   <tile/>
   <tile/>
   <tile/>
   <tile/>
   <tile/>
   <tile/>
   <tile/>
   <tile/>
   <tile/>
   <tile/>
   <tile/>
   <tile/>
   <tile/>
   <tile/>
   <tile/>
   <tile/>
   <tile/>
   <tile/>
   <tile/>
   <tile/>
   <tile/>
   <tile/>
   <tile/>
   <tile/>
   <tile/>
   <tile/>
   <tile/>
   <tile/>
   <tile/>
   <tile/>
   <tile/>
   <tile/>
   <tile/>
   <tile/>
   <tile/>
   <tile/>
   <tile/>
   <tile/>
   <tile/>
   <tile/>
   <tile/>
   <tile/>
   <tile/>
   <tile/>
   <tile/>
   <tile/>
   <tile/>
   <tile/>
   <tile/>
   <tile/>
   <tile/>
   <tile/>
   <tile/>
   <tile/>
   <tile/>
   <tile/>
   <tile/>
   <tile/>
   <tile/>
   <tile/>
   <tile/>
   <tile/>
   <tile/>
   <tile/>
   <tile/>
   <tile/>
   <tile/>
   <tile/>
   <tile/>
   <tile/>
   <tile/>
   <tile/>
  </data>
 </layer>
 <layer id="3" name="Map Change 1" width="19" height="33">
  <properties>
   <property name="Height" value="1"/>
   <property name="ID" value="1"/>
   <property name="Width" value="1"/>
   <property name="X" value="7"/>
   <property name="Y" value="25"/>
  </properties>
  <data>
   <tile/>
   <tile/>
   <tile/>
   <tile/>
   <tile/>
   <tile/>
   <tile/>
   <tile/>
   <tile/>
   <tile/>
   <tile/>
   <tile/>
   <tile/>
   <tile/>
   <tile/>
   <tile/>
   <tile/>
   <tile/>
   <tile/>
   <tile/>
   <tile/>
   <tile/>
   <tile/>
   <tile/>
   <tile/>
   <tile/>
   <tile/>
   <tile/>
   <tile/>
   <tile/>
   <tile/>
   <tile/>
   <tile/>
   <tile/>
   <tile/>
   <tile/>
   <tile/>
   <tile/>
   <tile/>
   <tile/>
   <tile/>
   <tile/>
   <tile/>
   <tile/>
   <tile/>
   <tile/>
   <tile/>
   <tile/>
   <tile/>
   <tile/>
   <tile/>
   <tile/>
   <tile/>
   <tile/>
   <tile/>
   <tile/>
   <tile/>
   <tile/>
   <tile/>
   <tile/>
   <tile/>
   <tile/>
   <tile/>
   <tile/>
   <tile/>
   <tile/>
   <tile/>
   <tile/>
   <tile/>
   <tile/>
   <tile/>
   <tile/>
   <tile/>
   <tile/>
   <tile/>
   <tile/>
   <tile/>
   <tile/>
   <tile/>
   <tile/>
   <tile/>
   <tile/>
   <tile/>
   <tile/>
   <tile/>
   <tile/>
   <tile/>
   <tile/>
   <tile/>
   <tile/>
   <tile/>
   <tile/>
   <tile/>
   <tile/>
   <tile/>
   <tile/>
   <tile/>
   <tile/>
   <tile/>
   <tile/>
   <tile/>
   <tile/>
   <tile/>
   <tile/>
   <tile/>
   <tile/>
   <tile/>
   <tile/>
   <tile/>
   <tile/>
   <tile/>
   <tile/>
   <tile/>
   <tile/>
   <tile/>
   <tile/>
   <tile/>
   <tile/>
   <tile/>
   <tile/>
   <tile/>
   <tile/>
   <tile/>
   <tile/>
   <tile/>
   <tile/>
   <tile/>
   <tile/>
   <tile/>
   <tile/>
   <tile/>
   <tile/>
   <tile/>
   <tile/>
   <tile/>
   <tile/>
   <tile/>
   <tile/>
   <tile/>
   <tile/>
   <tile/>
   <tile/>
   <tile/>
   <tile/>
   <tile/>
   <tile/>
   <tile/>
   <tile/>
   <tile/>
   <tile/>
   <tile/>
   <tile/>
   <tile/>
   <tile/>
   <tile/>
   <tile/>
   <tile/>
   <tile/>
   <tile/>
   <tile/>
   <tile/>
   <tile/>
   <tile/>
   <tile/>
   <tile/>
   <tile/>
   <tile/>
   <tile/>
   <tile/>
   <tile/>
   <tile/>
   <tile/>
   <tile/>
   <tile/>
   <tile/>
   <tile/>
   <tile/>
   <tile/>
   <tile/>
   <tile/>
   <tile/>
   <tile/>
   <tile/>
   <tile/>
   <tile/>
   <tile/>
   <tile/>
   <tile/>
   <tile/>
   <tile/>
   <tile/>
   <tile/>
   <tile/>
   <tile/>
   <tile/>
   <tile/>
   <tile/>
   <tile/>
   <tile/>
   <tile/>
   <tile/>
   <tile/>
   <tile/>
   <tile/>
   <tile/>
   <tile/>
   <tile/>
   <tile/>
   <tile/>
   <tile/>
   <tile/>
   <tile/>
   <tile/>
   <tile/>
   <tile/>
   <tile/>
   <tile/>
   <tile/>
   <tile/>
   <tile/>
   <tile/>
   <tile/>
   <tile/>
   <tile/>
   <tile/>
   <tile/>
   <tile/>
   <tile/>
   <tile/>
   <tile/>
   <tile/>
   <tile/>
   <tile/>
   <tile/>
   <tile/>
   <tile/>
   <tile/>
   <tile/>
   <tile/>
   <tile/>
   <tile/>
   <tile/>
   <tile/>
   <tile/>
   <tile/>
   <tile/>
   <tile/>
   <tile/>
   <tile/>
   <tile/>
   <tile/>
   <tile/>
   <tile/>
   <tile/>
   <tile/>
   <tile/>
   <tile/>
   <tile/>
   <tile/>
   <tile/>
   <tile/>
   <tile/>
   <tile/>
   <tile/>
   <tile/>
   <tile/>
   <tile/>
   <tile/>
   <tile/>
   <tile/>
   <tile/>
   <tile/>
   <tile/>
   <tile/>
   <tile/>
   <tile/>
   <tile/>
   <tile/>
   <tile/>
   <tile/>
   <tile/>
   <tile/>
   <tile/>
   <tile/>
   <tile/>
   <tile/>
   <tile/>
   <tile/>
   <tile/>
   <tile/>
   <tile/>
   <tile/>
   <tile/>
   <tile/>
   <tile/>
   <tile/>
   <tile/>
   <tile/>
   <tile/>
   <tile/>
   <tile/>
   <tile/>
   <tile/>
   <tile/>
   <tile/>
   <tile/>
   <tile/>
   <tile/>
   <tile/>
   <tile/>
   <tile/>
   <tile/>
   <tile/>
   <tile/>
   <tile/>
   <tile/>
   <tile/>
   <tile/>
   <tile/>
   <tile/>
   <tile/>
   <tile/>
   <tile/>
   <tile/>
   <tile/>
   <tile/>
   <tile/>
   <tile/>
   <tile/>
   <tile/>
   <tile/>
   <tile/>
   <tile/>
   <tile/>
   <tile/>
   <tile/>
   <tile/>
   <tile/>
   <tile/>
   <tile/>
   <tile/>
   <tile/>
   <tile/>
   <tile/>
   <tile/>
   <tile/>
   <tile/>
   <tile/>
   <tile/>
   <tile/>
   <tile/>
   <tile/>
   <tile/>
   <tile/>
   <tile/>
   <tile/>
   <tile/>
   <tile/>
   <tile/>
   <tile/>
   <tile/>
   <tile/>
   <tile/>
   <tile/>
   <tile/>
   <tile/>
   <tile/>
   <tile/>
   <tile/>
   <tile/>
   <tile/>
   <tile/>
   <tile/>
   <tile/>
   <tile/>
   <tile/>
   <tile/>
   <tile/>
   <tile/>
   <tile/>
   <tile/>
   <tile/>
   <tile/>
   <tile/>
   <tile/>
   <tile/>
   <tile/>
   <tile/>
   <tile/>
   <tile/>
   <tile/>
   <tile/>
   <tile/>
   <tile/>
   <tile/>
   <tile/>
   <tile/>
   <tile/>
   <tile/>
   <tile/>
   <tile/>
   <tile/>
   <tile/>
   <tile/>
   <tile/>
   <tile/>
   <tile/>
   <tile/>
   <tile/>
   <tile/>
   <tile/>
   <tile/>
   <tile/>
   <tile/>
   <tile/>
   <tile/>
   <tile/>
   <tile/>
   <tile/>
   <tile/>
   <tile/>
   <tile/>
   <tile/>
   <tile/>
   <tile/>
   <tile/>
   <tile/>
   <tile/>
   <tile/>
   <tile/>
   <tile/>
   <tile/>
   <tile/>
   <tile/>
   <tile/>
   <tile/>
   <tile/>
   <tile/>
   <tile/>
   <tile/>
   <tile/>
   <tile/>
   <tile/>
   <tile/>
   <tile/>
   <tile/>
   <tile/>
   <tile/>
   <tile/>
   <tile/>
   <tile/>
   <tile/>
   <tile/>
   <tile/>
   <tile/>
   <tile/>
   <tile/>
   <tile/>
   <tile/>
   <tile/>
   <tile/>
   <tile/>
   <tile/>
   <tile/>
   <tile/>
   <tile/>
   <tile/>
   <tile/>
   <tile/>
   <tile/>
   <tile/>
   <tile/>
   <tile/>
   <tile/>
   <tile/>
   <tile/>
   <tile/>
   <tile/>
   <tile/>
   <tile/>
   <tile/>
   <tile/>
   <tile gid="2"/>
   <tile/>
   <tile/>
   <tile/>
   <tile/>
   <tile/>
   <tile/>
   <tile/>
   <tile/>
   <tile/>
   <tile/>
   <tile/>
   <tile/>
   <tile/>
   <tile/>
   <tile/>
   <tile/>
   <tile/>
   <tile/>
   <tile/>
   <tile/>
   <tile/>
   <tile/>
   <tile/>
   <tile/>
   <tile/>
   <tile/>
   <tile/>
   <tile/>
   <tile/>
   <tile/>
   <tile/>
   <tile/>
   <tile/>
   <tile/>
   <tile/>
   <tile/>
   <tile/>
   <tile/>
   <tile/>
   <tile/>
   <tile/>
   <tile/>
   <tile/>
   <tile/>
   <tile/>
   <tile/>
   <tile/>
   <tile/>
   <tile/>
   <tile/>
   <tile/>
   <tile/>
   <tile/>
   <tile/>
   <tile/>
   <tile/>
   <tile/>
   <tile/>
   <tile/>
   <tile/>
   <tile/>
   <tile/>
   <tile/>
   <tile/>
   <tile/>
   <tile/>
   <tile/>
   <tile/>
   <tile/>
   <tile/>
   <tile/>
   <tile/>
   <tile/>
   <tile/>
   <tile/>
   <tile/>
   <tile/>
   <tile/>
   <tile/>
   <tile/>
   <tile/>
   <tile/>
   <tile/>
   <tile/>
   <tile/>
   <tile/>
   <tile/>
   <tile/>
   <tile/>
   <tile/>
   <tile/>
   <tile/>
   <tile/>
   <tile/>
   <tile/>
   <tile/>
   <tile/>
   <tile/>
   <tile/>
   <tile/>
   <tile/>
   <tile/>
   <tile/>
   <tile/>
   <tile/>
   <tile/>
   <tile/>
   <tile/>
   <tile/>
   <tile/>
   <tile/>
   <tile/>
   <tile/>
   <tile/>
   <tile/>
   <tile/>
   <tile/>
   <tile/>
   <tile/>
   <tile/>
   <tile/>
   <tile/>
   <tile/>
   <tile/>
   <tile/>
   <tile/>
   <tile/>
   <tile/>
   <tile/>
   <tile/>
   <tile/>
   <tile/>
   <tile/>
   <tile/>
   <tile/>
   <tile/>
   <tile/>
   <tile/>
   <tile/>
   <tile/>
   <tile/>
   <tile/>
   <tile/>
   <tile/>
  </data>
 </layer>
</map>
