<?xml version="1.0" encoding="UTF-8"?>
<map version="1.10" tiledversion="1.11.2" orientation="orthogonal" renderorder="right-down" width="15" height="15" tilewidth="16" tileheight="16" infinite="0" nextlayerid="2" nextobjectid="1">
 <tileset firstgid="1" name="Stronghold Update  OG 2021" tilewidth="16" tileheight="16" tilecount="1024" columns="32">
  <image source="../../../../../../../../FE Hacking Tools/General Hack Assets/Map Palettes/Stronghold/Stronghold Update  OG 2021.png" trans="ffffff" width="512" height="512"/>
 </tileset>
 <layer id="1" name="Tile Layer 1" width="15" height="15">
  <properties>
   <property name="Anims1" value="0x07"/>
   <property name="Anims2" value="0"/>
   <property name="ChapterID" value="0x48"/>
   <property name="Main" value=""/>
   <property name="MapChangesID" value="0"/>
   <property name="MapID" value="0xE2"/>
   <property name="ObjectType" value="3"/>
   <property name="PaletteID" value="0x5"/>
   <property name="TileConfig" value="3"/>
  </properties>
  <data>
   <tile gid="257"/>
   <tile gid="257"/>
   <tile gid="257"/>
   <tile gid="257"/>
   <tile gid="257"/>
   <tile gid="257"/>
   <tile gid="257"/>
   <tile gid="257"/>
   <tile gid="257"/>
   <tile gid="257"/>
   <tile gid="257"/>
   <tile gid="257"/>
   <tile gid="257"/>
   <tile gid="257"/>
   <tile gid="257"/>
   <tile gid="257"/>
   <tile gid="257"/>
   <tile gid="257"/>
   <tile gid="257"/>
   <tile gid="257"/>
   <tile gid="257"/>
   <tile gid="257"/>
   <tile gid="257"/>
   <tile gid="257"/>
   <tile gid="257"/>
   <tile gid="257"/>
   <tile gid="257"/>
   <tile gid="257"/>
   <tile gid="257"/>
   <tile gid="257"/>
   <tile gid="257"/>
   <tile gid="257"/>
   <tile gid="257"/>
   <tile gid="257"/>
   <tile gid="257"/>
   <tile gid="257"/>
   <tile gid="257"/>
   <tile gid="257"/>
   <tile gid="257"/>
   <tile gid="257"/>
   <tile gid="257"/>
   <tile gid="257"/>
   <tile gid="257"/>
   <tile gid="257"/>
   <tile gid="257"/>
   <tile gid="257"/>
   <tile gid="257"/>
   <tile gid="257"/>
   <tile gid="257"/>
   <tile gid="257"/>
   <tile gid="257"/>
   <tile gid="257"/>
   <tile gid="257"/>
   <tile gid="257"/>
   <tile gid="257"/>
   <tile gid="257"/>
   <tile gid="257"/>
   <tile gid="257"/>
   <tile gid="257"/>
   <tile gid="257"/>
   <tile gid="279"/>
   <tile gid="279"/>
   <tile gid="279"/>
   <tile gid="279"/>
   <tile gid="279"/>
   <tile gid="279"/>
   <tile gid="279"/>
   <tile gid="279"/>
   <tile gid="279"/>
   <tile gid="279"/>
   <tile gid="279"/>
   <tile gid="279"/>
   <tile gid="279"/>
   <tile gid="279"/>
   <tile gid="279"/>
   <tile gid="311"/>
   <tile gid="534"/>
   <tile gid="311"/>
   <tile gid="311"/>
   <tile gid="311"/>
   <tile gid="534"/>
   <tile gid="311"/>
   <tile gid="311"/>
   <tile gid="311"/>
   <tile gid="534"/>
   <tile gid="311"/>
   <tile gid="311"/>
   <tile gid="311"/>
   <tile gid="534"/>
   <tile gid="311"/>
   <tile gid="419"/>
   <tile gid="419"/>
   <tile gid="235"/>
   <tile gid="204"/>
   <tile gid="419"/>
   <tile gid="419"/>
   <tile gid="419"/>
   <tile gid="419"/>
   <tile gid="419"/>
   <tile gid="422"/>
   <tile gid="419"/>
   <tile gid="203"/>
   <tile gid="204"/>
   <tile gid="419"/>
   <tile gid="419"/>
   <tile gid="418"/>
   <tile gid="418"/>
   <tile gid="418"/>
   <tile gid="418"/>
   <tile gid="13"/>
   <tile gid="417"/>
   <tile gid="418"/>
   <tile gid="418"/>
   <tile gid="421"/>
   <tile gid="421"/>
   <tile gid="418"/>
   <tile gid="418"/>
   <tile gid="418"/>
   <tile gid="418"/>
   <tile gid="418"/>
   <tile gid="418"/>
   <tile gid="418"/>
   <tile gid="421"/>
   <tile gid="418"/>
   <tile gid="464"/>
   <tile gid="451"/>
   <tile gid="418"/>
   <tile gid="418"/>
   <tile gid="418"/>
   <tile gid="418"/>
   <tile gid="13"/>
   <tile gid="417"/>
   <tile gid="418"/>
   <tile gid="418"/>
   <tile gid="418"/>
   <tile gid="418"/>
   <tile gid="418"/>
   <tile gid="418"/>
   <tile gid="421"/>
   <tile gid="418"/>
   <tile gid="418"/>
   <tile gid="421"/>
   <tile gid="421"/>
   <tile gid="418"/>
   <tile gid="418"/>
   <tile gid="464"/>
   <tile gid="454"/>
   <tile gid="418"/>
   <tile gid="418"/>
   <tile gid="418"/>
   <tile gid="418"/>
   <tile gid="418"/>
   <tile gid="418"/>
   <tile gid="418"/>
   <tile gid="418"/>
   <tile gid="418"/>
   <tile gid="418"/>
   <tile gid="13"/>
   <tile gid="423"/>
   <tile gid="418"/>
   <tile gid="418"/>
   <tile gid="418"/>
   <tile gid="418"/>
   <tile gid="418"/>
   <tile gid="418"/>
   <tile gid="418"/>
   <tile gid="13"/>
   <tile gid="420"/>
   <tile gid="418"/>
   <tile gid="418"/>
   <tile gid="418"/>
   <tile gid="418"/>
   <tile gid="464"/>
   <tile gid="451"/>
   <tile gid="418"/>
   <tile gid="418"/>
   <tile gid="418"/>
   <tile gid="424"/>
   <tile gid="13"/>
   <tile gid="417"/>
   <tile gid="418"/>
   <tile gid="464"/>
   <tile gid="451"/>
   <tile gid="424"/>
   <tile gid="418"/>
   <tile gid="418"/>
   <tile gid="418"/>
   <tile gid="418"/>
   <tile gid="421"/>
   <tile gid="418"/>
   <tile gid="418"/>
   <tile gid="418"/>
   <tile gid="418"/>
   <tile gid="464"/>
   <tile gid="451"/>
   <tile gid="279"/>
   <tile gid="279"/>
   <tile gid="279"/>
   <tile gid="279"/>
   <tile gid="279"/>
   <tile gid="279"/>
   <tile gid="279"/>
   <tile gid="279"/>
   <tile gid="279"/>
   <tile gid="279"/>
   <tile gid="279"/>
   <tile gid="279"/>
   <tile gid="279"/>
   <tile gid="279"/>
   <tile gid="279"/>
   <tile gid="311"/>
   <tile gid="311"/>
   <tile gid="311"/>
   <tile gid="311"/>
   <tile gid="311"/>
   <tile gid="311"/>
   <tile gid="311"/>
   <tile gid="311"/>
   <tile gid="311"/>
   <tile gid="311"/>
   <tile gid="311"/>
   <tile gid="311"/>
   <tile gid="311"/>
   <tile gid="311"/>
   <tile gid="311"/>
  </data>
 </layer>
</map>
