<?xml version="1.0" encoding="UTF-8"?>
<map version="1.10" tiledversion="1.11.2" orientation="orthogonal" renderorder="right-down" width="25" height="20" tilewidth="16" tileheight="16" infinite="0" nextlayerid="4" nextobjectid="1">
 <tileset firstgid="1" name="04000304" tilewidth="16" tileheight="16" tilecount="1024" columns="32">
  <image source="04000304.png" trans="ffffff" width="512" height="512"/>
 </tileset>
 <layer id="1" name="Tile Layer 1" width="25" height="20">
  <properties>
   <property name="Anims1" value="0x9C"/>
   <property name="Anims2" value="0x0"/>
   <property name="ChapterID" value="0x6"/>
   <property name="Main" value=""/>
   <property name="MapChangesID" value="0x20"/>
   <property name="MapID" value="0x1F"/>
   <property name="ObjectType" value="0x5"/>
   <property name="PaletteID" value="0x9"/>
   <property name="TileConfig" value="0x5"/>
  </properties>
  <data>
   <tile gid="65"/>
   <tile gid="35"/>
   <tile gid="80"/>
   <tile gid="488"/>
   <tile gid="488"/>
   <tile gid="488"/>
   <tile gid="165"/>
   <tile gid="65"/>
   <tile gid="65"/>
   <tile gid="65"/>
   <tile gid="65"/>
   <tile gid="65"/>
   <tile gid="65"/>
   <tile gid="65"/>
   <tile gid="164"/>
   <tile gid="97"/>
   <tile gid="130"/>
   <tile gid="165"/>
   <tile gid="65"/>
   <tile gid="65"/>
   <tile gid="65"/>
   <tile gid="65"/>
   <tile gid="65"/>
   <tile gid="65"/>
   <tile gid="65"/>
   <tile gid="19"/>
   <tile gid="186"/>
   <tile gid="80"/>
   <tile gid="488"/>
   <tile gid="488"/>
   <tile gid="488"/>
   <tile gid="497"/>
   <tile gid="19"/>
   <tile gid="19"/>
   <tile gid="19"/>
   <tile gid="19"/>
   <tile gid="19"/>
   <tile gid="19"/>
   <tile gid="19"/>
   <tile gid="499"/>
   <tile gid="97"/>
   <tile gid="130"/>
   <tile gid="497"/>
   <tile gid="19"/>
   <tile gid="19"/>
   <tile gid="19"/>
   <tile gid="72"/>
   <tile gid="65"/>
   <tile gid="65"/>
   <tile gid="65"/>
   <tile gid="51"/>
   <tile gid="51"/>
   <tile gid="488"/>
   <tile gid="488"/>
   <tile gid="488"/>
   <tile gid="488"/>
   <tile gid="51"/>
   <tile gid="460"/>
   <tile gid="48"/>
   <tile gid="51"/>
   <tile gid="51"/>
   <tile gid="460"/>
   <tile gid="51"/>
   <tile gid="44"/>
   <tile gid="45"/>
   <tile gid="130"/>
   <tile gid="130"/>
   <tile gid="113"/>
   <tile gid="113"/>
   <tile gid="113"/>
   <tile gid="113"/>
   <tile gid="164"/>
   <tile gid="65"/>
   <tile gid="65"/>
   <tile gid="65"/>
   <tile gid="488"/>
   <tile gid="488"/>
   <tile gid="488"/>
   <tile gid="488"/>
   <tile gid="488"/>
   <tile gid="488"/>
   <tile gid="488"/>
   <tile gid="492"/>
   <tile gid="488"/>
   <tile gid="488"/>
   <tile gid="488"/>
   <tile gid="492"/>
   <tile gid="488"/>
   <tile gid="76"/>
   <tile gid="77"/>
   <tile gid="130"/>
   <tile gid="130"/>
   <tile gid="130"/>
   <tile gid="130"/>
   <tile gid="130"/>
   <tile gid="460"/>
   <tile gid="164"/>
   <tile gid="65"/>
   <tile gid="65"/>
   <tile gid="65"/>
   <tile gid="37"/>
   <tile gid="624"/>
   <tile gid="488"/>
   <tile gid="460"/>
   <tile gid="80"/>
   <tile gid="71"/>
   <tile gid="19"/>
   <tile gid="19"/>
   <tile gid="19"/>
   <tile gid="454"/>
   <tile gid="19"/>
   <tile gid="19"/>
   <tile gid="19"/>
   <tile gid="19"/>
   <tile gid="72"/>
   <tile gid="97"/>
   <tile gid="460"/>
   <tile gid="80"/>
   <tile gid="130"/>
   <tile gid="130"/>
   <tile gid="492"/>
   <tile gid="497"/>
   <tile gid="19"/>
   <tile gid="19"/>
   <tile gid="19"/>
   <tile gid="65"/>
   <tile gid="35"/>
   <tile gid="488"/>
   <tile gid="492"/>
   <tile gid="488"/>
   <tile gid="165"/>
   <tile gid="48"/>
   <tile gid="51"/>
   <tile gid="51"/>
   <tile gid="164"/>
   <tile gid="48"/>
   <tile gid="51"/>
   <tile gid="51"/>
   <tile gid="51"/>
   <tile gid="164"/>
   <tile gid="97"/>
   <tile gid="492"/>
   <tile gid="130"/>
   <tile gid="130"/>
   <tile gid="130"/>
   <tile gid="130"/>
   <tile gid="113"/>
   <tile gid="113"/>
   <tile gid="113"/>
   <tile gid="113"/>
   <tile gid="65"/>
   <tile gid="35"/>
   <tile gid="172"/>
   <tile gid="176"/>
   <tile gid="173"/>
   <tile gid="165"/>
   <tile gid="80"/>
   <tile gid="488"/>
   <tile gid="75"/>
   <tile gid="164"/>
   <tile gid="80"/>
   <tile gid="488"/>
   <tile gid="488"/>
   <tile gid="75"/>
   <tile gid="553"/>
   <tile gid="97"/>
   <tile gid="130"/>
   <tile gid="130"/>
   <tile gid="130"/>
   <tile gid="130"/>
   <tile gid="130"/>
   <tile gid="130"/>
   <tile gid="130"/>
   <tile gid="488"/>
   <tile gid="460"/>
   <tile gid="19"/>
   <tile gid="186"/>
   <tile gid="204"/>
   <tile gid="202"/>
   <tile gid="205"/>
   <tile gid="165"/>
   <tile gid="80"/>
   <tile gid="488"/>
   <tile gid="75"/>
   <tile gid="164"/>
   <tile gid="80"/>
   <tile gid="488"/>
   <tile gid="488"/>
   <tile gid="75"/>
   <tile gid="585"/>
   <tile gid="97"/>
   <tile gid="130"/>
   <tile gid="130"/>
   <tile gid="130"/>
   <tile gid="460"/>
   <tile gid="80"/>
   <tile gid="130"/>
   <tile gid="130"/>
   <tile gid="488"/>
   <tile gid="492"/>
   <tile gid="113"/>
   <tile gid="113"/>
   <tile gid="113"/>
   <tile gid="113"/>
   <tile gid="113"/>
   <tile gid="165"/>
   <tile gid="80"/>
   <tile gid="488"/>
   <tile gid="75"/>
   <tile gid="164"/>
   <tile gid="80"/>
   <tile gid="488"/>
   <tile gid="488"/>
   <tile gid="75"/>
   <tile gid="164"/>
   <tile gid="97"/>
   <tile gid="130"/>
   <tile gid="130"/>
   <tile gid="130"/>
   <tile gid="492"/>
   <tile gid="130"/>
   <tile gid="71"/>
   <tile gid="37"/>
   <tile gid="37"/>
   <tile gid="37"/>
   <tile gid="130"/>
   <tile gid="460"/>
   <tile gid="80"/>
   <tile gid="130"/>
   <tile gid="130"/>
   <tile gid="593"/>
   <tile gid="19"/>
   <tile gid="139"/>
   <tile gid="19"/>
   <tile gid="19"/>
   <tile gid="19"/>
   <tile gid="19"/>
   <tile gid="19"/>
   <tile gid="19"/>
   <tile gid="499"/>
   <tile gid="97"/>
   <tile gid="130"/>
   <tile gid="130"/>
   <tile gid="130"/>
   <tile gid="130"/>
   <tile gid="130"/>
   <tile gid="497"/>
   <tile gid="19"/>
   <tile gid="19"/>
   <tile gid="19"/>
   <tile gid="130"/>
   <tile gid="492"/>
   <tile gid="130"/>
   <tile gid="130"/>
   <tile gid="130"/>
   <tile gid="30"/>
   <tile gid="113"/>
   <tile gid="113"/>
   <tile gid="113"/>
   <tile gid="113"/>
   <tile gid="113"/>
   <tile gid="113"/>
   <tile gid="113"/>
   <tile gid="113"/>
   <tile gid="113"/>
   <tile gid="460"/>
   <tile gid="80"/>
   <tile gid="71"/>
   <tile gid="66"/>
   <tile gid="70"/>
   <tile gid="97"/>
   <tile gid="113"/>
   <tile gid="113"/>
   <tile gid="113"/>
   <tile gid="113"/>
   <tile gid="37"/>
   <tile gid="624"/>
   <tile gid="97"/>
   <tile gid="130"/>
   <tile gid="130"/>
   <tile gid="62"/>
   <tile gid="130"/>
   <tile gid="488"/>
   <tile gid="460"/>
   <tile gid="80"/>
   <tile gid="130"/>
   <tile gid="130"/>
   <tile gid="130"/>
   <tile gid="130"/>
   <tile gid="130"/>
   <tile gid="492"/>
   <tile gid="130"/>
   <tile gid="165"/>
   <tile gid="129"/>
   <tile gid="164"/>
   <tile gid="97"/>
   <tile gid="460"/>
   <tile gid="80"/>
   <tile gid="130"/>
   <tile gid="130"/>
   <tile gid="65"/>
   <tile gid="35"/>
   <tile gid="97"/>
   <tile gid="488"/>
   <tile gid="130"/>
   <tile gid="130"/>
   <tile gid="130"/>
   <tile gid="130"/>
   <tile gid="492"/>
   <tile gid="130"/>
   <tile gid="130"/>
   <tile gid="130"/>
   <tile gid="130"/>
   <tile gid="130"/>
   <tile gid="130"/>
   <tile gid="130"/>
   <tile gid="130"/>
   <tile gid="165"/>
   <tile gid="97"/>
   <tile gid="164"/>
   <tile gid="97"/>
   <tile gid="492"/>
   <tile gid="130"/>
   <tile gid="130"/>
   <tile gid="130"/>
   <tile gid="65"/>
   <tile gid="35"/>
   <tile gid="97"/>
   <tile gid="460"/>
   <tile gid="488"/>
   <tile gid="130"/>
   <tile gid="130"/>
   <tile gid="71"/>
   <tile gid="66"/>
   <tile gid="66"/>
   <tile gid="66"/>
   <tile gid="70"/>
   <tile gid="97"/>
   <tile gid="130"/>
   <tile gid="130"/>
   <tile gid="130"/>
   <tile gid="130"/>
   <tile gid="165"/>
   <tile gid="97"/>
   <tile gid="164"/>
   <tile gid="97"/>
   <tile gid="130"/>
   <tile gid="130"/>
   <tile gid="130"/>
   <tile gid="130"/>
   <tile gid="65"/>
   <tile gid="35"/>
   <tile gid="97"/>
   <tile gid="492"/>
   <tile gid="488"/>
   <tile gid="130"/>
   <tile gid="130"/>
   <tile gid="165"/>
   <tile gid="129"/>
   <tile gid="113"/>
   <tile gid="113"/>
   <tile gid="164"/>
   <tile gid="97"/>
   <tile gid="98"/>
   <tile gid="130"/>
   <tile gid="130"/>
   <tile gid="130"/>
   <tile gid="497"/>
   <tile gid="19"/>
   <tile gid="499"/>
   <tile gid="97"/>
   <tile gid="130"/>
   <tile gid="130"/>
   <tile gid="130"/>
   <tile gid="130"/>
   <tile gid="65"/>
   <tile gid="35"/>
   <tile gid="97"/>
   <tile gid="130"/>
   <tile gid="130"/>
   <tile gid="130"/>
   <tile gid="130"/>
   <tile gid="165"/>
   <tile gid="97"/>
   <tile gid="130"/>
   <tile gid="130"/>
   <tile gid="164"/>
   <tile gid="97"/>
   <tile gid="460"/>
   <tile gid="130"/>
   <tile gid="130"/>
   <tile gid="130"/>
   <tile gid="113"/>
   <tile gid="113"/>
   <tile gid="113"/>
   <tile gid="130"/>
   <tile gid="130"/>
   <tile gid="130"/>
   <tile gid="130"/>
   <tile gid="460"/>
   <tile gid="65"/>
   <tile gid="102"/>
   <tile gid="624"/>
   <tile gid="97"/>
   <tile gid="130"/>
   <tile gid="488"/>
   <tile gid="130"/>
   <tile gid="165"/>
   <tile gid="97"/>
   <tile gid="130"/>
   <tile gid="130"/>
   <tile gid="164"/>
   <tile gid="97"/>
   <tile gid="492"/>
   <tile gid="130"/>
   <tile gid="130"/>
   <tile gid="130"/>
   <tile gid="130"/>
   <tile gid="130"/>
   <tile gid="460"/>
   <tile gid="80"/>
   <tile gid="130"/>
   <tile gid="130"/>
   <tile gid="130"/>
   <tile gid="492"/>
   <tile gid="65"/>
   <tile gid="65"/>
   <tile gid="35"/>
   <tile gid="97"/>
   <tile gid="488"/>
   <tile gid="460"/>
   <tile gid="488"/>
   <tile gid="165"/>
   <tile gid="97"/>
   <tile gid="130"/>
   <tile gid="130"/>
   <tile gid="164"/>
   <tile gid="37"/>
   <tile gid="37"/>
   <tile gid="37"/>
   <tile gid="37"/>
   <tile gid="37"/>
   <tile gid="37"/>
   <tile gid="37"/>
   <tile gid="37"/>
   <tile gid="70"/>
   <tile gid="130"/>
   <tile gid="130"/>
   <tile gid="130"/>
   <tile gid="71"/>
   <tile gid="65"/>
   <tile gid="65"/>
   <tile gid="35"/>
   <tile gid="97"/>
   <tile gid="130"/>
   <tile gid="492"/>
   <tile gid="488"/>
   <tile gid="165"/>
   <tile gid="97"/>
   <tile gid="130"/>
   <tile gid="130"/>
   <tile gid="164"/>
   <tile gid="65"/>
   <tile gid="65"/>
   <tile gid="65"/>
   <tile gid="65"/>
   <tile gid="65"/>
   <tile gid="65"/>
   <tile gid="65"/>
   <tile gid="65"/>
   <tile gid="164"/>
   <tile gid="108"/>
   <tile gid="112"/>
   <tile gid="109"/>
   <tile gid="164"/>
   <tile gid="65"/>
   <tile gid="65"/>
   <tile gid="35"/>
   <tile gid="97"/>
   <tile gid="130"/>
   <tile gid="130"/>
   <tile gid="130"/>
   <tile gid="165"/>
   <tile gid="97"/>
   <tile gid="130"/>
   <tile gid="130"/>
   <tile gid="164"/>
   <tile gid="65"/>
   <tile gid="65"/>
   <tile gid="65"/>
   <tile gid="65"/>
   <tile gid="65"/>
   <tile gid="65"/>
   <tile gid="65"/>
   <tile gid="65"/>
   <tile gid="164"/>
   <tile gid="140"/>
   <tile gid="144"/>
   <tile gid="141"/>
   <tile gid="164"/>
  </data>
 </layer>
 <layer id="2" name="Map Change 0" width="25" height="20">
  <properties>
   <property name="Height" value="2"/>
   <property name="ID" value="0"/>
   <property name="Width" value="2"/>
   <property name="X" value="14"/>
   <property name="Y" value="6"/>
  </properties>
  <data>
   <tile/>
   <tile/>
   <tile/>
   <tile/>
   <tile/>
   <tile/>
   <tile/>
   <tile/>
   <tile/>
   <tile/>
   <tile/>
   <tile/>
   <tile/>
   <tile/>
   <tile/>
   <tile/>
   <tile/>
   <tile/>
   <tile/>
   <tile/>
   <tile/>
   <tile/>
   <tile/>
   <tile/>
   <tile/>
   <tile/>
   <tile/>
   <tile/>
   <tile/>
   <tile/>
   <tile/>
   <tile/>
   <tile/>
   <tile/>
   <tile/>
   <tile/>
   <tile/>
   <tile/>
   <tile/>
   <tile/>
   <tile/>
   <tile/>
   <tile/>
   <tile/>
   <tile/>
   <tile/>
   <tile/>
   <tile/>
   <tile/>
   <tile/>
   <tile/>
   <tile/>
   <tile/>
   <tile/>
   <tile/>
   <tile/>
   <tile/>
   <tile/>
   <tile/>
   <tile/>
   <tile/>
   <tile/>
   <tile/>
   <tile/>
   <tile/>
   <tile/>
   <tile/>
   <tile/>
   <tile/>
   <tile/>
   <tile/>
   <tile/>
   <tile/>
   <tile/>
   <tile/>
   <tile/>
   <tile/>
   <tile/>
   <tile/>
   <tile/>
   <tile/>
   <tile/>
   <tile/>
   <tile/>
   <tile/>
   <tile/>
   <tile/>
   <tile/>
   <tile/>
   <tile/>
   <tile/>
   <tile/>
   <tile/>
   <tile/>
   <tile/>
   <tile/>
   <tile/>
   <tile/>
   <tile/>
   <tile/>
   <tile/>
   <tile/>
   <tile/>
   <tile/>
   <tile/>
   <tile/>
   <tile/>
   <tile/>
   <tile/>
   <tile/>
   <tile/>
   <tile/>
   <tile/>
   <tile/>
   <tile/>
   <tile/>
   <tile/>
   <tile/>
   <tile/>
   <tile/>
   <tile/>
   <tile/>
   <tile/>
   <tile/>
   <tile/>
   <tile/>
   <tile/>
   <tile/>
   <tile/>
   <tile/>
   <tile/>
   <tile/>
   <tile/>
   <tile/>
   <tile/>
   <tile/>
   <tile/>
   <tile/>
   <tile/>
   <tile/>
   <tile/>
   <tile/>
   <tile/>
   <tile/>
   <tile/>
   <tile/>
   <tile/>
   <tile/>
   <tile/>
   <tile/>
   <tile/>
   <tile/>
   <tile/>
   <tile/>
   <tile/>
   <tile/>
   <tile/>
   <tile/>
   <tile/>
   <tile/>
   <tile/>
   <tile/>
   <tile/>
   <tile/>
   <tile gid="113"/>
   <tile gid="98"/>
   <tile/>
   <tile/>
   <tile/>
   <tile/>
   <tile/>
   <tile/>
   <tile/>
   <tile/>
   <tile/>
   <tile/>
   <tile/>
   <tile/>
   <tile/>
   <tile/>
   <tile/>
   <tile/>
   <tile/>
   <tile/>
   <tile/>
   <tile/>
   <tile/>
   <tile/>
   <tile/>
   <tile gid="130"/>
   <tile gid="130"/>
   <tile/>
   <tile/>
   <tile/>
   <tile/>
   <tile/>
   <tile/>
   <tile/>
   <tile/>
   <tile/>
   <tile/>
   <tile/>
   <tile/>
   <tile/>
   <tile/>
   <tile/>
   <tile/>
   <tile/>
   <tile/>
   <tile/>
   <tile/>
   <tile/>
   <tile/>
   <tile/>
   <tile/>
   <tile/>
   <tile/>
   <tile/>
   <tile/>
   <tile/>
   <tile/>
   <tile/>
   <tile/>
   <tile/>
   <tile/>
   <tile/>
   <tile/>
   <tile/>
   <tile/>
   <tile/>
   <tile/>
   <tile/>
   <tile/>
   <tile/>
   <tile/>
   <tile/>
   <tile/>
   <tile/>
   <tile/>
   <tile/>
   <tile/>
   <tile/>
   <tile/>
   <tile/>
   <tile/>
   <tile/>
   <tile/>
   <tile/>
   <tile/>
   <tile/>
   <tile/>
   <tile/>
   <tile/>
   <tile/>
   <tile/>
   <tile/>
   <tile/>
   <tile/>
   <tile/>
   <tile/>
   <tile/>
   <tile/>
   <tile/>
   <tile/>
   <tile/>
   <tile/>
   <tile/>
   <tile/>
   <tile/>
   <tile/>
   <tile/>
   <tile/>
   <tile/>
   <tile/>
   <tile/>
   <tile/>
   <tile/>
   <tile/>
   <tile/>
   <tile/>
   <tile/>
   <tile/>
   <tile/>
   <tile/>
   <tile/>
   <tile/>
   <tile/>
   <tile/>
   <tile/>
   <tile/>
   <tile/>
   <tile/>
   <tile/>
   <tile/>
   <tile/>
   <tile/>
   <tile/>
   <tile/>
   <tile/>
   <tile/>
   <tile/>
   <tile/>
   <tile/>
   <tile/>
   <tile/>
   <tile/>
   <tile/>
   <tile/>
   <tile/>
   <tile/>
   <tile/>
   <tile/>
   <tile/>
   <tile/>
   <tile/>
   <tile/>
   <tile/>
   <tile/>
   <tile/>
   <tile/>
   <tile/>
   <tile/>
   <tile/>
   <tile/>
   <tile/>
   <tile/>
   <tile/>
   <tile/>
   <tile/>
   <tile/>
   <tile/>
   <tile/>
   <tile/>
   <tile/>
   <tile/>
   <tile/>
   <tile/>
   <tile/>
   <tile/>
   <tile/>
   <tile/>
   <tile/>
   <tile/>
   <tile/>
   <tile/>
   <tile/>
   <tile/>
   <tile/>
   <tile/>
   <tile/>
   <tile/>
   <tile/>
   <tile/>
   <tile/>
   <tile/>
   <tile/>
   <tile/>
   <tile/>
   <tile/>
   <tile/>
   <tile/>
   <tile/>
   <tile/>
   <tile/>
   <tile/>
   <tile/>
   <tile/>
   <tile/>
   <tile/>
   <tile/>
   <tile/>
   <tile/>
   <tile/>
   <tile/>
   <tile/>
   <tile/>
   <tile/>
   <tile/>
   <tile/>
   <tile/>
   <tile/>
   <tile/>
   <tile/>
   <tile/>
   <tile/>
   <tile/>
   <tile/>
   <tile/>
   <tile/>
   <tile/>
   <tile/>
   <tile/>
   <tile/>
   <tile/>
   <tile/>
   <tile/>
   <tile/>
   <tile/>
   <tile/>
   <tile/>
   <tile/>
   <tile/>
   <tile/>
   <tile/>
   <tile/>
   <tile/>
   <tile/>
   <tile/>
   <tile/>
   <tile/>
   <tile/>
   <tile/>
   <tile/>
   <tile/>
   <tile/>
   <tile/>
   <tile/>
   <tile/>
   <tile/>
   <tile/>
   <tile/>
   <tile/>
   <tile/>
   <tile/>
   <tile/>
   <tile/>
   <tile/>
   <tile/>
   <tile/>
   <tile/>
   <tile/>
   <tile/>
   <tile/>
   <tile/>
   <tile/>
   <tile/>
   <tile/>
   <tile/>
   <tile/>
   <tile/>
   <tile/>
   <tile/>
   <tile/>
   <tile/>
   <tile/>
   <tile/>
   <tile/>
   <tile/>
   <tile/>
   <tile/>
   <tile/>
   <tile/>
   <tile/>
   <tile/>
   <tile/>
   <tile/>
   <tile/>
   <tile/>
   <tile/>
   <tile/>
   <tile/>
   <tile/>
   <tile/>
   <tile/>
   <tile/>
   <tile/>
   <tile/>
   <tile/>
   <tile/>
   <tile/>
   <tile/>
   <tile/>
   <tile/>
   <tile/>
   <tile/>
   <tile/>
   <tile/>
   <tile/>
   <tile/>
   <tile/>
   <tile/>
   <tile/>
   <tile/>
   <tile/>
   <tile/>
   <tile/>
   <tile/>
   <tile/>
   <tile/>
   <tile/>
   <tile/>
   <tile/>
   <tile/>
   <tile/>
   <tile/>
   <tile/>
   <tile/>
   <tile/>
   <tile/>
   <tile/>
  </data>
 </layer>
 <layer id="3" name="Map Change 1" width="25" height="20">
  <properties>
   <property name="Height" value="2"/>
   <property name="ID" value="1"/>
   <property name="Width" value="1"/>
   <property name="X" value="7"/>
   <property name="Y" value="9"/>
  </properties>
  <data>
   <tile/>
   <tile/>
   <tile/>
   <tile/>
   <tile/>
   <tile/>
   <tile/>
   <tile/>
   <tile/>
   <tile/>
   <tile/>
   <tile/>
   <tile/>
   <tile/>
   <tile/>
   <tile/>
   <tile/>
   <tile/>
   <tile/>
   <tile/>
   <tile/>
   <tile/>
   <tile/>
   <tile/>
   <tile/>
   <tile/>
   <tile/>
   <tile/>
   <tile/>
   <tile/>
   <tile/>
   <tile/>
   <tile/>
   <tile/>
   <tile/>
   <tile/>
   <tile/>
   <tile/>
   <tile/>
   <tile/>
   <tile/>
   <tile/>
   <tile/>
   <tile/>
   <tile/>
   <tile/>
   <tile/>
   <tile/>
   <tile/>
   <tile/>
   <tile/>
   <tile/>
   <tile/>
   <tile/>
   <tile/>
   <tile/>
   <tile/>
   <tile/>
   <tile/>
   <tile/>
   <tile/>
   <tile/>
   <tile/>
   <tile/>
   <tile/>
   <tile/>
   <tile/>
   <tile/>
   <tile/>
   <tile/>
   <tile/>
   <tile/>
   <tile/>
   <tile/>
   <tile/>
   <tile/>
   <tile/>
   <tile/>
   <tile/>
   <tile/>
   <tile/>
   <tile/>
   <tile/>
   <tile/>
   <tile/>
   <tile/>
   <tile/>
   <tile/>
   <tile/>
   <tile/>
   <tile/>
   <tile/>
   <tile/>
   <tile/>
   <tile/>
   <tile/>
   <tile/>
   <tile/>
   <tile/>
   <tile/>
   <tile/>
   <tile/>
   <tile/>
   <tile/>
   <tile/>
   <tile/>
   <tile/>
   <tile/>
   <tile/>
   <tile/>
   <tile/>
   <tile/>
   <tile/>
   <tile/>
   <tile/>
   <tile/>
   <tile/>
   <tile/>
   <tile/>
   <tile/>
   <tile/>
   <tile/>
   <tile/>
   <tile/>
   <tile/>
   <tile/>
   <tile/>
   <tile/>
   <tile/>
   <tile/>
   <tile/>
   <tile/>
   <tile/>
   <tile/>
   <tile/>
   <tile/>
   <tile/>
   <tile/>
   <tile/>
   <tile/>
   <tile/>
   <tile/>
   <tile/>
   <tile/>
   <tile/>
   <tile/>
   <tile/>
   <tile/>
   <tile/>
   <tile/>
   <tile/>
   <tile/>
   <tile/>
   <tile/>
   <tile/>
   <tile/>
   <tile/>
   <tile/>
   <tile/>
   <tile/>
   <tile/>
   <tile/>
   <tile/>
   <tile/>
   <tile/>
   <tile/>
   <tile/>
   <tile/>
   <tile/>
   <tile/>
   <tile/>
   <tile/>
   <tile/>
   <tile/>
   <tile/>
   <tile/>
   <tile/>
   <tile/>
   <tile/>
   <tile/>
   <tile/>
   <tile/>
   <tile/>
   <tile/>
   <tile/>
   <tile/>
   <tile/>
   <tile/>
   <tile/>
   <tile/>
   <tile/>
   <tile/>
   <tile/>
   <tile/>
   <tile/>
   <tile/>
   <tile/>
   <tile/>
   <tile/>
   <tile/>
   <tile/>
   <tile/>
   <tile/>
   <tile/>
   <tile/>
   <tile/>
   <tile/>
   <tile/>
   <tile/>
   <tile/>
   <tile/>
   <tile/>
   <tile/>
   <tile/>
   <tile/>
   <tile/>
   <tile/>
   <tile/>
   <tile/>
   <tile/>
   <tile/>
   <tile/>
   <tile/>
   <tile/>
   <tile/>
   <tile/>
   <tile/>
   <tile/>
   <tile/>
   <tile/>
   <tile/>
   <tile/>
   <tile gid="97"/>
   <tile/>
   <tile/>
   <tile/>
   <tile/>
   <tile/>
   <tile/>
   <tile/>
   <tile/>
   <tile/>
   <tile/>
   <tile/>
   <tile/>
   <tile/>
   <tile/>
   <tile/>
   <tile/>
   <tile/>
   <tile/>
   <tile/>
   <tile/>
   <tile/>
   <tile/>
   <tile/>
   <tile/>
   <tile gid="130"/>
   <tile/>
   <tile/>
   <tile/>
   <tile/>
   <tile/>
   <tile/>
   <tile/>
   <tile/>
   <tile/>
   <tile/>
   <tile/>
   <tile/>
   <tile/>
   <tile/>
   <tile/>
   <tile/>
   <tile/>
   <tile/>
   <tile/>
   <tile/>
   <tile/>
   <tile/>
   <tile/>
   <tile/>
   <tile/>
   <tile/>
   <tile/>
   <tile/>
   <tile/>
   <tile/>
   <tile/>
   <tile/>
   <tile/>
   <tile/>
   <tile/>
   <tile/>
   <tile/>
   <tile/>
   <tile/>
   <tile/>
   <tile/>
   <tile/>
   <tile/>
   <tile/>
   <tile/>
   <tile/>
   <tile/>
   <tile/>
   <tile/>
   <tile/>
   <tile/>
   <tile/>
   <tile/>
   <tile/>
   <tile/>
   <tile/>
   <tile/>
   <tile/>
   <tile/>
   <tile/>
   <tile/>
   <tile/>
   <tile/>
   <tile/>
   <tile/>
   <tile/>
   <tile/>
   <tile/>
   <tile/>
   <tile/>
   <tile/>
   <tile/>
   <tile/>
   <tile/>
   <tile/>
   <tile/>
   <tile/>
   <tile/>
   <tile/>
   <tile/>
   <tile/>
   <tile/>
   <tile/>
   <tile/>
   <tile/>
   <tile/>
   <tile/>
   <tile/>
   <tile/>
   <tile/>
   <tile/>
   <tile/>
   <tile/>
   <tile/>
   <tile/>
   <tile/>
   <tile/>
   <tile/>
   <tile/>
   <tile/>
   <tile/>
   <tile/>
   <tile/>
   <tile/>
   <tile/>
   <tile/>
   <tile/>
   <tile/>
   <tile/>
   <tile/>
   <tile/>
   <tile/>
   <tile/>
   <tile/>
   <tile/>
   <tile/>
   <tile/>
   <tile/>
   <tile/>
   <tile/>
   <tile/>
   <tile/>
   <tile/>
   <tile/>
   <tile/>
   <tile/>
   <tile/>
   <tile/>
   <tile/>
   <tile/>
   <tile/>
   <tile/>
   <tile/>
   <tile/>
   <tile/>
   <tile/>
   <tile/>
   <tile/>
   <tile/>
   <tile/>
   <tile/>
   <tile/>
   <tile/>
   <tile/>
   <tile/>
   <tile/>
   <tile/>
   <tile/>
   <tile/>
   <tile/>
   <tile/>
   <tile/>
   <tile/>
   <tile/>
   <tile/>
   <tile/>
   <tile/>
   <tile/>
   <tile/>
   <tile/>
   <tile/>
   <tile/>
   <tile/>
   <tile/>
   <tile/>
   <tile/>
   <tile/>
   <tile/>
   <tile/>
   <tile/>
   <tile/>
   <tile/>
   <tile/>
   <tile/>
   <tile/>
   <tile/>
   <tile/>
   <tile/>
   <tile/>
   <tile/>
   <tile/>
   <tile/>
   <tile/>
   <tile/>
   <tile/>
   <tile/>
   <tile/>
   <tile/>
   <tile/>
   <tile/>
   <tile/>
   <tile/>
   <tile/>
   <tile/>
   <tile/>
   <tile/>
   <tile/>
   <tile/>
   <tile/>
   <tile/>
   <tile/>
   <tile/>
   <tile/>
   <tile/>
   <tile/>
   <tile/>
   <tile/>
   <tile/>
   <tile/>
   <tile/>
   <tile/>
   <tile/>
   <tile/>
   <tile/>
   <tile/>
   <tile/>
   <tile/>
   <tile/>
   <tile/>
   <tile/>
   <tile/>
   <tile/>
   <tile/>
   <tile/>
   <tile/>
   <tile/>
   <tile/>
   <tile/>
   <tile/>
   <tile/>
   <tile/>
   <tile/>
   <tile/>
   <tile/>
   <tile/>
   <tile/>
   <tile/>
   <tile/>
   <tile/>
   <tile/>
   <tile/>
   <tile/>
  </data>
 </layer>
</map>
