<?xml version="1.0" encoding="UTF-8"?>
<map version="1.10" tiledversion="1.11.2" orientation="orthogonal" renderorder="right-down" width="20" height="15" tilewidth="16" tileheight="16" infinite="0" nextlayerid="2" nextobjectid="1">
 <tileset firstgid="1" name="04000304" tilewidth="16" tileheight="16" tilecount="1024" columns="32">
  <image source="04000304.png" trans="ffffff" width="512" height="512"/>
 </tileset>
 <tileset firstgid="1025" name="[A] Preview" tilewidth="16" tileheight="16" tilecount="1024" columns="32">
  <image source="../../../../../../../../FE Hacking Tools/General Hack Assets/Repo/FE-Repo-main/Tilesets/Towns &amp; Villages/Cynon's Metropolis v0.83 - Tileset/[A] Preview.png" width="512" height="512"/>
 </tileset>
 <layer id="1" name="Tile Layer 1" width="20" height="15">
  <properties>
   <property name="Anims1" value="0xD6"/>
   <property name="Anims2" value="0"/>
   <property name="ChapterID" value="0x46"/>
   <property name="Main" value=""/>
   <property name="MapChangesID" value="0"/>
   <property name="MapID" value="0x46"/>
   <property name="ObjectType" value="8"/>
   <property name="PaletteID" value="0xC"/>
   <property name="TileConfig" value="8"/>
  </properties>
  <data>
   <tile gid="195"/>
   <tile gid="34"/>
   <tile gid="227"/>
   <tile gid="925"/>
   <tile gid="138"/>
   <tile gid="939"/>
   <tile gid="972"/>
   <tile gid="941"/>
   <tile gid="923"/>
   <tile gid="493"/>
   <tile gid="191"/>
   <tile gid="191"/>
   <tile gid="191"/>
   <tile gid="191"/>
   <tile gid="191"/>
   <tile gid="191"/>
   <tile gid="191"/>
   <tile gid="191"/>
   <tile gid="191"/>
   <tile gid="191"/>
   <tile gid="227"/>
   <tile gid="1020"/>
   <tile gid="1020"/>
   <tile gid="925"/>
   <tile gid="138"/>
   <tile gid="1003"/>
   <tile gid="1004"/>
   <tile gid="1005"/>
   <tile gid="923"/>
   <tile gid="489"/>
   <tile gid="428"/>
   <tile gid="428"/>
   <tile gid="428"/>
   <tile gid="426"/>
   <tile gid="191"/>
   <tile gid="191"/>
   <tile gid="191"/>
   <tile gid="191"/>
   <tile gid="191"/>
   <tile gid="191"/>
   <tile gid="1020"/>
   <tile gid="1020"/>
   <tile gid="1020"/>
   <tile gid="925"/>
   <tile gid="138"/>
   <tile gid="616"/>
   <tile gid="617"/>
   <tile gid="618"/>
   <tile gid="923"/>
   <tile gid="1020"/>
   <tile gid="1020"/>
   <tile gid="1020"/>
   <tile gid="1020"/>
   <tile gid="461"/>
   <tile gid="191"/>
   <tile gid="191"/>
   <tile gid="191"/>
   <tile gid="191"/>
   <tile gid="191"/>
   <tile gid="191"/>
   <tile gid="105"/>
   <tile gid="1020"/>
   <tile gid="1020"/>
   <tile gid="1022"/>
   <tile gid="892"/>
   <tile gid="885"/>
   <tile gid="885"/>
   <tile gid="885"/>
   <tile gid="1023"/>
   <tile gid="1020"/>
   <tile gid="1020"/>
   <tile gid="1020"/>
   <tile gid="991"/>
   <tile gid="461"/>
   <tile gid="191"/>
   <tile gid="191"/>
   <tile gid="191"/>
   <tile gid="191"/>
   <tile gid="191"/>
   <tile gid="191"/>
   <tile gid="169"/>
   <tile gid="1020"/>
   <tile gid="1020"/>
   <tile gid="1020"/>
   <tile gid="227"/>
   <tile gid="1020"/>
   <tile gid="1020"/>
   <tile gid="1020"/>
   <tile gid="1020"/>
   <tile gid="353"/>
   <tile gid="421"/>
   <tile gid="356"/>
   <tile gid="923"/>
   <tile gid="461"/>
   <tile gid="191"/>
   <tile gid="191"/>
   <tile gid="191"/>
   <tile gid="191"/>
   <tile gid="191"/>
   <tile gid="191"/>
   <tile gid="1020"/>
   <tile gid="1020"/>
   <tile gid="1020"/>
   <tile gid="1020"/>
   <tile gid="1020"/>
   <tile gid="1020"/>
   <tile gid="1020"/>
   <tile gid="1020"/>
   <tile gid="1020"/>
   <tile gid="961"/>
   <tile gid="323"/>
   <tile gid="963"/>
   <tile gid="923"/>
   <tile gid="461"/>
   <tile gid="191"/>
   <tile gid="191"/>
   <tile gid="191"/>
   <tile gid="191"/>
   <tile gid="191"/>
   <tile gid="191"/>
   <tile gid="1020"/>
   <tile gid="1020"/>
   <tile gid="1020"/>
   <tile gid="1020"/>
   <tile gid="195"/>
   <tile gid="227"/>
   <tile gid="1020"/>
   <tile gid="1020"/>
   <tile gid="1020"/>
   <tile gid="993"/>
   <tile gid="994"/>
   <tile gid="995"/>
   <tile gid="923"/>
   <tile gid="461"/>
   <tile gid="191"/>
   <tile gid="191"/>
   <tile gid="191"/>
   <tile gid="191"/>
   <tile gid="191"/>
   <tile gid="191"/>
   <tile gid="228"/>
   <tile gid="230"/>
   <tile gid="227"/>
   <tile gid="34"/>
   <tile gid="227"/>
   <tile gid="195"/>
   <tile gid="1020"/>
   <tile gid="1020"/>
   <tile gid="1020"/>
   <tile gid="521"/>
   <tile gid="911"/>
   <tile gid="557"/>
   <tile gid="923"/>
   <tile gid="461"/>
   <tile gid="191"/>
   <tile gid="191"/>
   <tile gid="191"/>
   <tile gid="191"/>
   <tile gid="191"/>
   <tile gid="191"/>
   <tile gid="417"/>
   <tile gid="418"/>
   <tile gid="419"/>
   <tile gid="417"/>
   <tile gid="418"/>
   <tile gid="419"/>
   <tile gid="195"/>
   <tile gid="1020"/>
   <tile gid="1020"/>
   <tile gid="859"/>
   <tile gid="859"/>
   <tile gid="859"/>
   <tile gid="1023"/>
   <tile gid="461"/>
   <tile gid="191"/>
   <tile gid="191"/>
   <tile gid="191"/>
   <tile gid="191"/>
   <tile gid="191"/>
   <tile gid="191"/>
   <tile gid="929"/>
   <tile gid="421"/>
   <tile gid="930"/>
   <tile gid="930"/>
   <tile gid="354"/>
   <tile gid="421"/>
   <tile gid="771"/>
   <tile gid="356"/>
   <tile gid="923"/>
   <tile gid="1020"/>
   <tile gid="1020"/>
   <tile gid="1020"/>
   <tile gid="1020"/>
   <tile gid="97"/>
   <tile gid="98"/>
   <tile gid="98"/>
   <tile gid="98"/>
   <tile gid="98"/>
   <tile gid="98"/>
   <tile gid="98"/>
   <tile gid="961"/>
   <tile gid="323"/>
   <tile gid="769"/>
   <tile gid="323"/>
   <tile gid="769"/>
   <tile gid="968"/>
   <tile gid="937"/>
   <tile gid="809"/>
   <tile gid="923"/>
   <tile gid="1020"/>
   <tile gid="1020"/>
   <tile gid="1020"/>
   <tile gid="1020"/>
   <tile gid="130"/>
   <tile gid="130"/>
   <tile gid="130"/>
   <tile gid="130"/>
   <tile gid="130"/>
   <tile gid="130"/>
   <tile gid="130"/>
   <tile gid="385"/>
   <tile gid="994"/>
   <tile gid="385"/>
   <tile gid="994"/>
   <tile gid="994"/>
   <tile gid="936"/>
   <tile gid="969"/>
   <tile gid="938"/>
   <tile gid="923"/>
   <tile gid="1020"/>
   <tile gid="1020"/>
   <tile gid="991"/>
   <tile gid="991"/>
   <tile gid="161"/>
   <tile gid="162"/>
   <tile gid="162"/>
   <tile gid="162"/>
   <tile gid="162"/>
   <tile gid="162"/>
   <tile gid="162"/>
   <tile gid="641"/>
   <tile gid="642"/>
   <tile gid="33"/>
   <tile gid="644"/>
   <tile gid="645"/>
   <tile gid="1000"/>
   <tile gid="1001"/>
   <tile gid="1002"/>
   <tile gid="923"/>
   <tile gid="1020"/>
   <tile gid="1020"/>
   <tile gid="991"/>
   <tile gid="991"/>
   <tile gid="478"/>
   <tile gid="479"/>
   <tile gid="479"/>
   <tile gid="479"/>
   <tile gid="479"/>
   <tile gid="479"/>
   <tile gid="479"/>
   <tile gid="885"/>
   <tile gid="885"/>
   <tile gid="917"/>
   <tile gid="885"/>
   <tile gid="886"/>
   <tile gid="651"/>
   <tile gid="652"/>
   <tile gid="653"/>
   <tile gid="923"/>
   <tile gid="1020"/>
   <tile gid="1020"/>
   <tile gid="991"/>
   <tile gid="991"/>
   <tile gid="461"/>
   <tile gid="191"/>
   <tile gid="191"/>
   <tile gid="191"/>
   <tile gid="191"/>
   <tile gid="191"/>
   <tile gid="191"/>
   <tile gid="762"/>
   <tile gid="763"/>
   <tile gid="763"/>
   <tile gid="761"/>
   <tile gid="1015"/>
   <tile gid="885"/>
   <tile gid="885"/>
   <tile gid="885"/>
   <tile gid="1020"/>
   <tile gid="1020"/>
   <tile gid="1020"/>
   <tile gid="991"/>
   <tile gid="451"/>
   <tile gid="461"/>
   <tile gid="191"/>
   <tile gid="191"/>
   <tile gid="191"/>
   <tile gid="191"/>
   <tile gid="191"/>
   <tile gid="191"/>
  </data>
 </layer>
</map>
