<?xml version="1.0" encoding="UTF-8"?>
<map version="1.10" tiledversion="1.11.2" orientation="orthogonal" renderorder="right-down" width="18" height="18" tilewidth="16" tileheight="16" infinite="0" nextlayerid="2" nextobjectid="1">
 <tileset firstgid="1" name="03000404" tilewidth="16" tileheight="16" tilecount="1024" columns="32">
  <image source="03000404.png" trans="ffffff" width="512" height="512"/>
 </tileset>
 <layer id="1" name="Tile Layer 1" width="18" height="18">
  <properties>
   <property name="Anims1" value="0xD6"/>
   <property name="Anims2" value="0x0"/>
   <property name="ChapterID" value="0x4C"/>
   <property name="Main" value=""/>
   <property name="MapChangesID" value="0"/>
   <property name="MapID" value="0xE8"/>
   <property name="ObjectType" value="0x8"/>
   <property name="PaletteID" value="0xC"/>
   <property name="TileConfig" value="0x8"/>
  </properties>
  <data>
   <tile gid="929"/>
   <tile gid="771"/>
   <tile gid="421"/>
   <tile gid="967"/>
   <tile gid="354"/>
   <tile gid="967"/>
   <tile gid="354"/>
   <tile gid="421"/>
   <tile gid="931"/>
   <tile gid="923"/>
   <tile gid="989"/>
   <tile gid="925"/>
   <tile gid="932"/>
   <tile gid="933"/>
   <tile gid="933"/>
   <tile gid="933"/>
   <tile gid="322"/>
   <tile gid="934"/>
   <tile gid="808"/>
   <tile gid="937"/>
   <tile gid="775"/>
   <tile gid="385"/>
   <tile gid="386"/>
   <tile gid="994"/>
   <tile gid="386"/>
   <tile gid="994"/>
   <tile gid="995"/>
   <tile gid="923"/>
   <tile gid="989"/>
   <tile gid="925"/>
   <tile gid="964"/>
   <tile gid="291"/>
   <tile gid="965"/>
   <tile gid="292"/>
   <tile gid="965"/>
   <tile gid="966"/>
   <tile gid="936"/>
   <tile gid="937"/>
   <tile gid="938"/>
   <tile gid="641"/>
   <tile gid="642"/>
   <tile gid="644"/>
   <tile gid="644"/>
   <tile gid="644"/>
   <tile gid="645"/>
   <tile gid="923"/>
   <tile gid="989"/>
   <tile gid="925"/>
   <tile gid="259"/>
   <tile gid="997"/>
   <tile gid="997"/>
   <tile gid="997"/>
   <tile gid="997"/>
   <tile gid="998"/>
   <tile gid="936"/>
   <tile gid="937"/>
   <tile gid="938"/>
   <tile gid="641"/>
   <tile gid="18"/>
   <tile gid="644"/>
   <tile gid="847"/>
   <tile gid="644"/>
   <tile gid="645"/>
   <tile gid="923"/>
   <tile gid="989"/>
   <tile gid="925"/>
   <tile gid="680"/>
   <tile gid="683"/>
   <tile gid="682"/>
   <tile gid="847"/>
   <tile gid="683"/>
   <tile gid="684"/>
   <tile gid="968"/>
   <tile gid="969"/>
   <tile gid="938"/>
   <tile gid="855"/>
   <tile gid="856"/>
   <tile gid="858"/>
   <tile gid="859"/>
   <tile gid="859"/>
   <tile gid="859"/>
   <tile gid="923"/>
   <tile gid="989"/>
   <tile gid="925"/>
   <tile gid="143"/>
   <tile gid="143"/>
   <tile gid="916"/>
   <tile gid="859"/>
   <tile gid="859"/>
   <tile gid="859"/>
   <tile gid="1000"/>
   <tile gid="1001"/>
   <tile gid="1002"/>
   <tile gid="855"/>
   <tile gid="858"/>
   <tile gid="980"/>
   <tile gid="980"/>
   <tile gid="980"/>
   <tile gid="980"/>
   <tile gid="923"/>
   <tile gid="989"/>
   <tile gid="925"/>
   <tile gid="143"/>
   <tile gid="143"/>
   <tile gid="916"/>
   <tile gid="980"/>
   <tile gid="980"/>
   <tile gid="980"/>
   <tile gid="641"/>
   <tile gid="644"/>
   <tile gid="645"/>
   <tile gid="858"/>
   <tile gid="980"/>
   <tile gid="891"/>
   <tile gid="988"/>
   <tile gid="988"/>
   <tile gid="892"/>
   <tile gid="1023"/>
   <tile gid="989"/>
   <tile gid="924"/>
   <tile gid="892"/>
   <tile gid="892"/>
   <tile gid="1023"/>
   <tile gid="989"/>
   <tile gid="1022"/>
   <tile gid="892"/>
   <tile gid="641"/>
   <tile gid="19"/>
   <tile gid="645"/>
   <tile gid="954"/>
   <tile gid="891"/>
   <tile gid="1023"/>
   <tile gid="988"/>
   <tile gid="988"/>
   <tile gid="988"/>
   <tile gid="1021"/>
   <tile gid="989"/>
   <tile gid="989"/>
   <tile gid="989"/>
   <tile gid="989"/>
   <tile gid="989"/>
   <tile gid="989"/>
   <tile gid="989"/>
   <tile gid="989"/>
   <tile gid="859"/>
   <tile gid="859"/>
   <tile gid="859"/>
   <tile gid="980"/>
   <tile gid="923"/>
   <tile gid="988"/>
   <tile gid="988"/>
   <tile gid="988"/>
   <tile gid="1021"/>
   <tile gid="1021"/>
   <tile gid="1021"/>
   <tile gid="1021"/>
   <tile gid="1021"/>
   <tile gid="1020"/>
   <tile gid="1020"/>
   <tile gid="1020"/>
   <tile gid="1020"/>
   <tile gid="1020"/>
   <tile gid="980"/>
   <tile gid="980"/>
   <tile gid="980"/>
   <tile gid="980"/>
   <tile gid="923"/>
   <tile gid="988"/>
   <tile gid="988"/>
   <tile gid="457"/>
   <tile gid="524"/>
   <tile gid="458"/>
   <tile gid="510"/>
   <tile gid="511"/>
   <tile gid="512"/>
   <tile gid="457"/>
   <tile gid="524"/>
   <tile gid="524"/>
   <tile gid="524"/>
   <tile gid="524"/>
   <tile gid="892"/>
   <tile gid="892"/>
   <tile gid="892"/>
   <tile gid="892"/>
   <tile gid="1023"/>
   <tile gid="988"/>
   <tile gid="457"/>
   <tile gid="525"/>
   <tile gid="213"/>
   <tile gid="459"/>
   <tile gid="542"/>
   <tile gid="543"/>
   <tile gid="544"/>
   <tile gid="474"/>
   <tile gid="158"/>
   <tile gid="159"/>
   <tile gid="159"/>
   <tile gid="159"/>
   <tile gid="988"/>
   <tile gid="988"/>
   <tile gid="988"/>
   <tile gid="988"/>
   <tile gid="990"/>
   <tile gid="956"/>
   <tile gid="474"/>
   <tile gid="158"/>
   <tile gid="192"/>
   <tile gid="459"/>
   <tile gid="542"/>
   <tile gid="543"/>
   <tile gid="544"/>
   <tile gid="474"/>
   <tile gid="222"/>
   <tile gid="223"/>
   <tile gid="223"/>
   <tile gid="223"/>
   <tile gid="924"/>
   <tile gid="987"/>
   <tile gid="988"/>
   <tile gid="924"/>
   <tile gid="925"/>
   <tile gid="143"/>
   <tile gid="474"/>
   <tile gid="190"/>
   <tile gid="192"/>
   <tile gid="459"/>
   <tile gid="574"/>
   <tile gid="575"/>
   <tile gid="576"/>
   <tile gid="524"/>
   <tile gid="524"/>
   <tile gid="524"/>
   <tile gid="524"/>
   <tile gid="524"/>
   <tile gid="956"/>
   <tile gid="956"/>
   <tile gid="956"/>
   <tile gid="956"/>
   <tile gid="957"/>
   <tile gid="457"/>
   <tile gid="525"/>
   <tile gid="190"/>
   <tile gid="192"/>
   <tile gid="459"/>
   <tile gid="271"/>
   <tile gid="402"/>
   <tile gid="272"/>
   <tile gid="38"/>
   <tile gid="38"/>
   <tile gid="70"/>
   <tile gid="38"/>
   <tile gid="6"/>
   <tile gid="933"/>
   <tile gid="322"/>
   <tile gid="933"/>
   <tile gid="933"/>
   <tile gid="934"/>
   <tile gid="474"/>
   <tile gid="158"/>
   <tile gid="191"/>
   <tile gid="192"/>
   <tile gid="459"/>
   <tile gid="231"/>
   <tile gid="402"/>
   <tile gid="402"/>
   <tile gid="200"/>
   <tile gid="38"/>
   <tile gid="38"/>
   <tile gid="38"/>
   <tile gid="6"/>
   <tile gid="965"/>
   <tile gid="965"/>
   <tile gid="965"/>
   <tile gid="292"/>
   <tile gid="966"/>
   <tile gid="474"/>
   <tile gid="190"/>
   <tile gid="191"/>
   <tile gid="224"/>
   <tile gid="459"/>
   <tile gid="70"/>
   <tile gid="271"/>
   <tile gid="402"/>
   <tile gid="402"/>
   <tile gid="274"/>
   <tile gid="200"/>
   <tile gid="37"/>
   <tile gid="38"/>
   <tile gid="997"/>
   <tile gid="997"/>
   <tile gid="997"/>
   <tile gid="997"/>
   <tile gid="998"/>
   <tile gid="474"/>
   <tile gid="190"/>
   <tile gid="192"/>
   <tile gid="425"/>
   <tile gid="490"/>
   <tile gid="70"/>
   <tile gid="231"/>
   <tile gid="402"/>
   <tile gid="402"/>
   <tile gid="402"/>
   <tile gid="232"/>
   <tile gid="37"/>
   <tile gid="38"/>
   <tile gid="546"/>
   <tile gid="522"/>
   <tile gid="847"/>
   <tile gid="548"/>
   <tile gid="549"/>
   <tile gid="474"/>
   <tile gid="191"/>
   <tile gid="192"/>
   <tile gid="475"/>
   <tile gid="70"/>
   <tile gid="70"/>
   <tile gid="70"/>
   <tile gid="231"/>
   <tile gid="402"/>
   <tile gid="272"/>
   <tile gid="4"/>
   <tile gid="37"/>
   <tile gid="38"/>
  </data>
 </layer>
</map>
