<?xml version="1.0" encoding="UTF-8"?>
<map version="1.10" tiledversion="1.11.2" orientation="orthogonal" renderorder="right-down" width="19" height="16" tilewidth="16" tileheight="16" infinite="0" nextlayerid="2" nextobjectid="1">
 <tileset firstgid="1" name="08000904" tilewidth="16" tileheight="16" tilecount="1024" columns="32">
  <image source="08000904.png" trans="ffffff" width="512" height="512"/>
 </tileset>
 <layer id="1" name="Tile Layer 1" width="19" height="16">
  <properties>
   <property name="Anims1" value="0x0"/>
   <property name="Anims2" value="0x0"/>
   <property name="ChapterID" value="45"/>
   <property name="Main" value=""/>
   <property name="MapChangesID" value="0x0"/>
   <property name="MapID" value="0xDD"/>
   <property name="ObjectType" value="0xB"/>
   <property name="PaletteID" value="0x10"/>
   <property name="TileConfig" value="0xA"/>
  </properties>
  <data>
   <tile gid="1"/>
   <tile gid="1"/>
   <tile gid="1"/>
   <tile gid="1"/>
   <tile gid="1"/>
   <tile gid="1"/>
   <tile gid="1"/>
   <tile gid="6"/>
   <tile gid="7"/>
   <tile gid="266"/>
   <tile gid="7"/>
   <tile gid="7"/>
   <tile gid="7"/>
   <tile gid="7"/>
   <tile gid="7"/>
   <tile gid="7"/>
   <tile gid="13"/>
   <tile gid="138"/>
   <tile gid="14"/>
   <tile gid="1"/>
   <tile gid="1"/>
   <tile gid="1"/>
   <tile gid="1"/>
   <tile gid="1"/>
   <tile gid="1"/>
   <tile gid="1"/>
   <tile gid="38"/>
   <tile gid="129"/>
   <tile gid="298"/>
   <tile gid="129"/>
   <tile gid="129"/>
   <tile gid="129"/>
   <tile gid="129"/>
   <tile gid="129"/>
   <tile gid="129"/>
   <tile gid="99"/>
   <tile gid="234"/>
   <tile gid="14"/>
   <tile gid="1"/>
   <tile gid="1"/>
   <tile gid="1"/>
   <tile gid="1"/>
   <tile gid="1"/>
   <tile gid="1"/>
   <tile gid="1"/>
   <tile gid="38"/>
   <tile gid="129"/>
   <tile gid="129"/>
   <tile gid="129"/>
   <tile gid="129"/>
   <tile gid="129"/>
   <tile gid="129"/>
   <tile gid="129"/>
   <tile gid="129"/>
   <tile gid="129"/>
   <tile gid="129"/>
   <tile gid="14"/>
   <tile gid="7"/>
   <tile gid="44"/>
   <tile gid="44"/>
   <tile gid="7"/>
   <tile gid="35"/>
   <tile gid="36"/>
   <tile gid="7"/>
   <tile gid="33"/>
   <tile gid="34"/>
   <tile gid="9"/>
   <tile gid="3"/>
   <tile gid="4"/>
   <tile gid="8"/>
   <tile gid="266"/>
   <tile gid="267"/>
   <tile gid="7"/>
   <tile gid="8"/>
   <tile gid="129"/>
   <tile gid="14"/>
   <tile gid="129"/>
   <tile gid="97"/>
   <tile gid="97"/>
   <tile gid="129"/>
   <tile gid="45"/>
   <tile gid="69"/>
   <tile gid="271"/>
   <tile gid="129"/>
   <tile gid="129"/>
   <tile gid="105"/>
   <tile gid="45"/>
   <tile gid="129"/>
   <tile gid="40"/>
   <tile gid="298"/>
   <tile gid="299"/>
   <tile gid="267"/>
   <tile gid="40"/>
   <tile gid="129"/>
   <tile gid="14"/>
   <tile gid="129"/>
   <tile gid="130"/>
   <tile gid="131"/>
   <tile gid="129"/>
   <tile gid="129"/>
   <tile gid="69"/>
   <tile gid="129"/>
   <tile gid="129"/>
   <tile gid="129"/>
   <tile gid="111"/>
   <tile gid="129"/>
   <tile gid="129"/>
   <tile gid="40"/>
   <tile gid="267"/>
   <tile gid="129"/>
   <tile gid="129"/>
   <tile gid="108"/>
   <tile gid="129"/>
   <tile gid="14"/>
   <tile gid="129"/>
   <tile gid="162"/>
   <tile gid="163"/>
   <tile gid="129"/>
   <tile gid="45"/>
   <tile gid="234"/>
   <tile gid="102"/>
   <tile gid="236"/>
   <tile gid="104"/>
   <tile gid="105"/>
   <tile gid="45"/>
   <tile gid="129"/>
   <tile gid="40"/>
   <tile gid="302"/>
   <tile gid="129"/>
   <tile gid="129"/>
   <tile gid="108"/>
   <tile gid="129"/>
   <tile gid="14"/>
   <tile gid="129"/>
   <tile gid="161"/>
   <tile gid="129"/>
   <tile gid="129"/>
   <tile gid="129"/>
   <tile gid="129"/>
   <tile gid="45"/>
   <tile gid="129"/>
   <tile gid="129"/>
   <tile gid="45"/>
   <tile gid="129"/>
   <tile gid="67"/>
   <tile gid="40"/>
   <tile gid="44"/>
   <tile gid="7"/>
   <tile gid="33"/>
   <tile gid="7"/>
   <tile gid="129"/>
   <tile gid="14"/>
   <tile gid="129"/>
   <tile gid="129"/>
   <tile gid="129"/>
   <tile gid="66"/>
   <tile gid="129"/>
   <tile gid="129"/>
   <tile gid="77"/>
   <tile gid="325"/>
   <tile gid="326"/>
   <tile gid="326"/>
   <tile gid="327"/>
   <tile gid="68"/>
   <tile gid="108"/>
   <tile gid="97"/>
   <tile gid="129"/>
   <tile gid="129"/>
   <tile gid="129"/>
   <tile gid="129"/>
   <tile gid="14"/>
   <tile gid="67"/>
   <tile gid="130"/>
   <tile gid="131"/>
   <tile gid="98"/>
   <tile gid="129"/>
   <tile gid="129"/>
   <tile gid="109"/>
   <tile gid="357"/>
   <tile gid="358"/>
   <tile gid="358"/>
   <tile gid="359"/>
   <tile gid="99"/>
   <tile gid="76"/>
   <tile gid="7"/>
   <tile gid="7"/>
   <tile gid="7"/>
   <tile gid="7"/>
   <tile gid="7"/>
   <tile gid="47"/>
   <tile gid="99"/>
   <tile gid="162"/>
   <tile gid="163"/>
   <tile gid="129"/>
   <tile gid="129"/>
   <tile gid="129"/>
   <tile gid="10"/>
   <tile gid="11"/>
   <tile gid="129"/>
   <tile gid="34"/>
   <tile gid="44"/>
   <tile gid="8"/>
   <tile gid="72"/>
   <tile gid="1"/>
   <tile gid="1"/>
   <tile gid="1"/>
   <tile gid="1"/>
   <tile gid="1"/>
   <tile gid="1"/>
   <tile gid="129"/>
   <tile gid="129"/>
   <tile gid="129"/>
   <tile gid="129"/>
   <tile gid="129"/>
   <tile gid="129"/>
   <tile gid="42"/>
   <tile gid="43"/>
   <tile gid="129"/>
   <tile gid="129"/>
   <tile gid="97"/>
   <tile gid="40"/>
   <tile gid="1"/>
   <tile gid="1"/>
   <tile gid="1"/>
   <tile gid="1"/>
   <tile gid="1"/>
   <tile gid="1"/>
   <tile gid="1"/>
   <tile gid="129"/>
   <tile gid="67"/>
   <tile gid="129"/>
   <tile gid="129"/>
   <tile gid="66"/>
   <tile gid="129"/>
   <tile gid="129"/>
   <tile gid="129"/>
   <tile gid="129"/>
   <tile gid="130"/>
   <tile gid="131"/>
   <tile gid="40"/>
   <tile gid="1"/>
   <tile gid="1"/>
   <tile gid="1"/>
   <tile gid="1"/>
   <tile gid="1"/>
   <tile gid="1"/>
   <tile gid="1"/>
   <tile gid="129"/>
   <tile gid="68"/>
   <tile gid="136"/>
   <tile gid="137"/>
   <tile gid="100"/>
   <tile gid="129"/>
   <tile gid="129"/>
   <tile gid="129"/>
   <tile gid="129"/>
   <tile gid="162"/>
   <tile gid="163"/>
   <tile gid="40"/>
   <tile gid="1"/>
   <tile gid="1"/>
   <tile gid="1"/>
   <tile gid="1"/>
   <tile gid="1"/>
   <tile gid="1"/>
   <tile gid="1"/>
   <tile gid="129"/>
   <tile gid="99"/>
   <tile gid="168"/>
   <tile gid="169"/>
   <tile gid="98"/>
   <tile gid="129"/>
   <tile gid="129"/>
   <tile gid="129"/>
   <tile gid="129"/>
   <tile gid="161"/>
   <tile gid="161"/>
   <tile gid="40"/>
   <tile gid="1"/>
   <tile gid="1"/>
   <tile gid="1"/>
   <tile gid="1"/>
   <tile gid="1"/>
   <tile gid="1"/>
   <tile gid="1"/>
   <tile gid="7"/>
   <tile gid="7"/>
   <tile gid="7"/>
   <tile gid="7"/>
   <tile gid="7"/>
   <tile gid="7"/>
   <tile gid="7"/>
   <tile gid="7"/>
   <tile gid="129"/>
   <tile gid="7"/>
   <tile gid="7"/>
   <tile gid="7"/>
   <tile gid="1"/>
   <tile gid="1"/>
   <tile gid="1"/>
   <tile gid="1"/>
   <tile gid="1"/>
   <tile gid="1"/>
   <tile gid="1"/>
  </data>
 </layer>
</map>
