<?xml version="1.0" encoding="UTF-8"?>
<map version="1.10" tiledversion="1.11.2" orientation="orthogonal" renderorder="right-down" width="16" height="14" tilewidth="16" tileheight="16" infinite="0" nextlayerid="4" nextobjectid="1">
 <tileset firstgid="1" name="05001205" tilewidth="16" tileheight="16" tilecount="1024" columns="32">
  <image source="05001205.png" trans="ffffff" width="512" height="512"/>
 </tileset>
 <layer id="1" name="Tile Layer 1" width="16" height="14">
  <properties>
   <property name="Anims1" value="0xDB"/>
   <property name="Anims2" value="0x0"/>
   <property name="ChapterID" value="4"/>
   <property name="Main" value=""/>
   <property name="MapChangesID" value="0x16"/>
   <property name="MapID" value="0x15"/>
   <property name="ObjectType" value="9"/>
   <property name="PaletteID" value="0xF"/>
   <property name="TileConfig" value="9"/>
  </properties>
  <data>
   <tile gid="881"/>
   <tile gid="881"/>
   <tile gid="881"/>
   <tile gid="914"/>
   <tile gid="143"/>
   <tile gid="144"/>
   <tile gid="912"/>
   <tile gid="913"/>
   <tile gid="881"/>
   <tile gid="881"/>
   <tile gid="881"/>
   <tile gid="881"/>
   <tile gid="881"/>
   <tile gid="68"/>
   <tile gid="68"/>
   <tile gid="68"/>
   <tile gid="881"/>
   <tile gid="881"/>
   <tile gid="850"/>
   <tile gid="196"/>
   <tile gid="103"/>
   <tile gid="144"/>
   <tile gid="68"/>
   <tile gid="228"/>
   <tile gid="912"/>
   <tile gid="881"/>
   <tile gid="881"/>
   <tile gid="913"/>
   <tile gid="68"/>
   <tile gid="849"/>
   <tile gid="850"/>
   <tile gid="68"/>
   <tile gid="881"/>
   <tile gid="881"/>
   <tile gid="882"/>
   <tile gid="68"/>
   <tile gid="68"/>
   <tile gid="47"/>
   <tile gid="68"/>
   <tile gid="68"/>
   <tile gid="68"/>
   <tile gid="912"/>
   <tile gid="881"/>
   <tile gid="68"/>
   <tile gid="68"/>
   <tile gid="913"/>
   <tile gid="881"/>
   <tile gid="850"/>
   <tile gid="881"/>
   <tile gid="881"/>
   <tile gid="914"/>
   <tile gid="68"/>
   <tile gid="944"/>
   <tile gid="68"/>
   <tile gid="68"/>
   <tile gid="720"/>
   <tile gid="720"/>
   <tile gid="68"/>
   <tile gid="816"/>
   <tile gid="68"/>
   <tile gid="816"/>
   <tile gid="903"/>
   <tile gid="880"/>
   <tile gid="850"/>
   <tile gid="912"/>
   <tile gid="913"/>
   <tile gid="292"/>
   <tile gid="68"/>
   <tile gid="68"/>
   <tile gid="141"/>
   <tile gid="79"/>
   <tile gid="68"/>
   <tile gid="68"/>
   <tile gid="68"/>
   <tile gid="68"/>
   <tile gid="68"/>
   <tile gid="68"/>
   <tile gid="332"/>
   <tile gid="912"/>
   <tile gid="881"/>
   <tile gid="511"/>
   <tile gid="407"/>
   <tile gid="68"/>
   <tile gid="68"/>
   <tile gid="944"/>
   <tile gid="195"/>
   <tile gid="174"/>
   <tile gid="68"/>
   <tile gid="68"/>
   <tile gid="68"/>
   <tile gid="68"/>
   <tile gid="68"/>
   <tile gid="68"/>
   <tile gid="848"/>
   <tile gid="881"/>
   <tile gid="881"/>
   <tile gid="413"/>
   <tile gid="416"/>
   <tile gid="407"/>
   <tile gid="68"/>
   <tile gid="68"/>
   <tile gid="68"/>
   <tile gid="68"/>
   <tile gid="68"/>
   <tile gid="68"/>
   <tile gid="68"/>
   <tile gid="68"/>
   <tile gid="260"/>
   <tile gid="848"/>
   <tile gid="881"/>
   <tile gid="881"/>
   <tile gid="881"/>
   <tile gid="721"/>
   <tile gid="438"/>
   <tile gid="544"/>
   <tile gid="68"/>
   <tile gid="68"/>
   <tile gid="68"/>
   <tile gid="68"/>
   <tile gid="755"/>
   <tile gid="68"/>
   <tile gid="68"/>
   <tile gid="16"/>
   <tile gid="848"/>
   <tile gid="881"/>
   <tile gid="881"/>
   <tile gid="881"/>
   <tile gid="881"/>
   <tile gid="196"/>
   <tile gid="68"/>
   <tile gid="505"/>
   <tile gid="68"/>
   <tile gid="68"/>
   <tile gid="848"/>
   <tile gid="68"/>
   <tile gid="68"/>
   <tile gid="68"/>
   <tile gid="71"/>
   <tile gid="104"/>
   <tile gid="880"/>
   <tile gid="881"/>
   <tile gid="881"/>
   <tile gid="881"/>
   <tile gid="881"/>
   <tile gid="849"/>
   <tile gid="850"/>
   <tile gid="438"/>
   <tile gid="475"/>
   <tile gid="848"/>
   <tile gid="849"/>
   <tile gid="68"/>
   <tile gid="195"/>
   <tile gid="175"/>
   <tile gid="7"/>
   <tile gid="176"/>
   <tile gid="880"/>
   <tile gid="881"/>
   <tile gid="881"/>
   <tile gid="881"/>
   <tile gid="881"/>
   <tile gid="882"/>
   <tile gid="881"/>
   <tile gid="850"/>
   <tile gid="512"/>
   <tile gid="881"/>
   <tile gid="881"/>
   <tile gid="850"/>
   <tile gid="68"/>
   <tile gid="175"/>
   <tile gid="7"/>
   <tile gid="176"/>
   <tile gid="880"/>
   <tile gid="881"/>
   <tile gid="881"/>
   <tile gid="881"/>
   <tile gid="881"/>
   <tile gid="881"/>
   <tile gid="850"/>
   <tile gid="881"/>
   <tile gid="880"/>
   <tile gid="881"/>
   <tile gid="881"/>
   <tile gid="881"/>
   <tile gid="850"/>
   <tile gid="175"/>
   <tile gid="7"/>
   <tile gid="292"/>
   <tile gid="881"/>
   <tile gid="881"/>
   <tile gid="881"/>
   <tile gid="881"/>
   <tile gid="881"/>
   <tile gid="881"/>
   <tile gid="881"/>
   <tile gid="849"/>
   <tile gid="912"/>
   <tile gid="881"/>
   <tile gid="881"/>
   <tile gid="881"/>
   <tile gid="881"/>
   <tile gid="850"/>
   <tile gid="47"/>
   <tile gid="848"/>
   <tile gid="881"/>
   <tile gid="881"/>
   <tile gid="881"/>
   <tile gid="881"/>
   <tile gid="881"/>
   <tile gid="881"/>
   <tile gid="881"/>
   <tile gid="881"/>
   <tile gid="881"/>
   <tile gid="881"/>
   <tile gid="881"/>
   <tile gid="881"/>
   <tile gid="881"/>
   <tile gid="881"/>
   <tile gid="849"/>
   <tile gid="881"/>
   <tile gid="881"/>
   <tile gid="881"/>
   <tile gid="881"/>
   <tile gid="881"/>
   <tile gid="881"/>
  </data>
 </layer>
 <layer id="2" name="Map Change 0" width="16" height="14">
  <properties>
   <property name="Height" value="1"/>
   <property name="ID" value="0"/>
   <property name="Width" value="1"/>
   <property name="X" value="1"/>
   <property name="Y" value="6"/>
  </properties>
  <data>
   <tile/>
   <tile/>
   <tile/>
   <tile/>
   <tile/>
   <tile/>
   <tile/>
   <tile/>
   <tile/>
   <tile/>
   <tile/>
   <tile/>
   <tile/>
   <tile/>
   <tile/>
   <tile/>
   <tile/>
   <tile/>
   <tile/>
   <tile/>
   <tile/>
   <tile/>
   <tile/>
   <tile/>
   <tile/>
   <tile/>
   <tile/>
   <tile/>
   <tile/>
   <tile/>
   <tile/>
   <tile/>
   <tile/>
   <tile/>
   <tile/>
   <tile/>
   <tile/>
   <tile/>
   <tile/>
   <tile/>
   <tile/>
   <tile/>
   <tile/>
   <tile/>
   <tile/>
   <tile/>
   <tile/>
   <tile/>
   <tile/>
   <tile/>
   <tile/>
   <tile/>
   <tile/>
   <tile/>
   <tile/>
   <tile/>
   <tile/>
   <tile/>
   <tile/>
   <tile/>
   <tile/>
   <tile/>
   <tile/>
   <tile/>
   <tile/>
   <tile/>
   <tile/>
   <tile/>
   <tile/>
   <tile/>
   <tile/>
   <tile/>
   <tile/>
   <tile/>
   <tile/>
   <tile/>
   <tile/>
   <tile/>
   <tile/>
   <tile/>
   <tile/>
   <tile/>
   <tile/>
   <tile/>
   <tile/>
   <tile/>
   <tile/>
   <tile/>
   <tile/>
   <tile/>
   <tile/>
   <tile/>
   <tile/>
   <tile/>
   <tile/>
   <tile/>
   <tile/>
   <tile gid="481"/>
   <tile/>
   <tile/>
   <tile/>
   <tile/>
   <tile/>
   <tile/>
   <tile/>
   <tile/>
   <tile/>
   <tile/>
   <tile/>
   <tile/>
   <tile/>
   <tile/>
   <tile/>
   <tile/>
   <tile/>
   <tile/>
   <tile/>
   <tile/>
   <tile/>
   <tile/>
   <tile/>
   <tile/>
   <tile/>
   <tile/>
   <tile/>
   <tile/>
   <tile/>
   <tile/>
   <tile/>
   <tile/>
   <tile/>
   <tile/>
   <tile/>
   <tile/>
   <tile/>
   <tile/>
   <tile/>
   <tile/>
   <tile/>
   <tile/>
   <tile/>
   <tile/>
   <tile/>
   <tile/>
   <tile/>
   <tile/>
   <tile/>
   <tile/>
   <tile/>
   <tile/>
   <tile/>
   <tile/>
   <tile/>
   <tile/>
   <tile/>
   <tile/>
   <tile/>
   <tile/>
   <tile/>
   <tile/>
   <tile/>
   <tile/>
   <tile/>
   <tile/>
   <tile/>
   <tile/>
   <tile/>
   <tile/>
   <tile/>
   <tile/>
   <tile/>
   <tile/>
   <tile/>
   <tile/>
   <tile/>
   <tile/>
   <tile/>
   <tile/>
   <tile/>
   <tile/>
   <tile/>
   <tile/>
   <tile/>
   <tile/>
   <tile/>
   <tile/>
   <tile/>
   <tile/>
   <tile/>
   <tile/>
   <tile/>
   <tile/>
   <tile/>
   <tile/>
   <tile/>
   <tile/>
   <tile/>
   <tile/>
   <tile/>
   <tile/>
   <tile/>
   <tile/>
   <tile/>
   <tile/>
   <tile/>
   <tile/>
   <tile/>
   <tile/>
   <tile/>
   <tile/>
   <tile/>
   <tile/>
   <tile/>
   <tile/>
   <tile/>
   <tile/>
   <tile/>
   <tile/>
   <tile/>
   <tile/>
   <tile/>
   <tile/>
   <tile/>
   <tile/>
  </data>
 </layer>
 <layer id="3" name="Map Change 1" width="16" height="14">
  <properties>
   <property name="Height" value="1"/>
   <property name="ID" value="1"/>
   <property name="Width" value="3"/>
   <property name="X" value="8"/>
   <property name="Y" value="5"/>
  </properties>
  <data>
   <tile/>
   <tile/>
   <tile/>
   <tile/>
   <tile/>
   <tile/>
   <tile/>
   <tile/>
   <tile/>
   <tile/>
   <tile/>
   <tile/>
   <tile/>
   <tile/>
   <tile/>
   <tile/>
   <tile/>
   <tile/>
   <tile/>
   <tile/>
   <tile/>
   <tile/>
   <tile/>
   <tile/>
   <tile/>
   <tile/>
   <tile/>
   <tile/>
   <tile/>
   <tile/>
   <tile/>
   <tile/>
   <tile/>
   <tile/>
   <tile/>
   <tile/>
   <tile/>
   <tile/>
   <tile/>
   <tile/>
   <tile/>
   <tile/>
   <tile/>
   <tile/>
   <tile/>
   <tile/>
   <tile/>
   <tile/>
   <tile/>
   <tile/>
   <tile/>
   <tile/>
   <tile/>
   <tile/>
   <tile/>
   <tile/>
   <tile/>
   <tile/>
   <tile/>
   <tile/>
   <tile/>
   <tile/>
   <tile/>
   <tile/>
   <tile/>
   <tile/>
   <tile/>
   <tile/>
   <tile/>
   <tile/>
   <tile/>
   <tile/>
   <tile/>
   <tile/>
   <tile/>
   <tile/>
   <tile/>
   <tile/>
   <tile/>
   <tile/>
   <tile/>
   <tile/>
   <tile/>
   <tile/>
   <tile/>
   <tile/>
   <tile/>
   <tile/>
   <tile gid="101"/>
   <tile gid="68"/>
   <tile gid="101"/>
   <tile/>
   <tile/>
   <tile/>
   <tile/>
   <tile/>
   <tile/>
   <tile/>
   <tile/>
   <tile/>
   <tile/>
   <tile/>
   <tile/>
   <tile/>
   <tile gid="229"/>
   <tile/>
   <tile gid="230"/>
   <tile/>
   <tile/>
   <tile/>
   <tile/>
   <tile/>
   <tile/>
   <tile/>
   <tile/>
   <tile/>
   <tile/>
   <tile/>
   <tile/>
   <tile/>
   <tile/>
   <tile/>
   <tile/>
   <tile/>
   <tile/>
   <tile/>
   <tile/>
   <tile/>
   <tile/>
   <tile/>
   <tile/>
   <tile/>
   <tile/>
   <tile/>
   <tile/>
   <tile/>
   <tile/>
   <tile/>
   <tile/>
   <tile/>
   <tile/>
   <tile/>
   <tile/>
   <tile/>
   <tile/>
   <tile/>
   <tile/>
   <tile/>
   <tile/>
   <tile/>
   <tile/>
   <tile/>
   <tile/>
   <tile/>
   <tile/>
   <tile/>
   <tile/>
   <tile/>
   <tile/>
   <tile/>
   <tile/>
   <tile/>
   <tile/>
   <tile/>
   <tile/>
   <tile/>
   <tile/>
   <tile/>
   <tile/>
   <tile/>
   <tile/>
   <tile/>
   <tile/>
   <tile/>
   <tile/>
   <tile/>
   <tile/>
   <tile/>
   <tile/>
   <tile/>
   <tile/>
   <tile/>
   <tile/>
   <tile/>
   <tile/>
   <tile/>
   <tile/>
   <tile/>
   <tile/>
   <tile/>
   <tile/>
   <tile/>
   <tile/>
   <tile/>
   <tile/>
   <tile/>
   <tile/>
   <tile/>
   <tile/>
   <tile/>
   <tile/>
   <tile/>
   <tile/>
   <tile/>
   <tile/>
   <tile/>
   <tile/>
   <tile/>
   <tile/>
   <tile/>
   <tile/>
   <tile/>
   <tile/>
   <tile/>
   <tile/>
   <tile/>
   <tile/>
   <tile/>
   <tile/>
   <tile/>
   <tile/>
   <tile/>
   <tile/>
   <tile/>
  </data>
 </layer>
</map>
