<?xml version="1.0" encoding="UTF-8"?>
<map version="1.10" tiledversion="1.11.2" orientation="orthogonal" renderorder="right-down" width="20" height="16" tilewidth="16" tileheight="16" infinite="0" nextlayerid="2" nextobjectid="1">
 <tileset firstgid="1" name="04000304" tilewidth="16" tileheight="16" tilecount="1024" columns="32">
  <image source="04000304.png" trans="ffffff" width="512" height="512"/>
 </tileset>
 <layer id="1" name="Tile Layer 1" width="20" height="16">
  <properties>
   <property name="Anims1" value="0x7"/>
   <property name="Anims2" value="0x0"/>
   <property name="ChapterID" value="0x4B"/>
   <property name="Main" value=""/>
   <property name="MapChangesID" value="0"/>
   <property name="MapID" value="0xEA"/>
   <property name="ObjectType" value="3"/>
   <property name="PaletteID" value="6"/>
   <property name="TileConfig" value="3"/>
  </properties>
  <data>
   <tile gid="421"/>
   <tile gid="418"/>
   <tile gid="421"/>
   <tile gid="418"/>
   <tile gid="421"/>
   <tile gid="13"/>
   <tile gid="420"/>
   <tile gid="418"/>
   <tile gid="421"/>
   <tile gid="418"/>
   <tile gid="421"/>
   <tile gid="418"/>
   <tile gid="421"/>
   <tile gid="418"/>
   <tile gid="421"/>
   <tile gid="418"/>
   <tile gid="421"/>
   <tile gid="13"/>
   <tile gid="420"/>
   <tile gid="418"/>
   <tile gid="418"/>
   <tile gid="421"/>
   <tile gid="418"/>
   <tile gid="421"/>
   <tile gid="418"/>
   <tile gid="45"/>
   <tile gid="451"/>
   <tile gid="421"/>
   <tile gid="418"/>
   <tile gid="421"/>
   <tile gid="13"/>
   <tile gid="420"/>
   <tile gid="418"/>
   <tile gid="421"/>
   <tile gid="418"/>
   <tile gid="421"/>
   <tile gid="418"/>
   <tile gid="45"/>
   <tile gid="451"/>
   <tile gid="421"/>
   <tile gid="421"/>
   <tile gid="13"/>
   <tile gid="420"/>
   <tile gid="418"/>
   <tile gid="421"/>
   <tile gid="418"/>
   <tile gid="421"/>
   <tile gid="418"/>
   <tile gid="421"/>
   <tile gid="418"/>
   <tile gid="45"/>
   <tile gid="451"/>
   <tile gid="421"/>
   <tile gid="353"/>
   <tile gid="259"/>
   <tile gid="259"/>
   <tile gid="259"/>
   <tile gid="259"/>
   <tile gid="259"/>
   <tile gid="259"/>
   <tile gid="418"/>
   <tile gid="45"/>
   <tile gid="451"/>
   <tile gid="421"/>
   <tile gid="418"/>
   <tile gid="421"/>
   <tile gid="353"/>
   <tile gid="259"/>
   <tile gid="259"/>
   <tile gid="259"/>
   <tile gid="259"/>
   <tile gid="259"/>
   <tile gid="259"/>
   <tile gid="386"/>
   <tile gid="183"/>
   <tile gid="184"/>
   <tile gid="184"/>
   <tile gid="184"/>
   <tile gid="184"/>
   <tile gid="311"/>
   <tile gid="259"/>
   <tile gid="259"/>
   <tile gid="259"/>
   <tile gid="259"/>
   <tile gid="259"/>
   <tile gid="259"/>
   <tile gid="386"/>
   <tile gid="183"/>
   <tile gid="184"/>
   <tile gid="184"/>
   <tile gid="184"/>
   <tile gid="184"/>
   <tile gid="184"/>
   <tile gid="184"/>
   <tile gid="135"/>
   <tile gid="484"/>
   <tile gid="486"/>
   <tile gid="485"/>
   <tile gid="486"/>
   <tile gid="485"/>
   <tile gid="183"/>
   <tile gid="184"/>
   <tile gid="184"/>
   <tile gid="184"/>
   <tile gid="184"/>
   <tile gid="184"/>
   <tile gid="184"/>
   <tile gid="135"/>
   <tile gid="484"/>
   <tile gid="486"/>
   <tile gid="13"/>
   <tile gid="484"/>
   <tile gid="485"/>
   <tile gid="486"/>
   <tile gid="486"/>
   <tile gid="482"/>
   <tile gid="482"/>
   <tile gid="482"/>
   <tile gid="482"/>
   <tile gid="482"/>
   <tile gid="485"/>
   <tile gid="485"/>
   <tile gid="486"/>
   <tile gid="485"/>
   <tile gid="486"/>
   <tile gid="485"/>
   <tile gid="486"/>
   <tile gid="486"/>
   <tile gid="482"/>
   <tile gid="482"/>
   <tile gid="45"/>
   <tile gid="487"/>
   <tile gid="482"/>
   <tile gid="482"/>
   <tile gid="482"/>
   <tile gid="482"/>
   <tile gid="482"/>
   <tile gid="482"/>
   <tile gid="482"/>
   <tile gid="482"/>
   <tile gid="13"/>
   <tile gid="481"/>
   <tile gid="482"/>
   <tile gid="482"/>
   <tile gid="482"/>
   <tile gid="482"/>
   <tile gid="482"/>
   <tile gid="482"/>
   <tile gid="482"/>
   <tile gid="482"/>
   <tile gid="482"/>
   <tile gid="482"/>
   <tile gid="482"/>
   <tile gid="482"/>
   <tile gid="482"/>
   <tile gid="482"/>
   <tile gid="482"/>
   <tile gid="482"/>
   <tile gid="482"/>
   <tile gid="482"/>
   <tile gid="45"/>
   <tile gid="487"/>
   <tile gid="482"/>
   <tile gid="482"/>
   <tile gid="482"/>
   <tile gid="482"/>
   <tile gid="482"/>
   <tile gid="482"/>
   <tile gid="482"/>
   <tile gid="482"/>
   <tile gid="482"/>
   <tile gid="482"/>
   <tile gid="482"/>
   <tile gid="482"/>
   <tile gid="482"/>
   <tile gid="482"/>
   <tile gid="482"/>
   <tile gid="482"/>
   <tile gid="13"/>
   <tile gid="481"/>
   <tile gid="482"/>
   <tile gid="482"/>
   <tile gid="482"/>
   <tile gid="482"/>
   <tile gid="482"/>
   <tile gid="482"/>
   <tile gid="482"/>
   <tile gid="13"/>
   <tile gid="481"/>
   <tile gid="482"/>
   <tile gid="482"/>
   <tile gid="482"/>
   <tile gid="482"/>
   <tile gid="482"/>
   <tile gid="482"/>
   <tile gid="482"/>
   <tile gid="482"/>
   <tile gid="482"/>
   <tile gid="45"/>
   <tile gid="487"/>
   <tile gid="482"/>
   <tile gid="482"/>
   <tile gid="482"/>
   <tile gid="482"/>
   <tile gid="482"/>
   <tile gid="482"/>
   <tile gid="482"/>
   <tile gid="45"/>
   <tile gid="487"/>
   <tile gid="482"/>
   <tile gid="482"/>
   <tile gid="482"/>
   <tile gid="103"/>
   <tile gid="353"/>
   <tile gid="259"/>
   <tile gid="259"/>
   <tile gid="259"/>
   <tile gid="259"/>
   <tile gid="259"/>
   <tile gid="259"/>
   <tile gid="482"/>
   <tile gid="482"/>
   <tile gid="482"/>
   <tile gid="482"/>
   <tile gid="482"/>
   <tile gid="103"/>
   <tile gid="353"/>
   <tile gid="259"/>
   <tile gid="259"/>
   <tile gid="259"/>
   <tile gid="259"/>
   <tile gid="259"/>
   <tile gid="259"/>
   <tile gid="386"/>
   <tile gid="450"/>
   <tile gid="422"/>
   <tile gid="419"/>
   <tile gid="422"/>
   <tile gid="419"/>
   <tile gid="422"/>
   <tile gid="259"/>
   <tile gid="259"/>
   <tile gid="259"/>
   <tile gid="259"/>
   <tile gid="259"/>
   <tile gid="259"/>
   <tile gid="386"/>
   <tile gid="450"/>
   <tile gid="422"/>
   <tile gid="13"/>
   <tile gid="453"/>
   <tile gid="419"/>
   <tile gid="422"/>
   <tile gid="419"/>
   <tile gid="421"/>
   <tile gid="418"/>
   <tile gid="421"/>
   <tile gid="418"/>
   <tile gid="421"/>
   <tile gid="418"/>
   <tile gid="450"/>
   <tile gid="422"/>
   <tile gid="419"/>
   <tile gid="422"/>
   <tile gid="419"/>
   <tile gid="422"/>
   <tile gid="419"/>
   <tile gid="421"/>
   <tile gid="418"/>
   <tile gid="45"/>
   <tile gid="451"/>
   <tile gid="421"/>
   <tile gid="418"/>
   <tile gid="421"/>
   <tile gid="418"/>
   <tile gid="421"/>
   <tile gid="418"/>
   <tile gid="421"/>
   <tile gid="418"/>
   <tile gid="421"/>
   <tile gid="421"/>
   <tile gid="13"/>
   <tile gid="420"/>
   <tile gid="418"/>
   <tile gid="421"/>
   <tile gid="418"/>
   <tile gid="421"/>
   <tile gid="418"/>
   <tile gid="421"/>
   <tile gid="418"/>
   <tile gid="421"/>
   <tile gid="418"/>
   <tile gid="421"/>
   <tile gid="418"/>
   <tile gid="421"/>
   <tile gid="418"/>
   <tile gid="421"/>
   <tile gid="13"/>
   <tile gid="420"/>
   <tile gid="418"/>
   <tile gid="418"/>
   <tile gid="45"/>
   <tile gid="451"/>
   <tile gid="421"/>
   <tile gid="418"/>
   <tile gid="421"/>
   <tile gid="418"/>
   <tile gid="421"/>
   <tile gid="418"/>
   <tile gid="421"/>
   <tile gid="418"/>
   <tile gid="421"/>
   <tile gid="418"/>
   <tile gid="421"/>
   <tile gid="418"/>
   <tile gid="421"/>
   <tile gid="418"/>
   <tile gid="45"/>
   <tile gid="451"/>
   <tile gid="421"/>
  </data>
 </layer>
</map>
