<?xml version="1.0" encoding="UTF-8"?>
<map version="1.10" tiledversion="1.11.2" orientation="orthogonal" renderorder="right-down" width="16" height="17" tilewidth="16" tileheight="16" infinite="0" nextlayerid="2" nextobjectid="1">
 <tileset firstgid="1" name="05001205" tilewidth="16" tileheight="16" tilecount="0" columns="32">
  <image source="05001205.png" trans="ffffff" width="512" height="512"/>
 </tileset>
 <layer id="1" name="Tile Layer 1" width="16" height="17">
  <properties>
   <property name="Anims1" value="0xDB"/>
   <property name="Anims2" value="0"/>
   <property name="ChapterID" value="0x4e"/>
   <property name="Main" value=""/>
   <property name="MapChangesID" value="0"/>
   <property name="MapID" value="0xd6"/>
   <property name="ObjectType" value="9"/>
   <property name="PaletteID" value="0xD"/>
   <property name="TileConfig" value="9"/>
  </properties>
  <data>
   <tile gid="944"/>
   <tile gid="67"/>
   <tile gid="67"/>
   <tile gid="67"/>
   <tile gid="67"/>
   <tile gid="67"/>
   <tile gid="67"/>
   <tile gid="944"/>
   <tile gid="673"/>
   <tile gid="67"/>
   <tile gid="944"/>
   <tile gid="67"/>
   <tile gid="67"/>
   <tile gid="644"/>
   <tile gid="643"/>
   <tile gid="67"/>
   <tile gid="200"/>
   <tile gid="292"/>
   <tile gid="67"/>
   <tile gid="944"/>
   <tile gid="67"/>
   <tile gid="67"/>
   <tile gid="944"/>
   <tile gid="67"/>
   <tile gid="67"/>
   <tile gid="673"/>
   <tile gid="67"/>
   <tile gid="67"/>
   <tile gid="67"/>
   <tile gid="67"/>
   <tile gid="199"/>
   <tile gid="274"/>
   <tile gid="402"/>
   <tile gid="274"/>
   <tile gid="200"/>
   <tile gid="933"/>
   <tile gid="67"/>
   <tile gid="67"/>
   <tile gid="67"/>
   <tile gid="67"/>
   <tile gid="67"/>
   <tile gid="641"/>
   <tile gid="67"/>
   <tile gid="67"/>
   <tile gid="67"/>
   <tile gid="199"/>
   <tile gid="306"/>
   <tile gid="232"/>
   <tile gid="402"/>
   <tile gid="402"/>
   <tile gid="402"/>
   <tile gid="200"/>
   <tile gid="944"/>
   <tile gid="67"/>
   <tile gid="67"/>
   <tile gid="67"/>
   <tile gid="944"/>
   <tile gid="673"/>
   <tile gid="67"/>
   <tile gid="67"/>
   <tile gid="199"/>
   <tile gid="933"/>
   <tile gid="944"/>
   <tile gid="67"/>
   <tile gid="402"/>
   <tile gid="402"/>
   <tile gid="402"/>
   <tile gid="402"/>
   <tile gid="274"/>
   <tile gid="274"/>
   <tile gid="200"/>
   <tile gid="67"/>
   <tile gid="67"/>
   <tile gid="67"/>
   <tile gid="67"/>
   <tile gid="67"/>
   <tile gid="933"/>
   <tile gid="674"/>
   <tile gid="739"/>
   <tile gid="673"/>
   <tile gid="306"/>
   <tile gid="306"/>
   <tile gid="402"/>
   <tile gid="402"/>
   <tile gid="402"/>
   <tile gid="402"/>
   <tile gid="402"/>
   <tile gid="200"/>
   <tile gid="67"/>
   <tile gid="67"/>
   <tile gid="67"/>
   <tile gid="673"/>
   <tile gid="674"/>
   <tile gid="67"/>
   <tile gid="944"/>
   <tile gid="67"/>
   <tile gid="228"/>
   <tile gid="933"/>
   <tile gid="231"/>
   <tile gid="402"/>
   <tile gid="402"/>
   <tile gid="402"/>
   <tile gid="402"/>
   <tile gid="402"/>
   <tile gid="274"/>
   <tile gid="200"/>
   <tile gid="67"/>
   <tile gid="67"/>
   <tile gid="67"/>
   <tile gid="67"/>
   <tile gid="67"/>
   <tile gid="67"/>
   <tile gid="67"/>
   <tile gid="67"/>
   <tile gid="67"/>
   <tile gid="231"/>
   <tile gid="306"/>
   <tile gid="306"/>
   <tile gid="402"/>
   <tile gid="402"/>
   <tile gid="402"/>
   <tile gid="402"/>
   <tile gid="200"/>
   <tile gid="292"/>
   <tile gid="944"/>
   <tile gid="67"/>
   <tile gid="67"/>
   <tile gid="67"/>
   <tile gid="848"/>
   <tile gid="849"/>
   <tile gid="850"/>
   <tile gid="67"/>
   <tile gid="944"/>
   <tile gid="260"/>
   <tile gid="231"/>
   <tile gid="306"/>
   <tile gid="402"/>
   <tile gid="402"/>
   <tile gid="402"/>
   <tile gid="274"/>
   <tile gid="274"/>
   <tile gid="200"/>
   <tile gid="67"/>
   <tile gid="933"/>
   <tile gid="880"/>
   <tile gid="848"/>
   <tile gid="849"/>
   <tile gid="850"/>
   <tile gid="67"/>
   <tile gid="67"/>
   <tile gid="67"/>
   <tile gid="944"/>
   <tile gid="231"/>
   <tile gid="402"/>
   <tile gid="402"/>
   <tile gid="402"/>
   <tile gid="402"/>
   <tile gid="402"/>
   <tile gid="274"/>
   <tile gid="200"/>
   <tile gid="912"/>
   <tile gid="848"/>
   <tile gid="881"/>
   <tile gid="848"/>
   <tile gid="849"/>
   <tile gid="849"/>
   <tile gid="67"/>
   <tile gid="67"/>
   <tile gid="67"/>
   <tile gid="231"/>
   <tile gid="306"/>
   <tile gid="306"/>
   <tile gid="402"/>
   <tile gid="402"/>
   <tile gid="402"/>
   <tile gid="402"/>
   <tile gid="848"/>
   <tile gid="848"/>
   <tile gid="848"/>
   <tile gid="880"/>
   <tile gid="848"/>
   <tile gid="849"/>
   <tile gid="848"/>
   <tile gid="849"/>
   <tile gid="849"/>
   <tile gid="67"/>
   <tile gid="67"/>
   <tile gid="195"/>
   <tile gid="231"/>
   <tile gid="402"/>
   <tile gid="402"/>
   <tile gid="402"/>
   <tile gid="848"/>
   <tile gid="848"/>
   <tile gid="848"/>
   <tile gid="848"/>
   <tile gid="880"/>
   <tile gid="881"/>
   <tile gid="880"/>
   <tile gid="848"/>
   <tile gid="849"/>
   <tile gid="850"/>
   <tile gid="849"/>
   <tile gid="67"/>
   <tile gid="944"/>
   <tile gid="231"/>
   <tile gid="306"/>
   <tile gid="306"/>
   <tile gid="848"/>
   <tile gid="848"/>
   <tile gid="848"/>
   <tile gid="848"/>
   <tile gid="848"/>
   <tile gid="913"/>
   <tile gid="912"/>
   <tile gid="880"/>
   <tile gid="881"/>
   <tile gid="848"/>
   <tile gid="849"/>
   <tile gid="849"/>
   <tile gid="67"/>
   <tile gid="933"/>
   <tile gid="67"/>
   <tile gid="292"/>
   <tile gid="848"/>
   <tile gid="848"/>
   <tile gid="848"/>
   <tile gid="848"/>
   <tile gid="848"/>
   <tile gid="848"/>
   <tile gid="848"/>
   <tile gid="848"/>
   <tile gid="913"/>
   <tile gid="880"/>
   <tile gid="848"/>
   <tile gid="849"/>
   <tile gid="849"/>
   <tile gid="67"/>
   <tile gid="67"/>
   <tile gid="67"/>
   <tile gid="848"/>
   <tile gid="848"/>
   <tile gid="848"/>
   <tile gid="848"/>
   <tile gid="848"/>
   <tile gid="848"/>
   <tile gid="848"/>
   <tile gid="848"/>
   <tile gid="848"/>
   <tile gid="848"/>
   <tile gid="880"/>
   <tile gid="881"/>
   <tile gid="848"/>
   <tile gid="849"/>
   <tile gid="850"/>
   <tile gid="67"/>
   <tile gid="848"/>
   <tile gid="848"/>
   <tile gid="848"/>
   <tile gid="848"/>
   <tile gid="848"/>
   <tile gid="848"/>
   <tile gid="848"/>
   <tile gid="848"/>
   <tile gid="848"/>
   <tile gid="848"/>
   <tile gid="848"/>
   <tile gid="848"/>
   <tile gid="880"/>
   <tile gid="848"/>
   <tile gid="849"/>
   <tile gid="850"/>
  </data>
 </layer>
</map>
