<?xml version="1.0" encoding="UTF-8"?>
<map version="1.10" tiledversion="1.11.2" orientation="orthogonal" renderorder="right-down" width="19" height="20" tilewidth="16" tileheight="16" infinite="0" nextlayerid="10" nextobjectid="1">
 <tileset firstgid="1" name="01000101" tilewidth="16" tileheight="16" tilecount="1024" columns="32">
  <image source="01000101.png" trans="ffffff" width="512" height="512"/>
 </tileset>
 <layer id="1" name="Tile Layer 1" width="19" height="20">
  <properties>
   <property name="Anims1" value="0"/>
   <property name="Anims2" value="0"/>
   <property name="ChapterID" value="0x4d"/>
   <property name="Main" value=""/>
   <property name="MapChangesID" value="0x58"/>
   <property name="MapID" value="0xe9"/>
   <property name="ObjectType" value="0x01"/>
   <property name="PaletteID" value="0x01"/>
   <property name="TileConfig" value="0x01"/>
  </properties>
  <data>
   <tile gid="7"/>
   <tile gid="7"/>
   <tile gid="144"/>
   <tile gid="783"/>
   <tile gid="675"/>
   <tile gid="676"/>
   <tile gid="67"/>
   <tile gid="71"/>
   <tile gid="7"/>
   <tile gid="7"/>
   <tile gid="104"/>
   <tile gid="783"/>
   <tile gid="271"/>
   <tile gid="402"/>
   <tile gid="315"/>
   <tile gid="277"/>
   <tile gid="478"/>
   <tile gid="542"/>
   <tile gid="543"/>
   <tile gid="7"/>
   <tile gid="7"/>
   <tile gid="7"/>
   <tile gid="110"/>
   <tile gid="67"/>
   <tile gid="67"/>
   <tile gid="45"/>
   <tile gid="112"/>
   <tile gid="7"/>
   <tile gid="144"/>
   <tile gid="721"/>
   <tile gid="469"/>
   <tile gid="436"/>
   <tile gid="402"/>
   <tile gid="216"/>
   <tile gid="213"/>
   <tile gid="478"/>
   <tile gid="574"/>
   <tile gid="575"/>
   <tile gid="103"/>
   <tile gid="112"/>
   <tile gid="7"/>
   <tile gid="144"/>
   <tile gid="67"/>
   <tile gid="785"/>
   <tile gid="786"/>
   <tile gid="67"/>
   <tile gid="103"/>
   <tile gid="112"/>
   <tile gid="72"/>
   <tile gid="501"/>
   <tile gid="404"/>
   <tile gid="248"/>
   <tile gid="282"/>
   <tile gid="213"/>
   <tile gid="277"/>
   <tile gid="478"/>
   <tile gid="278"/>
   <tile gid="805"/>
   <tile gid="132"/>
   <tile gid="103"/>
   <tile gid="104"/>
   <tile gid="67"/>
   <tile gid="467"/>
   <tile gid="469"/>
   <tile gid="470"/>
   <tile gid="468"/>
   <tile gid="47"/>
   <tile gid="47"/>
   <tile gid="506"/>
   <tile gid="436"/>
   <tile gid="216"/>
   <tile gid="284"/>
   <tile gid="316"/>
   <tile gid="245"/>
   <tile gid="245"/>
   <tile gid="215"/>
   <tile gid="644"/>
   <tile gid="198"/>
   <tile gid="132"/>
   <tile gid="15"/>
   <tile gid="67"/>
   <tile gid="506"/>
   <tile gid="438"/>
   <tile gid="437"/>
   <tile gid="347"/>
   <tile gid="264"/>
   <tile gid="263"/>
   <tile gid="438"/>
   <tile gid="306"/>
   <tile gid="404"/>
   <tile gid="402"/>
   <tile gid="402"/>
   <tile gid="216"/>
   <tile gid="215"/>
   <tile gid="402"/>
   <tile gid="680"/>
   <tile gid="642"/>
   <tile gid="784"/>
   <tile gid="143"/>
   <tile gid="72"/>
   <tile gid="501"/>
   <tile gid="402"/>
   <tile gid="402"/>
   <tile gid="402"/>
   <tile gid="403"/>
   <tile gid="306"/>
   <tile gid="232"/>
   <tile gid="784"/>
   <tile gid="501"/>
   <tile gid="306"/>
   <tile gid="404"/>
   <tile gid="402"/>
   <tile gid="402"/>
   <tile gid="402"/>
   <tile gid="67"/>
   <tile gid="738"/>
   <tile gid="816"/>
   <tile gid="169"/>
   <tile gid="144"/>
   <tile gid="721"/>
   <tile gid="271"/>
   <tile gid="402"/>
   <tile gid="403"/>
   <tile gid="232"/>
   <tile gid="67"/>
   <tile gid="71"/>
   <tile gid="808"/>
   <tile gid="809"/>
   <tile gid="810"/>
   <tile gid="501"/>
   <tile gid="306"/>
   <tile gid="306"/>
   <tile gid="502"/>
   <tile gid="746"/>
   <tile gid="770"/>
   <tile gid="132"/>
   <tile gid="73"/>
   <tile gid="7"/>
   <tile gid="46"/>
   <tile gid="501"/>
   <tile gid="402"/>
   <tile gid="502"/>
   <tile gid="67"/>
   <tile gid="71"/>
   <tile gid="7"/>
   <tile gid="872"/>
   <tile gid="873"/>
   <tile gid="874"/>
   <tile gid="881"/>
   <tile gid="882"/>
   <tile gid="786"/>
   <tile gid="645"/>
   <tile gid="678"/>
   <tile gid="230"/>
   <tile gid="71"/>
   <tile gid="7"/>
   <tile gid="104"/>
   <tile gid="783"/>
   <tile gid="132"/>
   <tile gid="367"/>
   <tile gid="368"/>
   <tile gid="721"/>
   <tile gid="143"/>
   <tile gid="106"/>
   <tile gid="783"/>
   <tile gid="367"/>
   <tile gid="368"/>
   <tile gid="913"/>
   <tile gid="947"/>
   <tile gid="680"/>
   <tile gid="677"/>
   <tile gid="712"/>
   <tile gid="721"/>
   <tile gid="47"/>
   <tile gid="467"/>
   <tile gid="643"/>
   <tile gid="644"/>
   <tile gid="198"/>
   <tile gid="231"/>
   <tile gid="200"/>
   <tile gid="71"/>
   <tile gid="7"/>
   <tile gid="74"/>
   <tile gid="333"/>
   <tile gid="334"/>
   <tile gid="67"/>
   <tile gid="15"/>
   <tile gid="67"/>
   <tile gid="805"/>
   <tile gid="777"/>
   <tile gid="274"/>
   <tile gid="200"/>
   <tile gid="132"/>
   <tile gid="643"/>
   <tile gid="808"/>
   <tile gid="809"/>
   <tile gid="810"/>
   <tile gid="771"/>
   <tile gid="332"/>
   <tile gid="103"/>
   <tile gid="112"/>
   <tile gid="104"/>
   <tile gid="67"/>
   <tile gid="332"/>
   <tile gid="71"/>
   <tile gid="7"/>
   <tile gid="72"/>
   <tile gid="469"/>
   <tile gid="509"/>
   <tile gid="402"/>
   <tile gid="232"/>
   <tile gid="132"/>
   <tile gid="675"/>
   <tile gid="872"/>
   <tile gid="873"/>
   <tile gid="874"/>
   <tile gid="644"/>
   <tile gid="680"/>
   <tile gid="269"/>
   <tile gid="270"/>
   <tile gid="643"/>
   <tile gid="646"/>
   <tile gid="67"/>
   <tile gid="143"/>
   <tile gid="7"/>
   <tile gid="144"/>
   <tile gid="271"/>
   <tile gid="437"/>
   <tile gid="402"/>
   <tile gid="200"/>
   <tile gid="132"/>
   <tile gid="67"/>
   <tile gid="783"/>
   <tile gid="367"/>
   <tile gid="368"/>
   <tile gid="469"/>
   <tile gid="507"/>
   <tile gid="473"/>
   <tile gid="435"/>
   <tile gid="470"/>
   <tile gid="678"/>
   <tile gid="67"/>
   <tile gid="103"/>
   <tile gid="7"/>
   <tile gid="104"/>
   <tile gid="501"/>
   <tile gid="404"/>
   <tile gid="402"/>
   <tile gid="437"/>
   <tile gid="347"/>
   <tile gid="470"/>
   <tile gid="468"/>
   <tile gid="293"/>
   <tile gid="338"/>
   <tile gid="438"/>
   <tile gid="437"/>
   <tile gid="505"/>
   <tile gid="402"/>
   <tile gid="272"/>
   <tile gid="67"/>
   <tile gid="817"/>
   <tile gid="818"/>
   <tile gid="47"/>
   <tile gid="67"/>
   <tile gid="469"/>
   <tile gid="436"/>
   <tile gid="314"/>
   <tile gid="247"/>
   <tile gid="402"/>
   <tile gid="437"/>
   <tile gid="347"/>
   <tile gid="470"/>
   <tile gid="469"/>
   <tile gid="436"/>
   <tile gid="402"/>
   <tile gid="402"/>
   <tile gid="402"/>
   <tile gid="502"/>
   <tile gid="67"/>
   <tile gid="849"/>
   <tile gid="850"/>
   <tile gid="396"/>
   <tile gid="67"/>
   <tile gid="231"/>
   <tile gid="306"/>
   <tile gid="245"/>
   <tile gid="245"/>
   <tile gid="247"/>
   <tile gid="402"/>
   <tile gid="402"/>
   <tile gid="437"/>
   <tile gid="438"/>
   <tile gid="402"/>
   <tile gid="402"/>
   <tile gid="402"/>
   <tile gid="402"/>
   <tile gid="338"/>
   <tile gid="200"/>
   <tile gid="721"/>
   <tile gid="199"/>
   <tile gid="402"/>
   <tile gid="200"/>
   <tile gid="132"/>
   <tile gid="643"/>
   <tile gid="246"/>
   <tile gid="245"/>
   <tile gid="281"/>
   <tile gid="402"/>
   <tile gid="402"/>
   <tile gid="403"/>
   <tile gid="502"/>
   <tile gid="501"/>
   <tile gid="306"/>
   <tile gid="306"/>
   <tile gid="502"/>
   <tile gid="67"/>
   <tile gid="231"/>
   <tile gid="338"/>
   <tile gid="502"/>
   <tile gid="501"/>
   <tile gid="402"/>
   <tile gid="274"/>
   <tile gid="509"/>
   <tile gid="478"/>
   <tile gid="245"/>
   <tile gid="313"/>
   <tile gid="402"/>
   <tile gid="402"/>
   <tile gid="435"/>
   <tile gid="347"/>
   <tile gid="470"/>
   <tile gid="468"/>
   <tile gid="141"/>
   <tile gid="79"/>
   <tile gid="135"/>
   <tile gid="72"/>
   <tile gid="805"/>
   <tile gid="119"/>
   <tile gid="54"/>
   <tile gid="247"/>
   <tile gid="402"/>
   <tile gid="437"/>
   <tile gid="478"/>
   <tile gid="246"/>
   <tile gid="245"/>
   <tile gid="247"/>
   <tile gid="402"/>
   <tile gid="402"/>
   <tile gid="402"/>
   <tile gid="437"/>
   <tile gid="507"/>
   <tile gid="103"/>
   <tile gid="7"/>
   <tile gid="7"/>
   <tile gid="7"/>
   <tile gid="54"/>
   <tile gid="213"/>
   <tile gid="245"/>
   <tile gid="246"/>
   <tile gid="348"/>
   <tile gid="247"/>
   <tile gid="478"/>
   <tile gid="478"/>
   <tile gid="246"/>
   <tile gid="281"/>
   <tile gid="402"/>
   <tile gid="402"/>
   <tile gid="402"/>
   <tile gid="402"/>
   <tile gid="272"/>
   <tile gid="132"/>
   <tile gid="143"/>
   <tile gid="7"/>
   <tile gid="104"/>
   <tile gid="22"/>
   <tile gid="245"/>
   <tile gid="476"/>
   <tile gid="477"/>
   <tile gid="246"/>
   <tile gid="213"/>
  </data>
 </layer>
 <layer id="2" name="Map Change 0" width="19" height="20">
  <properties>
   <property name="Height" value="1"/>
   <property name="ID" value="0"/>
   <property name="Width" value="1"/>
   <property name="X" value="5"/>
   <property name="Y" value="11"/>
  </properties>
  <data>
   <tile/>
   <tile/>
   <tile/>
   <tile/>
   <tile/>
   <tile/>
   <tile/>
   <tile/>
   <tile/>
   <tile/>
   <tile/>
   <tile/>
   <tile/>
   <tile/>
   <tile/>
   <tile/>
   <tile/>
   <tile/>
   <tile/>
   <tile/>
   <tile/>
   <tile/>
   <tile/>
   <tile/>
   <tile/>
   <tile/>
   <tile/>
   <tile/>
   <tile/>
   <tile/>
   <tile/>
   <tile/>
   <tile/>
   <tile/>
   <tile/>
   <tile/>
   <tile/>
   <tile/>
   <tile/>
   <tile/>
   <tile/>
   <tile/>
   <tile/>
   <tile/>
   <tile/>
   <tile/>
   <tile/>
   <tile/>
   <tile/>
   <tile/>
   <tile/>
   <tile/>
   <tile/>
   <tile/>
   <tile/>
   <tile/>
   <tile/>
   <tile/>
   <tile/>
   <tile/>
   <tile/>
   <tile/>
   <tile/>
   <tile/>
   <tile/>
   <tile/>
   <tile/>
   <tile/>
   <tile/>
   <tile/>
   <tile/>
   <tile/>
   <tile/>
   <tile/>
   <tile/>
   <tile/>
   <tile/>
   <tile/>
   <tile/>
   <tile/>
   <tile/>
   <tile/>
   <tile/>
   <tile/>
   <tile/>
   <tile/>
   <tile/>
   <tile/>
   <tile/>
   <tile/>
   <tile/>
   <tile/>
   <tile/>
   <tile/>
   <tile/>
   <tile/>
   <tile/>
   <tile/>
   <tile/>
   <tile/>
   <tile/>
   <tile/>
   <tile/>
   <tile/>
   <tile/>
   <tile/>
   <tile/>
   <tile/>
   <tile/>
   <tile/>
   <tile/>
   <tile/>
   <tile/>
   <tile/>
   <tile/>
   <tile/>
   <tile/>
   <tile/>
   <tile/>
   <tile/>
   <tile/>
   <tile/>
   <tile/>
   <tile/>
   <tile/>
   <tile/>
   <tile/>
   <tile/>
   <tile/>
   <tile/>
   <tile/>
   <tile/>
   <tile/>
   <tile/>
   <tile/>
   <tile/>
   <tile/>
   <tile/>
   <tile/>
   <tile/>
   <tile/>
   <tile/>
   <tile/>
   <tile/>
   <tile/>
   <tile/>
   <tile/>
   <tile/>
   <tile/>
   <tile/>
   <tile/>
   <tile/>
   <tile/>
   <tile/>
   <tile/>
   <tile/>
   <tile/>
   <tile/>
   <tile/>
   <tile/>
   <tile/>
   <tile/>
   <tile/>
   <tile/>
   <tile/>
   <tile/>
   <tile/>
   <tile/>
   <tile/>
   <tile/>
   <tile/>
   <tile/>
   <tile/>
   <tile/>
   <tile/>
   <tile/>
   <tile/>
   <tile/>
   <tile/>
   <tile/>
   <tile/>
   <tile/>
   <tile/>
   <tile/>
   <tile/>
   <tile/>
   <tile/>
   <tile/>
   <tile/>
   <tile/>
   <tile/>
   <tile/>
   <tile/>
   <tile/>
   <tile/>
   <tile/>
   <tile/>
   <tile/>
   <tile/>
   <tile/>
   <tile/>
   <tile/>
   <tile/>
   <tile/>
   <tile/>
   <tile/>
   <tile/>
   <tile/>
   <tile/>
   <tile/>
   <tile/>
   <tile/>
   <tile/>
   <tile/>
   <tile gid="33"/>
   <tile/>
   <tile/>
   <tile/>
   <tile/>
   <tile/>
   <tile/>
   <tile/>
   <tile/>
   <tile/>
   <tile/>
   <tile/>
   <tile/>
   <tile/>
   <tile/>
   <tile/>
   <tile/>
   <tile/>
   <tile/>
   <tile/>
   <tile/>
   <tile/>
   <tile/>
   <tile/>
   <tile/>
   <tile/>
   <tile/>
   <tile/>
   <tile/>
   <tile/>
   <tile/>
   <tile/>
   <tile/>
   <tile/>
   <tile/>
   <tile/>
   <tile/>
   <tile/>
   <tile/>
   <tile/>
   <tile/>
   <tile/>
   <tile/>
   <tile/>
   <tile/>
   <tile/>
   <tile/>
   <tile/>
   <tile/>
   <tile/>
   <tile/>
   <tile/>
   <tile/>
   <tile/>
   <tile/>
   <tile/>
   <tile/>
   <tile/>
   <tile/>
   <tile/>
   <tile/>
   <tile/>
   <tile/>
   <tile/>
   <tile/>
   <tile/>
   <tile/>
   <tile/>
   <tile/>
   <tile/>
   <tile/>
   <tile/>
   <tile/>
   <tile/>
   <tile/>
   <tile/>
   <tile/>
   <tile/>
   <tile/>
   <tile/>
   <tile/>
   <tile/>
   <tile/>
   <tile/>
   <tile/>
   <tile/>
   <tile/>
   <tile/>
   <tile/>
   <tile/>
   <tile/>
   <tile/>
   <tile/>
   <tile/>
   <tile/>
   <tile/>
   <tile/>
   <tile/>
   <tile/>
   <tile/>
   <tile/>
   <tile/>
   <tile/>
   <tile/>
   <tile/>
   <tile/>
   <tile/>
   <tile/>
   <tile/>
   <tile/>
   <tile/>
   <tile/>
   <tile/>
   <tile/>
   <tile/>
   <tile/>
   <tile/>
   <tile/>
   <tile/>
   <tile/>
   <tile/>
   <tile/>
   <tile/>
   <tile/>
   <tile/>
   <tile/>
   <tile/>
   <tile/>
   <tile/>
   <tile/>
   <tile/>
   <tile/>
   <tile/>
   <tile/>
   <tile/>
   <tile/>
   <tile/>
   <tile/>
   <tile/>
   <tile/>
   <tile/>
   <tile/>
   <tile/>
   <tile/>
   <tile/>
   <tile/>
   <tile/>
   <tile/>
   <tile/>
   <tile/>
   <tile/>
   <tile/>
   <tile/>
   <tile/>
   <tile/>
   <tile/>
   <tile/>
   <tile/>
   <tile/>
   <tile/>
   <tile/>
   <tile/>
   <tile/>
   <tile/>
   <tile/>
   <tile/>
  </data>
 </layer>
 <layer id="3" name="Map Change 1" width="19" height="20">
  <properties>
   <property name="Height" value="1"/>
   <property name="ID" value="1"/>
   <property name="Width" value="1"/>
   <property name="X" value="13"/>
   <property name="Y" value="7"/>
  </properties>
  <data>
   <tile/>
   <tile/>
   <tile/>
   <tile/>
   <tile/>
   <tile/>
   <tile/>
   <tile/>
   <tile/>
   <tile/>
   <tile/>
   <tile/>
   <tile/>
   <tile/>
   <tile/>
   <tile/>
   <tile/>
   <tile/>
   <tile/>
   <tile/>
   <tile/>
   <tile/>
   <tile/>
   <tile/>
   <tile/>
   <tile/>
   <tile/>
   <tile/>
   <tile/>
   <tile/>
   <tile/>
   <tile/>
   <tile/>
   <tile/>
   <tile/>
   <tile/>
   <tile/>
   <tile/>
   <tile/>
   <tile/>
   <tile/>
   <tile/>
   <tile/>
   <tile/>
   <tile/>
   <tile/>
   <tile/>
   <tile/>
   <tile/>
   <tile/>
   <tile/>
   <tile/>
   <tile/>
   <tile/>
   <tile/>
   <tile/>
   <tile/>
   <tile/>
   <tile/>
   <tile/>
   <tile/>
   <tile/>
   <tile/>
   <tile/>
   <tile/>
   <tile/>
   <tile/>
   <tile/>
   <tile/>
   <tile/>
   <tile/>
   <tile/>
   <tile/>
   <tile/>
   <tile/>
   <tile/>
   <tile/>
   <tile/>
   <tile/>
   <tile/>
   <tile/>
   <tile/>
   <tile/>
   <tile/>
   <tile/>
   <tile/>
   <tile/>
   <tile/>
   <tile/>
   <tile/>
   <tile/>
   <tile/>
   <tile/>
   <tile/>
   <tile/>
   <tile/>
   <tile/>
   <tile/>
   <tile/>
   <tile/>
   <tile/>
   <tile/>
   <tile/>
   <tile/>
   <tile/>
   <tile/>
   <tile/>
   <tile/>
   <tile/>
   <tile/>
   <tile/>
   <tile/>
   <tile/>
   <tile/>
   <tile/>
   <tile/>
   <tile/>
   <tile/>
   <tile/>
   <tile/>
   <tile/>
   <tile/>
   <tile/>
   <tile/>
   <tile/>
   <tile/>
   <tile/>
   <tile/>
   <tile/>
   <tile/>
   <tile/>
   <tile/>
   <tile/>
   <tile/>
   <tile/>
   <tile/>
   <tile/>
   <tile/>
   <tile/>
   <tile/>
   <tile/>
   <tile/>
   <tile/>
   <tile/>
   <tile/>
   <tile/>
   <tile gid="33"/>
   <tile/>
   <tile/>
   <tile/>
   <tile/>
   <tile/>
   <tile/>
   <tile/>
   <tile/>
   <tile/>
   <tile/>
   <tile/>
   <tile/>
   <tile/>
   <tile/>
   <tile/>
   <tile/>
   <tile/>
   <tile/>
   <tile/>
   <tile/>
   <tile/>
   <tile/>
   <tile/>
   <tile/>
   <tile/>
   <tile/>
   <tile/>
   <tile/>
   <tile/>
   <tile/>
   <tile/>
   <tile/>
   <tile/>
   <tile/>
   <tile/>
   <tile/>
   <tile/>
   <tile/>
   <tile/>
   <tile/>
   <tile/>
   <tile/>
   <tile/>
   <tile/>
   <tile/>
   <tile/>
   <tile/>
   <tile/>
   <tile/>
   <tile/>
   <tile/>
   <tile/>
   <tile/>
   <tile/>
   <tile/>
   <tile/>
   <tile/>
   <tile/>
   <tile/>
   <tile/>
   <tile/>
   <tile/>
   <tile/>
   <tile/>
   <tile/>
   <tile/>
   <tile/>
   <tile/>
   <tile/>
   <tile/>
   <tile/>
   <tile/>
   <tile/>
   <tile/>
   <tile/>
   <tile/>
   <tile/>
   <tile/>
   <tile/>
   <tile/>
   <tile/>
   <tile/>
   <tile/>
   <tile/>
   <tile/>
   <tile/>
   <tile/>
   <tile/>
   <tile/>
   <tile/>
   <tile/>
   <tile/>
   <tile/>
   <tile/>
   <tile/>
   <tile/>
   <tile/>
   <tile/>
   <tile/>
   <tile/>
   <tile/>
   <tile/>
   <tile/>
   <tile/>
   <tile/>
   <tile/>
   <tile/>
   <tile/>
   <tile/>
   <tile/>
   <tile/>
   <tile/>
   <tile/>
   <tile/>
   <tile/>
   <tile/>
   <tile/>
   <tile/>
   <tile/>
   <tile/>
   <tile/>
   <tile/>
   <tile/>
   <tile/>
   <tile/>
   <tile/>
   <tile/>
   <tile/>
   <tile/>
   <tile/>
   <tile/>
   <tile/>
   <tile/>
   <tile/>
   <tile/>
   <tile/>
   <tile/>
   <tile/>
   <tile/>
   <tile/>
   <tile/>
   <tile/>
   <tile/>
   <tile/>
   <tile/>
   <tile/>
   <tile/>
   <tile/>
   <tile/>
   <tile/>
   <tile/>
   <tile/>
   <tile/>
   <tile/>
   <tile/>
   <tile/>
   <tile/>
   <tile/>
   <tile/>
   <tile/>
   <tile/>
   <tile/>
   <tile/>
   <tile/>
   <tile/>
   <tile/>
   <tile/>
   <tile/>
   <tile/>
   <tile/>
   <tile/>
   <tile/>
   <tile/>
   <tile/>
   <tile/>
   <tile/>
   <tile/>
   <tile/>
   <tile/>
   <tile/>
   <tile/>
   <tile/>
   <tile/>
   <tile/>
   <tile/>
   <tile/>
   <tile/>
   <tile/>
   <tile/>
   <tile/>
   <tile/>
   <tile/>
   <tile/>
   <tile/>
   <tile/>
   <tile/>
   <tile/>
   <tile/>
   <tile/>
   <tile/>
   <tile/>
   <tile/>
   <tile/>
   <tile/>
   <tile/>
   <tile/>
   <tile/>
   <tile/>
   <tile/>
   <tile/>
   <tile/>
   <tile/>
   <tile/>
   <tile/>
   <tile/>
   <tile/>
   <tile/>
   <tile/>
   <tile/>
   <tile/>
   <tile/>
   <tile/>
   <tile/>
   <tile/>
   <tile/>
   <tile/>
   <tile/>
   <tile/>
   <tile/>
   <tile/>
   <tile/>
   <tile/>
   <tile/>
  </data>
 </layer>
 <layer id="4" name="Map Change 2" width="19" height="20">
  <properties>
   <property name="Height" value="2"/>
   <property name="ID" value="2"/>
   <property name="Width" value="3"/>
   <property name="X" value="4"/>
   <property name="Y" value="10"/>
  </properties>
  <data>
   <tile/>
   <tile/>
   <tile/>
   <tile/>
   <tile/>
   <tile/>
   <tile/>
   <tile/>
   <tile/>
   <tile/>
   <tile/>
   <tile/>
   <tile/>
   <tile/>
   <tile/>
   <tile/>
   <tile/>
   <tile/>
   <tile/>
   <tile/>
   <tile/>
   <tile/>
   <tile/>
   <tile/>
   <tile/>
   <tile/>
   <tile/>
   <tile/>
   <tile/>
   <tile/>
   <tile/>
   <tile/>
   <tile/>
   <tile/>
   <tile/>
   <tile/>
   <tile/>
   <tile/>
   <tile/>
   <tile/>
   <tile/>
   <tile/>
   <tile/>
   <tile/>
   <tile/>
   <tile/>
   <tile/>
   <tile/>
   <tile/>
   <tile/>
   <tile/>
   <tile/>
   <tile/>
   <tile/>
   <tile/>
   <tile/>
   <tile/>
   <tile/>
   <tile/>
   <tile/>
   <tile/>
   <tile/>
   <tile/>
   <tile/>
   <tile/>
   <tile/>
   <tile/>
   <tile/>
   <tile/>
   <tile/>
   <tile/>
   <tile/>
   <tile/>
   <tile/>
   <tile/>
   <tile/>
   <tile/>
   <tile/>
   <tile/>
   <tile/>
   <tile/>
   <tile/>
   <tile/>
   <tile/>
   <tile/>
   <tile/>
   <tile/>
   <tile/>
   <tile/>
   <tile/>
   <tile/>
   <tile/>
   <tile/>
   <tile/>
   <tile/>
   <tile/>
   <tile/>
   <tile/>
   <tile/>
   <tile/>
   <tile/>
   <tile/>
   <tile/>
   <tile/>
   <tile/>
   <tile/>
   <tile/>
   <tile/>
   <tile/>
   <tile/>
   <tile/>
   <tile/>
   <tile/>
   <tile/>
   <tile/>
   <tile/>
   <tile/>
   <tile/>
   <tile/>
   <tile/>
   <tile/>
   <tile/>
   <tile/>
   <tile/>
   <tile/>
   <tile/>
   <tile/>
   <tile/>
   <tile/>
   <tile/>
   <tile/>
   <tile/>
   <tile/>
   <tile/>
   <tile/>
   <tile/>
   <tile/>
   <tile/>
   <tile/>
   <tile/>
   <tile/>
   <tile/>
   <tile/>
   <tile/>
   <tile/>
   <tile/>
   <tile/>
   <tile/>
   <tile/>
   <tile/>
   <tile/>
   <tile/>
   <tile/>
   <tile/>
   <tile/>
   <tile/>
   <tile/>
   <tile/>
   <tile/>
   <tile/>
   <tile/>
   <tile/>
   <tile/>
   <tile/>
   <tile/>
   <tile/>
   <tile/>
   <tile/>
   <tile/>
   <tile/>
   <tile/>
   <tile/>
   <tile/>
   <tile/>
   <tile/>
   <tile/>
   <tile/>
   <tile/>
   <tile/>
   <tile/>
   <tile/>
   <tile/>
   <tile/>
   <tile/>
   <tile/>
   <tile/>
   <tile/>
   <tile/>
   <tile/>
   <tile/>
   <tile/>
   <tile/>
   <tile/>
   <tile/>
   <tile gid="904"/>
   <tile gid="905"/>
   <tile gid="906"/>
   <tile/>
   <tile/>
   <tile/>
   <tile/>
   <tile/>
   <tile/>
   <tile/>
   <tile/>
   <tile/>
   <tile/>
   <tile/>
   <tile/>
   <tile/>
   <tile/>
   <tile/>
   <tile/>
   <tile gid="968"/>
   <tile gid="969"/>
   <tile gid="970"/>
   <tile/>
   <tile/>
   <tile/>
   <tile/>
   <tile/>
   <tile/>
   <tile/>
   <tile/>
   <tile/>
   <tile/>
   <tile/>
   <tile/>
   <tile/>
   <tile/>
   <tile/>
   <tile/>
   <tile/>
   <tile/>
   <tile/>
   <tile/>
   <tile/>
   <tile/>
   <tile/>
   <tile/>
   <tile/>
   <tile/>
   <tile/>
   <tile/>
   <tile/>
   <tile/>
   <tile/>
   <tile/>
   <tile/>
   <tile/>
   <tile/>
   <tile/>
   <tile/>
   <tile/>
   <tile/>
   <tile/>
   <tile/>
   <tile/>
   <tile/>
   <tile/>
   <tile/>
   <tile/>
   <tile/>
   <tile/>
   <tile/>
   <tile/>
   <tile/>
   <tile/>
   <tile/>
   <tile/>
   <tile/>
   <tile/>
   <tile/>
   <tile/>
   <tile/>
   <tile/>
   <tile/>
   <tile/>
   <tile/>
   <tile/>
   <tile/>
   <tile/>
   <tile/>
   <tile/>
   <tile/>
   <tile/>
   <tile/>
   <tile/>
   <tile/>
   <tile/>
   <tile/>
   <tile/>
   <tile/>
   <tile/>
   <tile/>
   <tile/>
   <tile/>
   <tile/>
   <tile/>
   <tile/>
   <tile/>
   <tile/>
   <tile/>
   <tile/>
   <tile/>
   <tile/>
   <tile/>
   <tile/>
   <tile/>
   <tile/>
   <tile/>
   <tile/>
   <tile/>
   <tile/>
   <tile/>
   <tile/>
   <tile/>
   <tile/>
   <tile/>
   <tile/>
   <tile/>
   <tile/>
   <tile/>
   <tile/>
   <tile/>
   <tile/>
   <tile/>
   <tile/>
   <tile/>
   <tile/>
   <tile/>
   <tile/>
   <tile/>
   <tile/>
   <tile/>
   <tile/>
   <tile/>
   <tile/>
   <tile/>
   <tile/>
   <tile/>
   <tile/>
   <tile/>
   <tile/>
   <tile/>
   <tile/>
   <tile/>
   <tile/>
   <tile/>
   <tile/>
   <tile/>
   <tile/>
   <tile/>
   <tile/>
   <tile/>
   <tile/>
   <tile/>
   <tile/>
   <tile/>
   <tile/>
   <tile/>
   <tile/>
   <tile/>
   <tile/>
   <tile/>
   <tile/>
   <tile/>
   <tile/>
   <tile/>
   <tile/>
   <tile/>
   <tile/>
   <tile/>
   <tile/>
   <tile/>
   <tile/>
   <tile/>
   <tile/>
   <tile/>
   <tile/>
  </data>
 </layer>
 <layer id="5" name="Map Change 3" width="19" height="20">
  <properties>
   <property name="Height" value="2"/>
   <property name="ID" value="3"/>
   <property name="Width" value="3"/>
   <property name="X" value="12"/>
   <property name="Y" value="6"/>
  </properties>
  <data>
   <tile/>
   <tile/>
   <tile/>
   <tile/>
   <tile/>
   <tile/>
   <tile/>
   <tile/>
   <tile/>
   <tile/>
   <tile/>
   <tile/>
   <tile/>
   <tile/>
   <tile/>
   <tile/>
   <tile/>
   <tile/>
   <tile/>
   <tile/>
   <tile/>
   <tile/>
   <tile/>
   <tile/>
   <tile/>
   <tile/>
   <tile/>
   <tile/>
   <tile/>
   <tile/>
   <tile/>
   <tile/>
   <tile/>
   <tile/>
   <tile/>
   <tile/>
   <tile/>
   <tile/>
   <tile/>
   <tile/>
   <tile/>
   <tile/>
   <tile/>
   <tile/>
   <tile/>
   <tile/>
   <tile/>
   <tile/>
   <tile/>
   <tile/>
   <tile/>
   <tile/>
   <tile/>
   <tile/>
   <tile/>
   <tile/>
   <tile/>
   <tile/>
   <tile/>
   <tile/>
   <tile/>
   <tile/>
   <tile/>
   <tile/>
   <tile/>
   <tile/>
   <tile/>
   <tile/>
   <tile/>
   <tile/>
   <tile/>
   <tile/>
   <tile/>
   <tile/>
   <tile/>
   <tile/>
   <tile/>
   <tile/>
   <tile/>
   <tile/>
   <tile/>
   <tile/>
   <tile/>
   <tile/>
   <tile/>
   <tile/>
   <tile/>
   <tile/>
   <tile/>
   <tile/>
   <tile/>
   <tile/>
   <tile/>
   <tile/>
   <tile/>
   <tile/>
   <tile/>
   <tile/>
   <tile/>
   <tile/>
   <tile/>
   <tile/>
   <tile/>
   <tile/>
   <tile/>
   <tile/>
   <tile/>
   <tile/>
   <tile/>
   <tile/>
   <tile/>
   <tile/>
   <tile/>
   <tile/>
   <tile/>
   <tile/>
   <tile/>
   <tile/>
   <tile/>
   <tile/>
   <tile/>
   <tile/>
   <tile/>
   <tile/>
   <tile/>
   <tile/>
   <tile gid="904"/>
   <tile gid="905"/>
   <tile gid="906"/>
   <tile/>
   <tile/>
   <tile/>
   <tile/>
   <tile/>
   <tile/>
   <tile/>
   <tile/>
   <tile/>
   <tile/>
   <tile/>
   <tile/>
   <tile/>
   <tile/>
   <tile/>
   <tile/>
   <tile gid="968"/>
   <tile gid="969"/>
   <tile gid="970"/>
   <tile/>
   <tile/>
   <tile/>
   <tile/>
   <tile/>
   <tile/>
   <tile/>
   <tile/>
   <tile/>
   <tile/>
   <tile/>
   <tile/>
   <tile/>
   <tile/>
   <tile/>
   <tile/>
   <tile/>
   <tile/>
   <tile/>
   <tile/>
   <tile/>
   <tile/>
   <tile/>
   <tile/>
   <tile/>
   <tile/>
   <tile/>
   <tile/>
   <tile/>
   <tile/>
   <tile/>
   <tile/>
   <tile/>
   <tile/>
   <tile/>
   <tile/>
   <tile/>
   <tile/>
   <tile/>
   <tile/>
   <tile/>
   <tile/>
   <tile/>
   <tile/>
   <tile/>
   <tile/>
   <tile/>
   <tile/>
   <tile/>
   <tile/>
   <tile/>
   <tile/>
   <tile/>
   <tile/>
   <tile/>
   <tile/>
   <tile/>
   <tile/>
   <tile/>
   <tile/>
   <tile/>
   <tile/>
   <tile/>
   <tile/>
   <tile/>
   <tile/>
   <tile/>
   <tile/>
   <tile/>
   <tile/>
   <tile/>
   <tile/>
   <tile/>
   <tile/>
   <tile/>
   <tile/>
   <tile/>
   <tile/>
   <tile/>
   <tile/>
   <tile/>
   <tile/>
   <tile/>
   <tile/>
   <tile/>
   <tile/>
   <tile/>
   <tile/>
   <tile/>
   <tile/>
   <tile/>
   <tile/>
   <tile/>
   <tile/>
   <tile/>
   <tile/>
   <tile/>
   <tile/>
   <tile/>
   <tile/>
   <tile/>
   <tile/>
   <tile/>
   <tile/>
   <tile/>
   <tile/>
   <tile/>
   <tile/>
   <tile/>
   <tile/>
   <tile/>
   <tile/>
   <tile/>
   <tile/>
   <tile/>
   <tile/>
   <tile/>
   <tile/>
   <tile/>
   <tile/>
   <tile/>
   <tile/>
   <tile/>
   <tile/>
   <tile/>
   <tile/>
   <tile/>
   <tile/>
   <tile/>
   <tile/>
   <tile/>
   <tile/>
   <tile/>
   <tile/>
   <tile/>
   <tile/>
   <tile/>
   <tile/>
   <tile/>
   <tile/>
   <tile/>
   <tile/>
   <tile/>
   <tile/>
   <tile/>
   <tile/>
   <tile/>
   <tile/>
   <tile/>
   <tile/>
   <tile/>
   <tile/>
   <tile/>
   <tile/>
   <tile/>
   <tile/>
   <tile/>
   <tile/>
   <tile/>
   <tile/>
   <tile/>
   <tile/>
   <tile/>
   <tile/>
   <tile/>
   <tile/>
   <tile/>
   <tile/>
   <tile/>
   <tile/>
   <tile/>
   <tile/>
   <tile/>
   <tile/>
   <tile/>
   <tile/>
   <tile/>
   <tile/>
   <tile/>
   <tile/>
   <tile/>
   <tile/>
   <tile/>
   <tile/>
   <tile/>
   <tile/>
   <tile/>
   <tile/>
   <tile/>
   <tile/>
   <tile/>
   <tile/>
   <tile/>
   <tile/>
   <tile/>
   <tile/>
   <tile/>
   <tile/>
   <tile/>
   <tile/>
   <tile/>
   <tile/>
   <tile/>
   <tile/>
   <tile/>
   <tile/>
   <tile/>
   <tile/>
   <tile/>
   <tile/>
   <tile/>
   <tile/>
   <tile/>
   <tile/>
   <tile/>
   <tile/>
   <tile/>
   <tile/>
   <tile/>
   <tile/>
   <tile/>
   <tile/>
   <tile/>
   <tile/>
   <tile/>
   <tile/>
   <tile/>
   <tile/>
   <tile/>
   <tile/>
   <tile/>
   <tile/>
  </data>
 </layer>
 <layer id="6" name="Map Change 4" width="19" height="20">
  <properties>
   <property name="Height" value="1"/>
   <property name="ID" value="4"/>
   <property name="Width" value="1"/>
   <property name="X" value="0"/>
   <property name="Y" value="3"/>
  </properties>
  <data>
   <tile/>
   <tile/>
   <tile/>
   <tile/>
   <tile/>
   <tile/>
   <tile/>
   <tile/>
   <tile/>
   <tile/>
   <tile/>
   <tile/>
   <tile/>
   <tile/>
   <tile/>
   <tile/>
   <tile/>
   <tile/>
   <tile/>
   <tile/>
   <tile/>
   <tile/>
   <tile/>
   <tile/>
   <tile/>
   <tile/>
   <tile/>
   <tile/>
   <tile/>
   <tile/>
   <tile/>
   <tile/>
   <tile/>
   <tile/>
   <tile/>
   <tile/>
   <tile/>
   <tile/>
   <tile/>
   <tile/>
   <tile/>
   <tile/>
   <tile/>
   <tile/>
   <tile/>
   <tile/>
   <tile/>
   <tile/>
   <tile/>
   <tile/>
   <tile/>
   <tile/>
   <tile/>
   <tile/>
   <tile/>
   <tile/>
   <tile/>
   <tile gid="900"/>
   <tile/>
   <tile/>
   <tile/>
   <tile/>
   <tile/>
   <tile/>
   <tile/>
   <tile/>
   <tile/>
   <tile/>
   <tile/>
   <tile/>
   <tile/>
   <tile/>
   <tile/>
   <tile/>
   <tile/>
   <tile/>
   <tile/>
   <tile/>
   <tile/>
   <tile/>
   <tile/>
   <tile/>
   <tile/>
   <tile/>
   <tile/>
   <tile/>
   <tile/>
   <tile/>
   <tile/>
   <tile/>
   <tile/>
   <tile/>
   <tile/>
   <tile/>
   <tile/>
   <tile/>
   <tile/>
   <tile/>
   <tile/>
   <tile/>
   <tile/>
   <tile/>
   <tile/>
   <tile/>
   <tile/>
   <tile/>
   <tile/>
   <tile/>
   <tile/>
   <tile/>
   <tile/>
   <tile/>
   <tile/>
   <tile/>
   <tile/>
   <tile/>
   <tile/>
   <tile/>
   <tile/>
   <tile/>
   <tile/>
   <tile/>
   <tile/>
   <tile/>
   <tile/>
   <tile/>
   <tile/>
   <tile/>
   <tile/>
   <tile/>
   <tile/>
   <tile/>
   <tile/>
   <tile/>
   <tile/>
   <tile/>
   <tile/>
   <tile/>
   <tile/>
   <tile/>
   <tile/>
   <tile/>
   <tile/>
   <tile/>
   <tile/>
   <tile/>
   <tile/>
   <tile/>
   <tile/>
   <tile/>
   <tile/>
   <tile/>
   <tile/>
   <tile/>
   <tile/>
   <tile/>
   <tile/>
   <tile/>
   <tile/>
   <tile/>
   <tile/>
   <tile/>
   <tile/>
   <tile/>
   <tile/>
   <tile/>
   <tile/>
   <tile/>
   <tile/>
   <tile/>
   <tile/>
   <tile/>
   <tile/>
   <tile/>
   <tile/>
   <tile/>
   <tile/>
   <tile/>
   <tile/>
   <tile/>
   <tile/>
   <tile/>
   <tile/>
   <tile/>
   <tile/>
   <tile/>
   <tile/>
   <tile/>
   <tile/>
   <tile/>
   <tile/>
   <tile/>
   <tile/>
   <tile/>
   <tile/>
   <tile/>
   <tile/>
   <tile/>
   <tile/>
   <tile/>
   <tile/>
   <tile/>
   <tile/>
   <tile/>
   <tile/>
   <tile/>
   <tile/>
   <tile/>
   <tile/>
   <tile/>
   <tile/>
   <tile/>
   <tile/>
   <tile/>
   <tile/>
   <tile/>
   <tile/>
   <tile/>
   <tile/>
   <tile/>
   <tile/>
   <tile/>
   <tile/>
   <tile/>
   <tile/>
   <tile/>
   <tile/>
   <tile/>
   <tile/>
   <tile/>
   <tile/>
   <tile/>
   <tile/>
   <tile/>
   <tile/>
   <tile/>
   <tile/>
   <tile/>
   <tile/>
   <tile/>
   <tile/>
   <tile/>
   <tile/>
   <tile/>
   <tile/>
   <tile/>
   <tile/>
   <tile/>
   <tile/>
   <tile/>
   <tile/>
   <tile/>
   <tile/>
   <tile/>
   <tile/>
   <tile/>
   <tile/>
   <tile/>
   <tile/>
   <tile/>
   <tile/>
   <tile/>
   <tile/>
   <tile/>
   <tile/>
   <tile/>
   <tile/>
   <tile/>
   <tile/>
   <tile/>
   <tile/>
   <tile/>
   <tile/>
   <tile/>
   <tile/>
   <tile/>
   <tile/>
   <tile/>
   <tile/>
   <tile/>
   <tile/>
   <tile/>
   <tile/>
   <tile/>
   <tile/>
   <tile/>
   <tile/>
   <tile/>
   <tile/>
   <tile/>
   <tile/>
   <tile/>
   <tile/>
   <tile/>
   <tile/>
   <tile/>
   <tile/>
   <tile/>
   <tile/>
   <tile/>
   <tile/>
   <tile/>
   <tile/>
   <tile/>
   <tile/>
   <tile/>
   <tile/>
   <tile/>
   <tile/>
   <tile/>
   <tile/>
   <tile/>
   <tile/>
   <tile/>
   <tile/>
   <tile/>
   <tile/>
   <tile/>
   <tile/>
   <tile/>
   <tile/>
   <tile/>
   <tile/>
   <tile/>
   <tile/>
   <tile/>
   <tile/>
   <tile/>
   <tile/>
   <tile/>
   <tile/>
   <tile/>
   <tile/>
   <tile/>
   <tile/>
   <tile/>
   <tile/>
   <tile/>
   <tile/>
   <tile/>
   <tile/>
   <tile/>
   <tile/>
   <tile/>
   <tile/>
   <tile/>
   <tile/>
   <tile/>
   <tile/>
   <tile/>
   <tile/>
   <tile/>
   <tile/>
   <tile/>
   <tile/>
   <tile/>
   <tile/>
   <tile/>
   <tile/>
   <tile/>
   <tile/>
   <tile/>
   <tile/>
   <tile/>
   <tile/>
   <tile/>
   <tile/>
   <tile/>
   <tile/>
   <tile/>
   <tile/>
   <tile/>
   <tile/>
   <tile/>
   <tile/>
   <tile/>
   <tile/>
   <tile/>
   <tile/>
   <tile/>
  </data>
 </layer>
 <layer id="7" name="Map Change 5" width="19" height="20">
  <properties>
   <property name="Height" value="1"/>
   <property name="ID" value="5"/>
   <property name="Width" value="1"/>
   <property name="X" value="17"/>
   <property name="Y" value="9"/>
  </properties>
  <data>
   <tile/>
   <tile/>
   <tile/>
   <tile/>
   <tile/>
   <tile/>
   <tile/>
   <tile/>
   <tile/>
   <tile/>
   <tile/>
   <tile/>
   <tile/>
   <tile/>
   <tile/>
   <tile/>
   <tile/>
   <tile/>
   <tile/>
   <tile/>
   <tile/>
   <tile/>
   <tile/>
   <tile/>
   <tile/>
   <tile/>
   <tile/>
   <tile/>
   <tile/>
   <tile/>
   <tile/>
   <tile/>
   <tile/>
   <tile/>
   <tile/>
   <tile/>
   <tile/>
   <tile/>
   <tile/>
   <tile/>
   <tile/>
   <tile/>
   <tile/>
   <tile/>
   <tile/>
   <tile/>
   <tile/>
   <tile/>
   <tile/>
   <tile/>
   <tile/>
   <tile/>
   <tile/>
   <tile/>
   <tile/>
   <tile/>
   <tile/>
   <tile/>
   <tile/>
   <tile/>
   <tile/>
   <tile/>
   <tile/>
   <tile/>
   <tile/>
   <tile/>
   <tile/>
   <tile/>
   <tile/>
   <tile/>
   <tile/>
   <tile/>
   <tile/>
   <tile/>
   <tile/>
   <tile/>
   <tile/>
   <tile/>
   <tile/>
   <tile/>
   <tile/>
   <tile/>
   <tile/>
   <tile/>
   <tile/>
   <tile/>
   <tile/>
   <tile/>
   <tile/>
   <tile/>
   <tile/>
   <tile/>
   <tile/>
   <tile/>
   <tile/>
   <tile/>
   <tile/>
   <tile/>
   <tile/>
   <tile/>
   <tile/>
   <tile/>
   <tile/>
   <tile/>
   <tile/>
   <tile/>
   <tile/>
   <tile/>
   <tile/>
   <tile/>
   <tile/>
   <tile/>
   <tile/>
   <tile/>
   <tile/>
   <tile/>
   <tile/>
   <tile/>
   <tile/>
   <tile/>
   <tile/>
   <tile/>
   <tile/>
   <tile/>
   <tile/>
   <tile/>
   <tile/>
   <tile/>
   <tile/>
   <tile/>
   <tile/>
   <tile/>
   <tile/>
   <tile/>
   <tile/>
   <tile/>
   <tile/>
   <tile/>
   <tile/>
   <tile/>
   <tile/>
   <tile/>
   <tile/>
   <tile/>
   <tile/>
   <tile/>
   <tile/>
   <tile/>
   <tile/>
   <tile/>
   <tile/>
   <tile/>
   <tile/>
   <tile/>
   <tile/>
   <tile/>
   <tile/>
   <tile/>
   <tile/>
   <tile/>
   <tile/>
   <tile/>
   <tile/>
   <tile/>
   <tile/>
   <tile/>
   <tile/>
   <tile/>
   <tile/>
   <tile/>
   <tile/>
   <tile/>
   <tile/>
   <tile/>
   <tile/>
   <tile/>
   <tile/>
   <tile/>
   <tile/>
   <tile/>
   <tile/>
   <tile/>
   <tile/>
   <tile/>
   <tile/>
   <tile/>
   <tile/>
   <tile/>
   <tile gid="900"/>
   <tile/>
   <tile/>
   <tile/>
   <tile/>
   <tile/>
   <tile/>
   <tile/>
   <tile/>
   <tile/>
   <tile/>
   <tile/>
   <tile/>
   <tile/>
   <tile/>
   <tile/>
   <tile/>
   <tile/>
   <tile/>
   <tile/>
   <tile/>
   <tile/>
   <tile/>
   <tile/>
   <tile/>
   <tile/>
   <tile/>
   <tile/>
   <tile/>
   <tile/>
   <tile/>
   <tile/>
   <tile/>
   <tile/>
   <tile/>
   <tile/>
   <tile/>
   <tile/>
   <tile/>
   <tile/>
   <tile/>
   <tile/>
   <tile/>
   <tile/>
   <tile/>
   <tile/>
   <tile/>
   <tile/>
   <tile/>
   <tile/>
   <tile/>
   <tile/>
   <tile/>
   <tile/>
   <tile/>
   <tile/>
   <tile/>
   <tile/>
   <tile/>
   <tile/>
   <tile/>
   <tile/>
   <tile/>
   <tile/>
   <tile/>
   <tile/>
   <tile/>
   <tile/>
   <tile/>
   <tile/>
   <tile/>
   <tile/>
   <tile/>
   <tile/>
   <tile/>
   <tile/>
   <tile/>
   <tile/>
   <tile/>
   <tile/>
   <tile/>
   <tile/>
   <tile/>
   <tile/>
   <tile/>
   <tile/>
   <tile/>
   <tile/>
   <tile/>
   <tile/>
   <tile/>
   <tile/>
   <tile/>
   <tile/>
   <tile/>
   <tile/>
   <tile/>
   <tile/>
   <tile/>
   <tile/>
   <tile/>
   <tile/>
   <tile/>
   <tile/>
   <tile/>
   <tile/>
   <tile/>
   <tile/>
   <tile/>
   <tile/>
   <tile/>
   <tile/>
   <tile/>
   <tile/>
   <tile/>
   <tile/>
   <tile/>
   <tile/>
   <tile/>
   <tile/>
   <tile/>
   <tile/>
   <tile/>
   <tile/>
   <tile/>
   <tile/>
   <tile/>
   <tile/>
   <tile/>
   <tile/>
   <tile/>
   <tile/>
   <tile/>
   <tile/>
   <tile/>
   <tile/>
   <tile/>
   <tile/>
   <tile/>
   <tile/>
   <tile/>
   <tile/>
   <tile/>
   <tile/>
   <tile/>
   <tile/>
   <tile/>
   <tile/>
   <tile/>
   <tile/>
   <tile/>
   <tile/>
   <tile/>
   <tile/>
   <tile/>
   <tile/>
   <tile/>
   <tile/>
   <tile/>
   <tile/>
   <tile/>
   <tile/>
   <tile/>
   <tile/>
   <tile/>
   <tile/>
   <tile/>
   <tile/>
   <tile/>
   <tile/>
   <tile/>
   <tile/>
   <tile/>
   <tile/>
   <tile/>
   <tile/>
   <tile/>
   <tile/>
   <tile/>
   <tile/>
   <tile/>
   <tile/>
   <tile/>
   <tile/>
   <tile/>
   <tile/>
   <tile/>
   <tile/>
   <tile/>
   <tile/>
   <tile/>
   <tile/>
  </data>
 </layer>
 <layer id="8" name="Map Change 6" width="19" height="20">
  <properties>
   <property name="Height" value="1"/>
   <property name="ID" value="6"/>
   <property name="Width" value="1"/>
   <property name="X" value="13"/>
   <property name="Y" value="17"/>
  </properties>
  <data>
   <tile/>
   <tile/>
   <tile/>
   <tile/>
   <tile/>
   <tile/>
   <tile/>
   <tile/>
   <tile/>
   <tile/>
   <tile/>
   <tile/>
   <tile/>
   <tile/>
   <tile/>
   <tile/>
   <tile/>
   <tile/>
   <tile/>
   <tile/>
   <tile/>
   <tile/>
   <tile/>
   <tile/>
   <tile/>
   <tile/>
   <tile/>
   <tile/>
   <tile/>
   <tile/>
   <tile/>
   <tile/>
   <tile/>
   <tile/>
   <tile/>
   <tile/>
   <tile/>
   <tile/>
   <tile/>
   <tile/>
   <tile/>
   <tile/>
   <tile/>
   <tile/>
   <tile/>
   <tile/>
   <tile/>
   <tile/>
   <tile/>
   <tile/>
   <tile/>
   <tile/>
   <tile/>
   <tile/>
   <tile/>
   <tile/>
   <tile/>
   <tile/>
   <tile/>
   <tile/>
   <tile/>
   <tile/>
   <tile/>
   <tile/>
   <tile/>
   <tile/>
   <tile/>
   <tile/>
   <tile/>
   <tile/>
   <tile/>
   <tile/>
   <tile/>
   <tile/>
   <tile/>
   <tile/>
   <tile/>
   <tile/>
   <tile/>
   <tile/>
   <tile/>
   <tile/>
   <tile/>
   <tile/>
   <tile/>
   <tile/>
   <tile/>
   <tile/>
   <tile/>
   <tile/>
   <tile/>
   <tile/>
   <tile/>
   <tile/>
   <tile/>
   <tile/>
   <tile/>
   <tile/>
   <tile/>
   <tile/>
   <tile/>
   <tile/>
   <tile/>
   <tile/>
   <tile/>
   <tile/>
   <tile/>
   <tile/>
   <tile/>
   <tile/>
   <tile/>
   <tile/>
   <tile/>
   <tile/>
   <tile/>
   <tile/>
   <tile/>
   <tile/>
   <tile/>
   <tile/>
   <tile/>
   <tile/>
   <tile/>
   <tile/>
   <tile/>
   <tile/>
   <tile/>
   <tile/>
   <tile/>
   <tile/>
   <tile/>
   <tile/>
   <tile/>
   <tile/>
   <tile/>
   <tile/>
   <tile/>
   <tile/>
   <tile/>
   <tile/>
   <tile/>
   <tile/>
   <tile/>
   <tile/>
   <tile/>
   <tile/>
   <tile/>
   <tile/>
   <tile/>
   <tile/>
   <tile/>
   <tile/>
   <tile/>
   <tile/>
   <tile/>
   <tile/>
   <tile/>
   <tile/>
   <tile/>
   <tile/>
   <tile/>
   <tile/>
   <tile/>
   <tile/>
   <tile/>
   <tile/>
   <tile/>
   <tile/>
   <tile/>
   <tile/>
   <tile/>
   <tile/>
   <tile/>
   <tile/>
   <tile/>
   <tile/>
   <tile/>
   <tile/>
   <tile/>
   <tile/>
   <tile/>
   <tile/>
   <tile/>
   <tile/>
   <tile/>
   <tile/>
   <tile/>
   <tile/>
   <tile/>
   <tile/>
   <tile/>
   <tile/>
   <tile/>
   <tile/>
   <tile/>
   <tile/>
   <tile/>
   <tile/>
   <tile/>
   <tile/>
   <tile/>
   <tile/>
   <tile/>
   <tile/>
   <tile/>
   <tile/>
   <tile/>
   <tile/>
   <tile/>
   <tile/>
   <tile/>
   <tile/>
   <tile/>
   <tile/>
   <tile/>
   <tile/>
   <tile/>
   <tile/>
   <tile/>
   <tile/>
   <tile/>
   <tile/>
   <tile/>
   <tile/>
   <tile/>
   <tile/>
   <tile/>
   <tile/>
   <tile/>
   <tile/>
   <tile/>
   <tile/>
   <tile/>
   <tile/>
   <tile/>
   <tile/>
   <tile/>
   <tile/>
   <tile/>
   <tile/>
   <tile/>
   <tile/>
   <tile/>
   <tile/>
   <tile/>
   <tile/>
   <tile/>
   <tile/>
   <tile/>
   <tile/>
   <tile/>
   <tile/>
   <tile/>
   <tile/>
   <tile/>
   <tile/>
   <tile/>
   <tile/>
   <tile/>
   <tile/>
   <tile/>
   <tile/>
   <tile/>
   <tile/>
   <tile/>
   <tile/>
   <tile/>
   <tile/>
   <tile/>
   <tile/>
   <tile/>
   <tile/>
   <tile/>
   <tile/>
   <tile/>
   <tile/>
   <tile/>
   <tile/>
   <tile/>
   <tile/>
   <tile/>
   <tile/>
   <tile/>
   <tile/>
   <tile/>
   <tile/>
   <tile/>
   <tile/>
   <tile/>
   <tile/>
   <tile/>
   <tile/>
   <tile/>
   <tile/>
   <tile/>
   <tile/>
   <tile/>
   <tile/>
   <tile/>
   <tile/>
   <tile/>
   <tile/>
   <tile/>
   <tile/>
   <tile/>
   <tile/>
   <tile/>
   <tile/>
   <tile/>
   <tile/>
   <tile/>
   <tile/>
   <tile/>
   <tile/>
   <tile/>
   <tile/>
   <tile/>
   <tile/>
   <tile/>
   <tile/>
   <tile/>
   <tile/>
   <tile/>
   <tile/>
   <tile/>
   <tile/>
   <tile/>
   <tile/>
   <tile/>
   <tile/>
   <tile/>
   <tile/>
   <tile/>
   <tile/>
   <tile/>
   <tile/>
   <tile gid="900"/>
   <tile/>
   <tile/>
   <tile/>
   <tile/>
   <tile/>
   <tile/>
   <tile/>
   <tile/>
   <tile/>
   <tile/>
   <tile/>
   <tile/>
   <tile/>
   <tile/>
   <tile/>
   <tile/>
   <tile/>
   <tile/>
   <tile/>
   <tile/>
   <tile/>
   <tile/>
   <tile/>
   <tile/>
   <tile/>
   <tile/>
   <tile/>
   <tile/>
   <tile/>
   <tile/>
   <tile/>
   <tile/>
   <tile/>
   <tile/>
   <tile/>
   <tile/>
   <tile/>
   <tile/>
   <tile/>
   <tile/>
   <tile/>
   <tile/>
   <tile/>
  </data>
 </layer>
 <layer id="9" name="Map Change 7" width="19" height="20">
  <properties>
   <property name="Height" value="20"/>
   <property name="ID" value="7"/>
   <property name="Width" value="19"/>
   <property name="X" value="0"/>
   <property name="Y" value="0"/>
  </properties>
  <data>
   <tile gid="41"/>
   <tile gid="41"/>
   <tile gid="41"/>
   <tile gid="41"/>
   <tile gid="41"/>
   <tile gid="41"/>
   <tile gid="41"/>
   <tile gid="41"/>
   <tile gid="41"/>
   <tile gid="41"/>
   <tile gid="41"/>
   <tile gid="41"/>
   <tile gid="41"/>
   <tile gid="41"/>
   <tile gid="41"/>
   <tile gid="41"/>
   <tile gid="41"/>
   <tile gid="41"/>
   <tile gid="41"/>
   <tile gid="41"/>
   <tile gid="41"/>
   <tile gid="41"/>
   <tile gid="41"/>
   <tile gid="41"/>
   <tile gid="41"/>
   <tile gid="41"/>
   <tile gid="41"/>
   <tile gid="41"/>
   <tile gid="41"/>
   <tile gid="41"/>
   <tile gid="41"/>
   <tile gid="41"/>
   <tile gid="41"/>
   <tile gid="41"/>
   <tile gid="41"/>
   <tile gid="41"/>
   <tile gid="41"/>
   <tile gid="41"/>
   <tile gid="41"/>
   <tile gid="41"/>
   <tile gid="41"/>
   <tile gid="41"/>
   <tile gid="41"/>
   <tile gid="41"/>
   <tile gid="41"/>
   <tile gid="41"/>
   <tile gid="41"/>
   <tile gid="41"/>
   <tile gid="41"/>
   <tile gid="41"/>
   <tile gid="41"/>
   <tile gid="41"/>
   <tile gid="41"/>
   <tile gid="41"/>
   <tile gid="41"/>
   <tile gid="41"/>
   <tile gid="41"/>
   <tile gid="41"/>
   <tile gid="41"/>
   <tile gid="41"/>
   <tile gid="41"/>
   <tile gid="41"/>
   <tile gid="41"/>
   <tile gid="41"/>
   <tile gid="41"/>
   <tile gid="41"/>
   <tile gid="41"/>
   <tile gid="41"/>
   <tile gid="41"/>
   <tile gid="41"/>
   <tile gid="41"/>
   <tile gid="41"/>
   <tile gid="41"/>
   <tile gid="41"/>
   <tile gid="41"/>
   <tile gid="41"/>
   <tile gid="41"/>
   <tile gid="41"/>
   <tile gid="41"/>
   <tile gid="41"/>
   <tile gid="41"/>
   <tile gid="41"/>
   <tile gid="41"/>
   <tile gid="41"/>
   <tile gid="41"/>
   <tile gid="41"/>
   <tile gid="41"/>
   <tile gid="41"/>
   <tile gid="41"/>
   <tile gid="41"/>
   <tile gid="41"/>
   <tile gid="41"/>
   <tile gid="41"/>
   <tile gid="41"/>
   <tile gid="41"/>
   <tile gid="41"/>
   <tile gid="41"/>
   <tile gid="41"/>
   <tile gid="41"/>
   <tile gid="41"/>
   <tile gid="41"/>
   <tile gid="41"/>
   <tile gid="41"/>
   <tile gid="41"/>
   <tile gid="41"/>
   <tile gid="41"/>
   <tile gid="41"/>
   <tile gid="41"/>
   <tile gid="41"/>
   <tile gid="41"/>
   <tile gid="41"/>
   <tile gid="41"/>
   <tile gid="41"/>
   <tile gid="41"/>
   <tile gid="41"/>
   <tile gid="41"/>
   <tile gid="41"/>
   <tile gid="41"/>
   <tile gid="41"/>
   <tile gid="41"/>
   <tile gid="41"/>
   <tile gid="41"/>
   <tile gid="41"/>
   <tile gid="41"/>
   <tile gid="41"/>
   <tile gid="41"/>
   <tile gid="41"/>
   <tile gid="41"/>
   <tile gid="41"/>
   <tile gid="41"/>
   <tile gid="41"/>
   <tile gid="41"/>
   <tile gid="41"/>
   <tile gid="41"/>
   <tile gid="41"/>
   <tile gid="41"/>
   <tile gid="41"/>
   <tile gid="41"/>
   <tile gid="41"/>
   <tile gid="41"/>
   <tile gid="41"/>
   <tile gid="41"/>
   <tile gid="41"/>
   <tile gid="41"/>
   <tile gid="41"/>
   <tile gid="41"/>
   <tile gid="41"/>
   <tile gid="41"/>
   <tile gid="41"/>
   <tile gid="41"/>
   <tile gid="41"/>
   <tile gid="41"/>
   <tile gid="41"/>
   <tile gid="41"/>
   <tile gid="41"/>
   <tile gid="41"/>
   <tile gid="41"/>
   <tile gid="41"/>
   <tile gid="41"/>
   <tile gid="41"/>
   <tile gid="41"/>
   <tile gid="41"/>
   <tile gid="41"/>
   <tile gid="41"/>
   <tile gid="41"/>
   <tile gid="41"/>
   <tile gid="41"/>
   <tile gid="41"/>
   <tile gid="41"/>
   <tile gid="41"/>
   <tile gid="41"/>
   <tile gid="41"/>
   <tile gid="41"/>
   <tile gid="41"/>
   <tile gid="41"/>
   <tile gid="41"/>
   <tile gid="41"/>
   <tile gid="41"/>
   <tile gid="41"/>
   <tile gid="41"/>
   <tile gid="41"/>
   <tile gid="41"/>
   <tile gid="41"/>
   <tile gid="41"/>
   <tile gid="41"/>
   <tile gid="41"/>
   <tile gid="41"/>
   <tile gid="41"/>
   <tile gid="41"/>
   <tile gid="41"/>
   <tile gid="41"/>
   <tile gid="41"/>
   <tile gid="41"/>
   <tile gid="41"/>
   <tile gid="41"/>
   <tile gid="41"/>
   <tile gid="41"/>
   <tile gid="41"/>
   <tile gid="41"/>
   <tile gid="41"/>
   <tile gid="41"/>
   <tile gid="41"/>
   <tile gid="41"/>
   <tile gid="41"/>
   <tile gid="41"/>
   <tile gid="41"/>
   <tile gid="41"/>
   <tile gid="41"/>
   <tile gid="41"/>
   <tile gid="41"/>
   <tile gid="41"/>
   <tile gid="41"/>
   <tile gid="41"/>
   <tile gid="41"/>
   <tile gid="41"/>
   <tile gid="41"/>
   <tile gid="41"/>
   <tile gid="41"/>
   <tile gid="41"/>
   <tile gid="41"/>
   <tile gid="41"/>
   <tile gid="41"/>
   <tile gid="41"/>
   <tile gid="41"/>
   <tile gid="41"/>
   <tile gid="41"/>
   <tile gid="41"/>
   <tile gid="41"/>
   <tile gid="41"/>
   <tile gid="41"/>
   <tile gid="41"/>
   <tile gid="41"/>
   <tile gid="41"/>
   <tile gid="41"/>
   <tile gid="41"/>
   <tile gid="41"/>
   <tile gid="41"/>
   <tile gid="41"/>
   <tile gid="41"/>
   <tile gid="41"/>
   <tile gid="41"/>
   <tile gid="41"/>
   <tile gid="41"/>
   <tile gid="41"/>
   <tile gid="41"/>
   <tile gid="41"/>
   <tile gid="41"/>
   <tile gid="41"/>
   <tile gid="41"/>
   <tile gid="41"/>
   <tile gid="41"/>
   <tile gid="41"/>
   <tile gid="41"/>
   <tile gid="41"/>
   <tile gid="41"/>
   <tile gid="41"/>
   <tile gid="41"/>
   <tile gid="41"/>
   <tile gid="41"/>
   <tile gid="41"/>
   <tile gid="41"/>
   <tile gid="41"/>
   <tile gid="41"/>
   <tile gid="41"/>
   <tile gid="41"/>
   <tile gid="41"/>
   <tile gid="41"/>
   <tile gid="41"/>
   <tile gid="41"/>
   <tile gid="41"/>
   <tile gid="41"/>
   <tile gid="41"/>
   <tile gid="41"/>
   <tile gid="41"/>
   <tile gid="41"/>
   <tile gid="41"/>
   <tile gid="41"/>
   <tile gid="41"/>
   <tile gid="41"/>
   <tile gid="41"/>
   <tile gid="41"/>
   <tile gid="41"/>
   <tile gid="41"/>
   <tile gid="41"/>
   <tile gid="41"/>
   <tile gid="41"/>
   <tile gid="41"/>
   <tile gid="41"/>
   <tile gid="41"/>
   <tile gid="41"/>
   <tile gid="41"/>
   <tile gid="41"/>
   <tile gid="41"/>
   <tile gid="41"/>
   <tile gid="41"/>
   <tile gid="41"/>
   <tile gid="41"/>
   <tile gid="41"/>
   <tile gid="41"/>
   <tile gid="41"/>
   <tile gid="41"/>
   <tile gid="41"/>
   <tile gid="41"/>
   <tile gid="41"/>
   <tile gid="41"/>
   <tile gid="41"/>
   <tile gid="41"/>
   <tile gid="41"/>
   <tile gid="41"/>
   <tile gid="41"/>
   <tile gid="41"/>
   <tile gid="41"/>
   <tile gid="41"/>
   <tile gid="41"/>
   <tile gid="41"/>
   <tile gid="41"/>
   <tile gid="41"/>
   <tile gid="41"/>
   <tile gid="41"/>
   <tile gid="41"/>
   <tile gid="41"/>
   <tile gid="41"/>
   <tile gid="41"/>
   <tile gid="41"/>
   <tile gid="41"/>
   <tile gid="41"/>
   <tile gid="41"/>
   <tile gid="41"/>
   <tile gid="41"/>
   <tile gid="41"/>
   <tile gid="41"/>
   <tile gid="41"/>
   <tile gid="41"/>
   <tile gid="41"/>
   <tile gid="41"/>
   <tile gid="41"/>
   <tile gid="41"/>
   <tile gid="41"/>
   <tile gid="41"/>
   <tile gid="41"/>
   <tile gid="41"/>
   <tile gid="41"/>
   <tile gid="41"/>
   <tile gid="41"/>
   <tile gid="41"/>
   <tile gid="41"/>
   <tile gid="41"/>
   <tile gid="41"/>
   <tile gid="41"/>
   <tile gid="41"/>
   <tile gid="41"/>
   <tile gid="41"/>
   <tile gid="41"/>
   <tile gid="41"/>
   <tile gid="41"/>
   <tile gid="41"/>
   <tile gid="41"/>
   <tile gid="41"/>
   <tile gid="41"/>
   <tile gid="41"/>
   <tile gid="41"/>
   <tile gid="41"/>
   <tile gid="41"/>
   <tile gid="41"/>
   <tile gid="41"/>
   <tile gid="41"/>
   <tile gid="41"/>
   <tile gid="41"/>
   <tile gid="41"/>
   <tile gid="41"/>
   <tile gid="41"/>
   <tile gid="41"/>
   <tile gid="41"/>
   <tile gid="41"/>
   <tile gid="41"/>
   <tile gid="41"/>
   <tile gid="41"/>
   <tile gid="41"/>
   <tile gid="41"/>
   <tile gid="41"/>
  </data>
 </layer>
</map>
