<?xml version="1.0" encoding="UTF-8"?>
<map version="1.10" tiledversion="1.11.2" orientation="orthogonal" renderorder="right-down" width="15" height="15" tilewidth="16" tileheight="16" infinite="0" nextlayerid="2" nextobjectid="1">
 <tileset firstgid="1" name="01000101" tilewidth="16" tileheight="16" tilecount="1024" columns="32">
  <image source="01000101.png" trans="ffffff" width="512" height="512"/>
 </tileset>
 <layer id="1" name="Tile Layer 1" width="15" height="15">
  <properties>
   <property name="Anims1" value="0"/>
   <property name="Anims2" value="0"/>
   <property name="ChapterID" value="0x3E"/>
   <property name="Main" value=""/>
   <property name="MapChangesID" value="0"/>
   <property name="MapID" value="0xD2"/>
   <property name="ObjectType" value="0x01"/>
   <property name="PaletteID" value="0x01"/>
   <property name="TileConfig" value="0x01"/>
  </properties>
  <data>
   <tile gid="428"/>
   <tile gid="462"/>
   <tile gid="498"/>
   <tile gid="721"/>
   <tile gid="99"/>
   <tile gid="99"/>
   <tile gid="808"/>
   <tile gid="809"/>
   <tile gid="810"/>
   <tile gid="99"/>
   <tile gid="99"/>
   <tile gid="99"/>
   <tile gid="939"/>
   <tile gid="940"/>
   <tile gid="941"/>
   <tile gid="428"/>
   <tile gid="462"/>
   <tile gid="497"/>
   <tile gid="680"/>
   <tile gid="99"/>
   <tile gid="99"/>
   <tile gid="840"/>
   <tile gid="841"/>
   <tile gid="842"/>
   <tile gid="99"/>
   <tile gid="99"/>
   <tile gid="99"/>
   <tile gid="971"/>
   <tile gid="972"/>
   <tile gid="973"/>
   <tile gid="492"/>
   <tile gid="462"/>
   <tile gid="462"/>
   <tile gid="498"/>
   <tile gid="99"/>
   <tile gid="99"/>
   <tile gid="872"/>
   <tile gid="873"/>
   <tile gid="874"/>
   <tile gid="721"/>
   <tile gid="99"/>
   <tile gid="99"/>
   <tile gid="1003"/>
   <tile gid="1004"/>
   <tile gid="1005"/>
   <tile gid="613"/>
   <tile gid="578"/>
   <tile gid="462"/>
   <tile gid="497"/>
   <tile gid="721"/>
   <tile gid="99"/>
   <tile gid="99"/>
   <tile gid="332"/>
   <tile gid="99"/>
   <tile gid="99"/>
   <tile gid="99"/>
   <tile gid="99"/>
   <tile gid="99"/>
   <tile gid="99"/>
   <tile gid="99"/>
   <tile gid="560"/>
   <tile gid="613"/>
   <tile gid="546"/>
   <tile gid="466"/>
   <tile gid="99"/>
   <tile gid="99"/>
   <tile gid="99"/>
   <tile gid="99"/>
   <tile gid="99"/>
   <tile gid="99"/>
   <tile gid="721"/>
   <tile gid="99"/>
   <tile gid="99"/>
   <tile gid="721"/>
   <tile gid="99"/>
   <tile gid="648"/>
   <tile gid="560"/>
   <tile gid="623"/>
   <tile gid="593"/>
   <tile gid="99"/>
   <tile gid="99"/>
   <tile gid="99"/>
   <tile gid="99"/>
   <tile gid="721"/>
   <tile gid="99"/>
   <tile gid="99"/>
   <tile gid="99"/>
   <tile gid="99"/>
   <tile gid="99"/>
   <tile gid="99"/>
   <tile gid="99"/>
   <tile gid="99"/>
   <tile gid="99"/>
   <tile gid="721"/>
   <tile gid="99"/>
   <tile gid="99"/>
   <tile gid="99"/>
   <tile gid="805"/>
   <tile gid="837"/>
   <tile gid="803"/>
   <tile gid="99"/>
   <tile gid="99"/>
   <tile gid="99"/>
   <tile gid="99"/>
   <tile gid="99"/>
   <tile gid="99"/>
   <tile gid="99"/>
   <tile gid="99"/>
   <tile gid="99"/>
   <tile gid="99"/>
   <tile gid="721"/>
   <tile gid="99"/>
   <tile gid="901"/>
   <tile gid="997"/>
   <tile gid="835"/>
   <tile gid="99"/>
   <tile gid="721"/>
   <tile gid="99"/>
   <tile gid="99"/>
   <tile gid="99"/>
   <tile gid="99"/>
   <tile gid="721"/>
   <tile gid="99"/>
   <tile gid="99"/>
   <tile gid="99"/>
   <tile gid="99"/>
   <tile gid="99"/>
   <tile gid="99"/>
   <tile gid="99"/>
   <tile gid="99"/>
   <tile gid="99"/>
   <tile gid="99"/>
   <tile gid="99"/>
   <tile gid="99"/>
   <tile gid="99"/>
   <tile gid="99"/>
   <tile gid="99"/>
   <tile gid="99"/>
   <tile gid="99"/>
   <tile gid="99"/>
   <tile gid="99"/>
   <tile gid="721"/>
   <tile gid="99"/>
   <tile gid="99"/>
   <tile gid="721"/>
   <tile gid="99"/>
   <tile gid="99"/>
   <tile gid="99"/>
   <tile gid="99"/>
   <tile gid="99"/>
   <tile gid="99"/>
   <tile gid="99"/>
   <tile gid="99"/>
   <tile gid="721"/>
   <tile gid="99"/>
   <tile gid="99"/>
   <tile gid="99"/>
   <tile gid="99"/>
   <tile gid="99"/>
   <tile gid="99"/>
   <tile gid="99"/>
   <tile gid="99"/>
   <tile gid="99"/>
   <tile gid="721"/>
   <tile gid="99"/>
   <tile gid="99"/>
   <tile gid="99"/>
   <tile gid="99"/>
   <tile gid="99"/>
   <tile gid="99"/>
   <tile gid="99"/>
   <tile gid="99"/>
   <tile gid="721"/>
   <tile gid="99"/>
   <tile gid="99"/>
   <tile gid="99"/>
   <tile gid="99"/>
   <tile gid="99"/>
   <tile gid="99"/>
   <tile gid="99"/>
   <tile gid="721"/>
   <tile gid="99"/>
   <tile gid="99"/>
   <tile gid="99"/>
   <tile gid="99"/>
   <tile gid="99"/>
   <tile gid="99"/>
   <tile gid="99"/>
   <tile gid="99"/>
   <tile gid="99"/>
   <tile gid="99"/>
   <tile gid="99"/>
   <tile gid="721"/>
   <tile gid="99"/>
   <tile gid="99"/>
   <tile gid="99"/>
   <tile gid="99"/>
   <tile gid="99"/>
   <tile gid="99"/>
   <tile gid="721"/>
   <tile gid="99"/>
   <tile gid="99"/>
   <tile gid="99"/>
   <tile gid="99"/>
   <tile gid="721"/>
   <tile gid="99"/>
   <tile gid="99"/>
   <tile gid="99"/>
   <tile gid="99"/>
   <tile gid="99"/>
   <tile gid="99"/>
   <tile gid="99"/>
   <tile gid="721"/>
   <tile gid="99"/>
   <tile gid="99"/>
   <tile gid="99"/>
   <tile gid="721"/>
   <tile gid="99"/>
   <tile gid="99"/>
   <tile gid="99"/>
   <tile gid="99"/>
   <tile gid="99"/>
   <tile gid="99"/>
   <tile gid="99"/>
   <tile gid="721"/>
  </data>
 </layer>
</map>
