<?xml version="1.0" encoding="UTF-8"?>
<map version="1.10" tiledversion="1.11.2" orientation="orthogonal" renderorder="right-down" width="12" height="7" tilewidth="8" tileheight="8" infinite="0" nextlayerid="2" nextobjectid="1">
 <tileset firstgid="1" name="MenuTiles" tilewidth="8" tileheight="8" tilecount="128" columns="16">
  <image source="../../MenuTiles.png" width="128" height="64"/>
 </tileset>
 <tileset firstgid="129" name="BobAnimsOffTiles" tilewidth="8" tileheight="8" tilecount="32" columns="8">
  <image source="../../../../../../../../../../../../Documents/Fire Emblem Roms/Hack UPS/FE8/Bells of Byelen/BellsFile/Teleshack/Graphics/Menu Tiles/Image/Png/BobAnimsOffTiles.png" width="64" height="32"/>
 </tileset>
 <layer id="1" name="Tile Layer 1" width="12" height="7">
  <data encoding="csv">
1,4,5,5,5,5,5,5,5,5,5,6,
1,26,26,26,26,26,26,26,26,26,26,16,
1,121,121,121,121,121,121,121,121,121,121,16,
1,14,14,14,14,14,14,14,14,14,14,16,
1,14,14,14,14,14,14,14,14,14,14,16,
1,14,14,14,14,14,14,14,14,14,14,16,
1,31,31,31,31,31,31,31,31,30,31,32
</data>
 </layer>
</map>
