<?xml version="1.0" encoding="UTF-8"?>
<map version="1.10" tiledversion="1.11.2" orientation="orthogonal" renderorder="right-down" width="11" height="7" tilewidth="8" tileheight="8" infinite="0" nextlayerid="2" nextobjectid="1">
 <tileset firstgid="1" name="MenuTiles" tilewidth="8" tileheight="8" tilecount="128" columns="16">
  <image source="../../MenuTiles.png" width="128" height="64"/>
 </tileset>
 <tileset firstgid="129" name="BobAnimsOffTiles" tilewidth="8" tileheight="8" tilecount="32" columns="8">
  <image source="../../../../../../../../../../../../Documents/Fire Emblem Roms/Hack UPS/FE8/Bells of Byelen/BellsFile/Teleshack/Graphics/Menu Tiles/Image/Png/BobAnimsOffTiles.png" width="64" height="32"/>
 </tileset>
 <layer id="1" name="Tile Layer 1" width="11" height="7">
  <data encoding="csv">
17,18,4,4,4,4,4,4,4,4,4,
7,26,26,26,26,26,26,26,26,26,26,
7,121,121,121,121,121,121,121,121,121,121,
7,14,14,14,14,14,14,14,14,14,14,
7,14,14,14,14,14,14,14,14,14,14,
7,14,14,14,14,14,14,14,14,14,14,
27,28,29,30,30,30,30,30,30,30,30
</data>
 </layer>
</map>
