<?xml version="1.0" encoding="UTF-8"?>
<map version="1.10" tiledversion="1.11.2" orientation="orthogonal" renderorder="right-down" width="30" height="20" tilewidth="8" tileheight="8" infinite="0" nextlayerid="2" nextobjectid="1">
 <tileset firstgid="1" name="MenuTiles" tilewidth="8" tileheight="8" tilecount="128" columns="16">
  <image source="../../MenuTiles.png" width="128" height="64"/>
 </tileset>
 <layer id="1" name="Tile Layer 1" width="30" height="20">
  <data encoding="csv">
2,3,2147483652,2147483652,2147483652,2147483652,2147483652,2147483652,2147483652,2147483652,2147483652,5,6,1,1,1,1,1,1,1,1,1,1,1,1,1,1,1,1,1,
7,10,25,25,25,25,25,25,25,25,25,10,11,2,3,2147483652,2147483652,2147483652,2147483652,2147483652,2147483652,2147483652,2147483652,2147483652,2147483652,2147483652,2147483652,2147483652,5,6,
7,10,71,25,25,25,25,25,25,25,25,10,11,8,25,25,25,25,25,25,25,25,25,25,25,25,25,25,25,16,
7,10,71,25,25,25,25,25,25,25,25,10,11,8,25,71,25,25,25,71,25,25,25,25,25,25,25,25,25,16,
7,10,71,25,25,25,25,25,25,25,25,10,11,8,25,71,25,25,25,71,25,25,25,25,25,25,25,25,25,16,
7,10,71,25,25,25,25,25,25,25,25,10,11,8,25,71,25,25,25,71,25,25,25,25,25,25,25,25,25,16,
7,10,71,25,25,25,25,25,25,25,25,10,11,8,25,71,25,25,25,71,25,25,25,25,25,25,25,25,25,16,
7,10,71,25,25,25,25,25,25,25,25,10,11,8,25,71,25,25,25,25,25,25,25,25,25,25,25,25,25,16,
7,10,71,25,25,25,25,25,25,10,10,10,11,8,25,25,25,25,25,25,25,25,25,25,25,25,25,25,25,16,
7,10,10,10,10,10,10,10,10,10,10,10,11,8,25,71,25,71,25,25,25,25,25,25,25,25,25,25,25,16,
103,104,104,104,104,104,104,104,104,104,104,104,105,8,25,71,25,71,25,25,25,25,25,25,25,25,25,25,25,16,
7,81,81,81,81,81,81,81,81,81,81,81,11,8,25,71,25,71,25,25,25,25,25,25,25,25,25,25,25,16,
27,28,28,28,28,28,28,28,28,28,28,28,32,8,25,71,25,71,25,25,25,25,25,25,25,25,25,25,25,16,
1,1,1,1,1,1,1,1,1,1,1,1,1,8,9,71,25,71,25,25,25,25,25,25,25,25,25,25,25,16,
1,1,1,1,1,1,1,1,1,1,1,1,1,8,9,71,25,71,25,25,25,25,25,25,25,25,25,25,25,16,
1,1,1,1,1,1,1,1,1,1,1,1,1,8,9,71,25,71,25,25,25,25,25,25,25,25,25,25,25,16,
1,1,1,1,1,1,1,1,1,1,1,1,1,8,9,25,25,25,25,25,25,25,25,25,25,25,25,25,25,16,
1,1,1,1,1,1,1,1,1,1,1,1,1,8,9,25,25,25,25,25,25,25,25,25,25,25,25,25,25,16,
1,1,1,1,1,1,1,1,1,1,1,1,1,8,9,25,25,25,25,25,25,25,25,25,25,25,25,25,15,16,
1,1,1,1,1,1,1,1,1,1,1,1,1,27,28,28,28,28,28,28,28,28,28,28,28,28,28,28,31,32
</data>
 </layer>
</map>
